N00000 (.../pcb-gcode-3.6.0.4/pcb-gcode.ulp)
N00010 (Copyright 2005 - 2012 by John Johnson)
N00020 (See readme.txt for licensing terms.)
N00030 (This file generated from the board:)
N00040 (.../eagle/ServoDriver/servodriver.brd)
N00050 (Current profile is .../pcb-gcode-3.6.0.4/profiles/generic.pp  )
N00060 (This file generated 2014-04-05 14:54:50)
N00070 (Settings from pcb-machine.h)
N00080 (  Tool Size)
N00090 (0.0100 )
N00100 (Z Axis Settings)
N00110 (  High     Up        Down     Drill)
N00120 (0.5000 	0.1000 	-0.0020 	-0.0700 )
N00130 (spindle on time = 1.0000)
N00140 (milling depth = -0.0100)
N00150 (text depth = -0.0025)
N00160 (tool change at 0.0000 0.0000 0.5000 )
N00170 (feed rate xy = F20.00 )
N00180 (feed rate z  = F10.00 )
N00190 (Settings from pcb-defaults.h)
N00200 (isolate min = 0.0020)
N00210 (isolate max = 0.0200)
N00220 (isolate step = 0.0100)
N00230 (Generated bottom outlines, bottom drill, )
N00240 (Unit of measure: inch)
N00250 (Inch Mode)
N00260 G20
N00270 (Absolute Coordinates)
N00280 G90
N00290 G00 X0.0000 Y0.0000 
N00300 M03
N00310 G04 P1.000000
N00320 G00 Z0.1000 
N00330 G00 X-1.3330 Y0.8707 
N00340 G01 Z-0.0020 F10.00 
N00350 G01 X-1.3330 Y0.9293 F20.00 
N00360 G01 X-1.3320 Y0.9343 
N00370 G01 X-1.3320 Y1.0103 
N00380 G01 X-1.3330 Y1.0113 
N00390 G01 X-1.3330 Y1.0387 
N00400 G01 X-1.3137 Y1.0580 
N00410 G01 X-1.2863 Y1.0580 
N00420 G01 X-1.2670 Y1.0387 
N00430 G01 X-1.2670 Y1.0113 
N00440 G01 X-1.2680 Y1.0103 
N00450 G01 X-1.2680 Y0.9343 
N00460 G01 X-1.2670 Y0.9293 
N00470 G01 X-1.2670 Y0.8707 
N00480 G01 X-1.2683 Y0.8644 
N00490 G01 X-1.2708 Y0.8584 
N00500 G01 X-1.2744 Y0.8530 
N00510 G01 X-1.2790 Y0.8484 
N00520 G01 X-1.2844 Y0.8448 
N00530 G01 X-1.2904 Y0.8423 
N00540 G01 X-1.2967 Y0.8410 
N00550 G01 X-1.3033 Y0.8410 
N00560 G01 X-1.3096 Y0.8423 
N00570 G01 X-1.3156 Y0.8448 
N00580 G01 X-1.3210 Y0.8484 
N00590 G01 X-1.3256 Y0.8530 
N00600 G01 X-1.3292 Y0.8584 
N00610 G01 X-1.3317 Y0.8644 
N00620 G01 X-1.3330 Y0.8707 
N00630 G00 Z0.1000 
N00640 G00 X-1.2330 Y0.8707 
N00650 G01 Z-0.0020 F10.00 
N00660 G01 X-1.2330 Y0.9293 F20.00 
N00670 G01 X-1.2317 Y0.9356 
N00680 G01 X-1.2292 Y0.9416 
N00690 G01 X-1.2256 Y0.9470 
N00700 G01 X-1.2210 Y0.9516 
N00710 G01 X-1.2156 Y0.9552 
N00720 G01 X-1.2096 Y0.9577 
N00730 G01 X-1.2033 Y0.9590 
N00740 G01 X-1.1967 Y0.9590 
N00750 G01 X-1.1904 Y0.9577 
N00760 G01 X-1.1844 Y0.9552 
N00770 G01 X-1.1790 Y0.9516 
N00780 G01 X-1.1744 Y0.9470 
N00790 G01 X-1.1708 Y0.9416 
N00800 G01 X-1.1683 Y0.9356 
N00810 G01 X-1.1670 Y0.9293 
N00820 G01 X-1.1670 Y0.8707 
N00830 G01 X-1.1683 Y0.8644 
N00840 G01 X-1.1708 Y0.8584 
N00850 G01 X-1.1744 Y0.8530 
N00860 G01 X-1.1790 Y0.8484 
N00870 G01 X-1.1844 Y0.8448 
N00880 G01 X-1.1904 Y0.8423 
N00890 G01 X-1.1967 Y0.8410 
N00900 G01 X-1.2033 Y0.8410 
N00910 G01 X-1.2096 Y0.8423 
N00920 G01 X-1.2156 Y0.8448 
N00930 G01 X-1.2210 Y0.8484 
N00940 G01 X-1.2256 Y0.8530 
N00950 G01 X-1.2292 Y0.8584 
N00960 G01 X-1.2317 Y0.8644 
N00970 G01 X-1.2330 Y0.8707 
N00980 G00 Z0.1000 
N00990 G00 X-1.1330 Y0.8707 
N01000 G01 Z-0.0020 F10.00 
N01010 G01 X-1.1330 Y0.9293 F20.00 
N01020 G01 X-1.1317 Y0.9356 
N01030 G01 X-1.1292 Y0.9416 
N01040 G01 X-1.1256 Y0.9470 
N01050 G01 X-1.1210 Y0.9516 
N01060 G01 X-1.1156 Y0.9552 
N01070 G01 X-1.1096 Y0.9577 
N01080 G01 X-1.1033 Y0.9590 
N01090 G01 X-1.0967 Y0.9590 
N01100 G01 X-1.0904 Y0.9577 
N01110 G01 X-1.0844 Y0.9552 
N01120 G01 X-1.0790 Y0.9516 
N01130 G01 X-1.0744 Y0.9470 
N01140 G01 X-1.0708 Y0.9416 
N01150 G01 X-1.0683 Y0.9356 
N01160 G01 X-1.0670 Y0.9293 
N01170 G01 X-1.0670 Y0.8707 
N01180 G01 X-1.0683 Y0.8644 
N01190 G01 X-1.0708 Y0.8584 
N01200 G01 X-1.0744 Y0.8530 
N01210 G01 X-1.0790 Y0.8484 
N01220 G01 X-1.0844 Y0.8448 
N01230 G01 X-1.0904 Y0.8423 
N01240 G01 X-1.0967 Y0.8410 
N01250 G01 X-1.1033 Y0.8410 
N01260 G01 X-1.1096 Y0.8423 
N01270 G01 X-1.1156 Y0.8448 
N01280 G01 X-1.1210 Y0.8484 
N01290 G01 X-1.1256 Y0.8530 
N01300 G01 X-1.1292 Y0.8584 
N01310 G01 X-1.1317 Y0.8644 
N01320 G01 X-1.1330 Y0.8707 
N01330 G00 Z0.1000 
N01340 G00 X-1.3330 Y0.5707 
N01350 G01 Z-0.0020 F10.00 
N01360 G01 X-1.3330 Y0.6293 F20.00 
N01370 G01 X-1.3317 Y0.6356 
N01380 G01 X-1.3292 Y0.6416 
N01390 G01 X-1.3256 Y0.6470 
N01400 G01 X-1.3210 Y0.6516 
N01410 G01 X-1.3156 Y0.6552 
N01420 G01 X-1.3096 Y0.6577 
N01430 G01 X-1.3033 Y0.6590 
N01440 G01 X-1.2967 Y0.6590 
N01450 G01 X-1.2904 Y0.6577 
N01460 G01 X-1.2844 Y0.6552 
N01470 G01 X-1.2790 Y0.6516 
N01480 G01 X-1.2744 Y0.6470 
N01490 G01 X-1.2708 Y0.6416 
N01500 G01 X-1.2683 Y0.6356 
N01510 G01 X-1.2670 Y0.6293 
N01520 G01 X-1.2670 Y0.5707 
N01530 G01 X-1.2680 Y0.5657 
N01540 G01 X-1.2680 Y0.4968 
N01550 G01 X-1.2692 Y0.4907 
N01560 G01 X-1.2716 Y0.4848 
N01570 G01 X-1.2751 Y0.4796 
N01580 G01 X-1.3751 Y0.3796 
N01590 G01 X-1.3796 Y0.3751 
N01600 G01 X-1.3848 Y0.3716 
N01610 G01 X-1.3907 Y0.3692 
N01620 G01 X-1.3968 Y0.3680 
N01630 G01 X-1.4680 Y0.3680 
N01640 G01 X-1.4680 Y0.3147 
N01650 G01 X-1.4670 Y0.3137 
N01660 G01 X-1.4670 Y0.2863 
N01670 G01 X-1.4680 Y0.2853 
N01680 G01 X-1.4680 Y0.2386 
N01690 G01 X-1.4674 Y0.2381 
N01700 G01 X-1.4619 Y0.2326 
N01710 G01 X-1.4572 Y0.2262 
N01720 G01 X-1.4537 Y0.2192 
N01730 G01 X-1.4512 Y0.2117 
N01740 G01 X-1.4500 Y0.2039 
N01750 G01 X-1.4500 Y0.1961 
N01760 G01 X-1.4512 Y0.1883 
N01770 G01 X-1.4537 Y0.1808 
N01780 G01 X-1.4572 Y0.1738 
N01790 G01 X-1.4619 Y0.1674 
N01800 G01 X-1.4674 Y0.1619 
N01810 G01 X-1.4738 Y0.1572 
N01820 G01 X-1.4808 Y0.1537 
N01830 G01 X-1.4883 Y0.1512 
N01840 G01 X-1.4961 Y0.1500 
N01850 G01 X-1.5039 Y0.1500 
N01860 G01 X-1.5117 Y0.1512 
N01870 G01 X-1.5192 Y0.1537 
N01880 G01 X-1.5262 Y0.1572 
N01890 G01 X-1.5326 Y0.1619 
N01900 G01 X-1.5381 Y0.1674 
N01910 G01 X-1.5428 Y0.1738 
N01920 G01 X-1.5463 Y0.1808 
N01930 G01 X-1.5488 Y0.1883 
N01940 G01 X-1.5500 Y0.1961 
N01950 G01 X-1.5500 Y0.2039 
N01960 G01 X-1.5488 Y0.2117 
N01970 G01 X-1.5463 Y0.2192 
N01980 G01 X-1.5428 Y0.2262 
N01990 G01 X-1.5381 Y0.2326 
N02000 G01 X-1.5326 Y0.2381 
N02010 G01 X-1.5320 Y0.2386 
N02020 G01 X-1.5320 Y0.2853 
N02030 G01 X-1.5330 Y0.2863 
N02040 G01 X-1.5330 Y0.3137 
N02050 G01 X-1.5320 Y0.3147 
N02060 G01 X-1.5320 Y0.4032 
N02070 G01 X-1.5308 Y0.4093 
N02080 G01 X-1.5284 Y0.4152 
N02090 G01 X-1.5249 Y0.4204 
N02100 G01 X-1.5204 Y0.4249 
N02110 G01 X-1.5152 Y0.4284 
N02120 G01 X-1.5093 Y0.4308 
N02130 G01 X-1.5032 Y0.4320 
N02140 G01 X-1.4133 Y0.4320 
N02150 G01 X-1.3320 Y0.5133 
N02160 G01 X-1.3320 Y0.5657 
N02170 G01 X-1.3330 Y0.5707 
N02180 G00 Z0.1000 
N02190 G00 X-1.2336 Y1.4370 
N02200 G01 Z-0.0020 F10.00 
N02210 G01 X-1.1664 Y1.4370 F20.00 
N02220 G01 X-1.1592 Y1.4356 
N02230 G01 X-1.1525 Y1.4328 
N02240 G01 X-1.1513 Y1.4320 
N02250 G01 X-1.0224 Y1.4320 
N02260 G01 X-1.0159 Y1.4385 
N02270 G01 X-0.9841 Y1.4385 
N02280 G01 X-0.9776 Y1.4320 
N02290 G01 X-0.8147 Y1.4320 
N02300 G01 X-0.8137 Y1.4330 
N02310 G01 X-0.7863 Y1.4330 
N02320 G01 X-0.7853 Y1.4320 
N02330 G01 X-0.6224 Y1.4320 
N02340 G01 X-0.6159 Y1.4385 
N02350 G01 X-0.5841 Y1.4385 
N02360 G01 X-0.5615 Y1.4159 
N02370 G01 X-0.5615 Y1.3841 
N02380 G01 X-0.5680 Y1.3776 
N02390 G01 X-0.5680 Y1.0320 
N02400 G01 X-0.3320 Y1.0320 
N02410 G01 X-0.3320 Y1.3277 
N02420 G01 X-0.3358 Y1.3316 
N02430 G01 X-0.3402 Y1.3376 
N02440 G01 X-0.3436 Y1.3442 
N02450 G01 X-0.3458 Y1.3512 
N02460 G01 X-0.3470 Y1.3585 
N02470 G01 X-0.3470 Y1.3659 
N02480 G01 X-0.3458 Y1.3732 
N02490 G01 X-0.3436 Y1.3802 
N02500 G01 X-0.3402 Y1.3868 
N02510 G01 X-0.3358 Y1.3928 
N02520 G01 X-0.3306 Y1.3981 
N02530 G01 X-0.3246 Y1.4024 
N02540 G01 X-0.3180 Y1.4058 
N02550 G01 X-0.3110 Y1.4080 
N02560 G01 X-0.3037 Y1.4092 
N02570 G01 X-0.2963 Y1.4092 
N02580 G01 X-0.2890 Y1.4080 
N02590 G01 X-0.2820 Y1.4058 
N02600 G01 X-0.2754 Y1.4024 
N02610 G01 X-0.2694 Y1.3981 
N02620 G01 X-0.2642 Y1.3928 
N02630 G01 X-0.2598 Y1.3868 
N02640 G01 X-0.2564 Y1.3802 
N02650 G01 X-0.2542 Y1.3732 
N02660 G01 X-0.2530 Y1.3659 
N02670 G01 X-0.2530 Y1.3585 
N02680 G01 X-0.2542 Y1.3512 
N02690 G01 X-0.2564 Y1.3442 
N02700 G01 X-0.2598 Y1.3376 
N02710 G01 X-0.2642 Y1.3316 
N02720 G01 X-0.2680 Y1.3277 
N02730 G01 X-0.2680 Y0.6741 
N02740 G01 X-0.2646 Y0.6689 
N02750 G01 X-0.2615 Y0.6617 
N02760 G01 X-0.2600 Y0.6539 
N02770 G01 X-0.2600 Y0.6461 
N02780 G01 X-0.2615 Y0.6383 
N02790 G01 X-0.2646 Y0.6311 
N02800 G01 X-0.2689 Y0.6245 
N02810 G01 X-0.2745 Y0.6189 
N02820 G01 X-0.2811 Y0.6146 
N02830 G01 X-0.2883 Y0.6115 
N02840 G01 X-0.2961 Y0.6100 
N02850 G01 X-0.3039 Y0.6100 
N02860 G01 X-0.3117 Y0.6115 
N02870 G01 X-0.3189 Y0.6146 
N02880 G01 X-0.3255 Y0.6189 
N02890 G01 X-0.3311 Y0.6245 
N02900 G01 X-0.3354 Y0.6311 
N02910 G01 X-0.3385 Y0.6383 
N02920 G01 X-0.3400 Y0.6461 
N02930 G01 X-0.3400 Y0.6539 
N02940 G01 X-0.3385 Y0.6617 
N02950 G01 X-0.3354 Y0.6689 
N02960 G01 X-0.3320 Y0.6741 
N02970 G01 X-0.3320 Y0.9680 
N02980 G01 X-0.5680 Y0.9680 
N02990 G01 X-0.5680 Y0.3647 
N03000 G01 X-0.5670 Y0.3637 
N03010 G01 X-0.5670 Y0.3363 
N03020 G01 X-0.5680 Y0.3353 
N03030 G01 X-0.5680 Y0.2487 
N03040 G01 X-0.5672 Y0.2475 
N03050 G01 X-0.5644 Y0.2408 
N03060 G01 X-0.5630 Y0.2336 
N03070 G01 X-0.5630 Y0.1664 
N03080 G01 X-0.5644 Y0.1592 
N03090 G01 X-0.5672 Y0.1525 
N03100 G01 X-0.5713 Y0.1464 
N03110 G01 X-0.5764 Y0.1413 
N03120 G01 X-0.5825 Y0.1372 
N03130 G01 X-0.5892 Y0.1344 
N03140 G01 X-0.5964 Y0.1330 
N03150 G01 X-0.6036 Y0.1330 
N03160 G01 X-0.6108 Y0.1344 
N03170 G01 X-0.6175 Y0.1372 
N03180 G01 X-0.6236 Y0.1413 
N03190 G01 X-0.6287 Y0.1464 
N03200 G01 X-0.6328 Y0.1525 
N03210 G01 X-0.6356 Y0.1592 
N03220 G01 X-0.6370 Y0.1664 
N03230 G01 X-0.6370 Y0.2336 
N03240 G01 X-0.6356 Y0.2408 
N03250 G01 X-0.6328 Y0.2475 
N03260 G01 X-0.6320 Y0.2487 
N03270 G01 X-0.6320 Y0.3353 
N03280 G01 X-0.6330 Y0.3363 
N03290 G01 X-0.6330 Y0.3637 
N03300 G01 X-0.6320 Y0.3647 
N03310 G01 X-0.6320 Y0.7180 
N03320 G01 X-1.1680 Y0.7180 
N03330 G01 X-1.1680 Y0.6343 
N03340 G01 X-1.1670 Y0.6293 
N03350 G01 X-1.1670 Y0.5707 
N03360 G01 X-1.1680 Y0.5657 
N03370 G01 X-1.1680 Y0.4468 
N03380 G01 X-1.1692 Y0.4407 
N03390 G01 X-1.1716 Y0.4348 
N03400 G01 X-1.1751 Y0.4296 
N03410 G01 X-1.2680 Y0.3367 
N03420 G01 X-1.2680 Y0.2356 
N03430 G01 X-1.2650 Y0.2326 
N03440 G01 X-1.2604 Y0.2262 
N03450 G01 X-1.2568 Y0.2192 
N03460 G01 X-1.2544 Y0.2117 
N03470 G01 X-1.2531 Y0.2039 
N03480 G01 X-1.2531 Y0.1961 
N03490 G01 X-1.2544 Y0.1883 
N03500 G01 X-1.2568 Y0.1808 
N03510 G01 X-1.2604 Y0.1738 
N03520 G01 X-1.2650 Y0.1674 
N03530 G01 X-1.2706 Y0.1619 
N03540 G01 X-1.2769 Y0.1572 
N03550 G01 X-1.2840 Y0.1537 
N03560 G01 X-1.2914 Y0.1512 
N03570 G01 X-1.2992 Y0.1500 
N03580 G01 X-1.3071 Y0.1500 
N03590 G01 X-1.3149 Y0.1512 
N03600 G01 X-1.3223 Y0.1537 
N03610 G01 X-1.3294 Y0.1572 
N03620 G01 X-1.3357 Y0.1619 
N03630 G01 X-1.3413 Y0.1674 
N03640 G01 X-1.3459 Y0.1738 
N03650 G01 X-1.3495 Y0.1808 
N03660 G01 X-1.3519 Y0.1883 
N03670 G01 X-1.3531 Y0.1961 
N03680 G01 X-1.3531 Y0.2039 
N03690 G01 X-1.3519 Y0.2117 
N03700 G01 X-1.3495 Y0.2192 
N03710 G01 X-1.3459 Y0.2262 
N03720 G01 X-1.3413 Y0.2326 
N03730 G01 X-1.3357 Y0.2381 
N03740 G01 X-1.3320 Y0.2408 
N03750 G01 X-1.3320 Y0.2680 
N03760 G01 X-1.3853 Y0.2680 
N03770 G01 X-1.3863 Y0.2670 
N03780 G01 X-1.4137 Y0.2670 
N03790 G01 X-1.4330 Y0.2863 
N03800 G01 X-1.4330 Y0.3137 
N03810 G01 X-1.4137 Y0.3330 
N03820 G01 X-1.3863 Y0.3330 
N03830 G01 X-1.3853 Y0.3320 
N03840 G01 X-1.3320 Y0.3320 
N03850 G01 X-1.3320 Y0.3532 
N03860 G01 X-1.3308 Y0.3593 
N03870 G01 X-1.3284 Y0.3652 
N03880 G01 X-1.3249 Y0.3704 
N03890 G01 X-1.3204 Y0.3749 
N03900 G01 X-1.2320 Y0.4633 
N03910 G01 X-1.2320 Y0.5657 
N03920 G01 X-1.2330 Y0.5707 
N03930 G01 X-1.2330 Y0.6293 
N03940 G01 X-1.2320 Y0.6343 
N03950 G01 X-1.2320 Y0.7180 
N03960 G01 X-1.3680 Y0.7180 
N03970 G01 X-1.3680 Y0.6343 
N03980 G01 X-1.3670 Y0.6293 
N03990 G01 X-1.3670 Y0.5707 
N04000 G01 X-1.3683 Y0.5644 
N04010 G01 X-1.3708 Y0.5584 
N04020 G01 X-1.3744 Y0.5530 
N04030 G01 X-1.3790 Y0.5484 
N04040 G01 X-1.3844 Y0.5448 
N04050 G01 X-1.3904 Y0.5423 
N04060 G01 X-1.3967 Y0.5410 
N04070 G01 X-1.4033 Y0.5410 
N04080 G01 X-1.4096 Y0.5423 
N04090 G01 X-1.4156 Y0.5448 
N04100 G01 X-1.4210 Y0.5484 
N04110 G01 X-1.4256 Y0.5530 
N04120 G01 X-1.4292 Y0.5584 
N04130 G01 X-1.4317 Y0.5644 
N04140 G01 X-1.4325 Y0.5680 
N04150 G01 X-1.5032 Y0.5680 
N04160 G01 X-1.5093 Y0.5692 
N04170 G01 X-1.5152 Y0.5716 
N04180 G01 X-1.5204 Y0.5751 
N04190 G01 X-1.5249 Y0.5796 
N04200 G01 X-1.5284 Y0.5848 
N04210 G01 X-1.5308 Y0.5907 
N04220 G01 X-1.5320 Y0.5968 
N04230 G01 X-1.5320 Y0.6853 
N04240 G01 X-1.5330 Y0.6863 
N04250 G01 X-1.5330 Y0.7137 
N04260 G01 X-1.5137 Y0.7330 
N04270 G01 X-1.4863 Y0.7330 
N04280 G01 X-1.4670 Y0.7137 
N04290 G01 X-1.4670 Y0.6863 
N04300 G01 X-1.4680 Y0.6853 
N04310 G01 X-1.4680 Y0.6320 
N04320 G01 X-1.4325 Y0.6320 
N04330 G01 X-1.4320 Y0.6343 
N04340 G01 X-1.4320 Y0.7532 
N04350 G01 X-1.4308 Y0.7593 
N04360 G01 X-1.4284 Y0.7652 
N04370 G01 X-1.4249 Y0.7704 
N04380 G01 X-1.4204 Y0.7749 
N04390 G01 X-1.4152 Y0.7784 
N04400 G01 X-1.4093 Y0.7808 
N04410 G01 X-1.4032 Y0.7820 
N04420 G01 X-0.6320 Y0.7820 
N04430 G01 X-0.6320 Y0.8680 
N04440 G01 X-0.7353 Y0.8680 
N04450 G01 X-0.7363 Y0.8670 
N04460 G01 X-0.7637 Y0.8670 
N04470 G01 X-0.7830 Y0.8863 
N04480 G01 X-0.7830 Y0.9137 
N04490 G01 X-0.7820 Y0.9147 
N04500 G01 X-0.7820 Y1.1353 
N04510 G01 X-0.7830 Y1.1363 
N04520 G01 X-0.7830 Y1.1637 
N04530 G01 X-0.7637 Y1.1830 
N04540 G01 X-0.7363 Y1.1830 
N04550 G01 X-0.7170 Y1.1637 
N04560 G01 X-0.7170 Y1.1363 
N04570 G01 X-0.7180 Y1.1353 
N04580 G01 X-0.7180 Y0.9320 
N04590 G01 X-0.6320 Y0.9320 
N04600 G01 X-0.6320 Y1.3680 
N04610 G01 X-0.7853 Y1.3680 
N04620 G01 X-0.7863 Y1.3670 
N04630 G01 X-0.8137 Y1.3670 
N04640 G01 X-0.8147 Y1.3680 
N04650 G01 X-0.9776 Y1.3680 
N04660 G01 X-0.9841 Y1.3615 
N04670 G01 X-1.0159 Y1.3615 
N04680 G01 X-1.0224 Y1.3680 
N04690 G01 X-1.1513 Y1.3680 
N04700 G01 X-1.1525 Y1.3672 
N04710 G01 X-1.1592 Y1.3644 
N04720 G01 X-1.1664 Y1.3630 
N04730 G01 X-1.2336 Y1.3630 
N04740 G01 X-1.2408 Y1.3644 
N04750 G01 X-1.2475 Y1.3672 
N04760 G01 X-1.2536 Y1.3713 
N04770 G01 X-1.2587 Y1.3764 
N04780 G01 X-1.2628 Y1.3825 
N04790 G01 X-1.2656 Y1.3892 
N04800 G01 X-1.2670 Y1.3964 
N04810 G01 X-1.2670 Y1.4036 
N04820 G01 X-1.2656 Y1.4108 
N04830 G01 X-1.2628 Y1.4175 
N04840 G01 X-1.2587 Y1.4236 
N04850 G01 X-1.2536 Y1.4287 
N04860 G01 X-1.2475 Y1.4328 
N04870 G01 X-1.2408 Y1.4356 
N04880 G01 X-1.2336 Y1.4370 
N04890 G00 Z0.1000 
N04900 G00 X-0.7320 Y0.6259 
N04910 G01 Z-0.0020 F10.00 
N04920 G01 X-0.7354 Y0.6311 F20.00 
N04930 G01 X-0.7385 Y0.6383 
N04940 G01 X-0.7400 Y0.6461 
N04950 G01 X-0.7400 Y0.6539 
N04960 G01 X-0.7385 Y0.6617 
N04970 G01 X-0.7354 Y0.6689 
N04980 G01 X-0.7311 Y0.6755 
N04990 G01 X-0.7255 Y0.6811 
N05000 G01 X-0.7189 Y0.6854 
N05010 G01 X-0.7117 Y0.6885 
N05020 G01 X-0.7039 Y0.6900 
N05030 G01 X-0.6961 Y0.6900 
N05040 G01 X-0.6883 Y0.6885 
N05050 G01 X-0.6811 Y0.6854 
N05060 G01 X-0.6745 Y0.6811 
N05070 G01 X-0.6689 Y0.6755 
N05080 G01 X-0.6646 Y0.6689 
N05090 G01 X-0.6615 Y0.6617 
N05100 G01 X-0.6600 Y0.6539 
N05110 G01 X-0.6600 Y0.6461 
N05120 G01 X-0.6615 Y0.6383 
N05130 G01 X-0.6646 Y0.6311 
N05140 G01 X-0.6680 Y0.6259 
N05150 G01 X-0.6680 Y0.3647 
N05160 G01 X-0.6670 Y0.3637 
N05170 G01 X-0.6670 Y0.3363 
N05180 G01 X-0.6680 Y0.3353 
N05190 G01 X-0.6680 Y0.2487 
N05200 G01 X-0.6672 Y0.2475 
N05210 G01 X-0.6644 Y0.2408 
N05220 G01 X-0.6630 Y0.2336 
N05230 G01 X-0.6630 Y0.1664 
N05240 G01 X-0.6644 Y0.1592 
N05250 G01 X-0.6672 Y0.1525 
N05260 G01 X-0.6713 Y0.1464 
N05270 G01 X-0.6764 Y0.1413 
N05280 G01 X-0.6825 Y0.1372 
N05290 G01 X-0.6892 Y0.1344 
N05300 G01 X-0.6964 Y0.1330 
N05310 G01 X-0.7036 Y0.1330 
N05320 G01 X-0.7108 Y0.1344 
N05330 G01 X-0.7175 Y0.1372 
N05340 G01 X-0.7236 Y0.1413 
N05350 G01 X-0.7287 Y0.1464 
N05360 G01 X-0.7328 Y0.1525 
N05370 G01 X-0.7356 Y0.1592 
N05380 G01 X-0.7370 Y0.1664 
N05390 G01 X-0.7370 Y0.2336 
N05400 G01 X-0.7356 Y0.2408 
N05410 G01 X-0.7328 Y0.2475 
N05420 G01 X-0.7320 Y0.2487 
N05430 G01 X-0.7320 Y0.3180 
N05440 G01 X-1.1367 Y0.3180 
N05450 G01 X-1.1680 Y0.2867 
N05460 G01 X-1.1680 Y0.0968 
N05470 G01 X-1.1692 Y0.0907 
N05480 G01 X-1.1716 Y0.0848 
N05490 G01 X-1.1751 Y0.0796 
N05500 G01 X-1.1796 Y0.0751 
N05510 G01 X-1.1848 Y0.0716 
N05520 G01 X-1.1907 Y0.0692 
N05530 G01 X-1.1968 Y0.0680 
N05540 G01 X-1.7032 Y0.0680 
N05550 G01 X-1.7093 Y0.0692 
N05560 G01 X-1.7152 Y0.0716 
N05570 G01 X-1.7204 Y0.0751 
N05580 G01 X-1.7249 Y0.0796 
N05590 G01 X-1.7284 Y0.0848 
N05600 G01 X-1.7308 Y0.0907 
N05610 G01 X-1.7320 Y0.0968 
N05620 G01 X-1.7320 Y0.1644 
N05630 G01 X-1.7350 Y0.1674 
N05640 G01 X-1.7396 Y0.1738 
N05650 G01 X-1.7432 Y0.1808 
N05660 G01 X-1.7456 Y0.1883 
N05670 G01 X-1.7469 Y0.1961 
N05680 G01 X-1.7469 Y0.2039 
N05690 G01 X-1.7456 Y0.2117 
N05700 G01 X-1.7432 Y0.2192 
N05710 G01 X-1.7396 Y0.2262 
N05720 G01 X-1.7350 Y0.2326 
N05730 G01 X-1.7320 Y0.2356 
N05740 G01 X-1.7320 Y0.9032 
N05750 G01 X-1.7308 Y0.9093 
N05760 G01 X-1.7284 Y0.9152 
N05770 G01 X-1.7249 Y0.9204 
N05780 G01 X-1.7204 Y0.9249 
N05790 G01 X-1.7152 Y0.9284 
N05800 G01 X-1.7093 Y0.9308 
N05810 G01 X-1.7032 Y0.9320 
N05820 G01 X-1.5320 Y0.9320 
N05830 G01 X-1.5320 Y1.1353 
N05840 G01 X-1.5330 Y1.1363 
N05850 G01 X-1.5330 Y1.1637 
N05860 G01 X-1.5320 Y1.1647 
N05870 G01 X-1.5320 Y1.3032 
N05880 G01 X-1.5308 Y1.3093 
N05890 G01 X-1.5284 Y1.3152 
N05900 G01 X-1.5249 Y1.3204 
N05910 G01 X-1.5204 Y1.3249 
N05920 G01 X-1.5152 Y1.3284 
N05930 G01 X-1.5093 Y1.3308 
N05940 G01 X-1.5032 Y1.3320 
N05950 G01 X-1.2487 Y1.3320 
N05960 G01 X-1.2475 Y1.3328 
N05970 G01 X-1.2408 Y1.3356 
N05980 G01 X-1.2336 Y1.3370 
N05990 G01 X-1.1664 Y1.3370 
N06000 G01 X-1.1592 Y1.3356 
N06010 G01 X-1.1525 Y1.3328 
N06020 G01 X-1.1513 Y1.3320 
N06030 G01 X-1.0214 Y1.3320 
N06040 G01 X-1.0182 Y1.3341 
N06050 G01 X-1.0112 Y1.3370 
N06060 G01 X-1.0038 Y1.3385 
N06070 G01 X-0.9962 Y1.3385 
N06080 G01 X-0.9888 Y1.3370 
N06090 G01 X-0.9818 Y1.3341 
N06100 G01 X-0.9755 Y1.3299 
N06110 G01 X-0.9701 Y1.3245 
N06120 G01 X-0.9659 Y1.3182 
N06130 G01 X-0.9630 Y1.3112 
N06140 G01 X-0.9615 Y1.3038 
N06150 G01 X-0.9615 Y1.2962 
N06160 G01 X-0.9630 Y1.2888 
N06170 G01 X-0.9659 Y1.2818 
N06180 G01 X-0.9701 Y1.2755 
N06190 G01 X-0.9755 Y1.2701 
N06200 G01 X-0.9818 Y1.2659 
N06210 G01 X-0.9888 Y1.2630 
N06220 G01 X-0.9962 Y1.2615 
N06230 G01 X-1.0038 Y1.2615 
N06240 G01 X-1.0112 Y1.2630 
N06250 G01 X-1.0182 Y1.2659 
N06260 G01 X-1.0214 Y1.2680 
N06270 G01 X-1.1513 Y1.2680 
N06280 G01 X-1.1525 Y1.2672 
N06290 G01 X-1.1592 Y1.2644 
N06300 G01 X-1.1664 Y1.2630 
N06310 G01 X-1.2336 Y1.2630 
N06320 G01 X-1.2408 Y1.2644 
N06330 G01 X-1.2475 Y1.2672 
N06340 G01 X-1.2487 Y1.2680 
N06350 G01 X-1.4680 Y1.2680 
N06360 G01 X-1.4680 Y1.1647 
N06370 G01 X-1.4670 Y1.1637 
N06380 G01 X-1.4670 Y1.1363 
N06390 G01 X-1.4680 Y1.1353 
N06400 G01 X-1.4680 Y0.9320 
N06410 G01 X-1.4325 Y0.9320 
N06420 G01 X-1.4317 Y0.9356 
N06430 G01 X-1.4292 Y0.9416 
N06440 G01 X-1.4256 Y0.9470 
N06450 G01 X-1.4210 Y0.9516 
N06460 G01 X-1.4156 Y0.9552 
N06470 G01 X-1.4096 Y0.9577 
N06480 G01 X-1.4033 Y0.9590 
N06490 G01 X-1.3967 Y0.9590 
N06500 G01 X-1.3904 Y0.9577 
N06510 G01 X-1.3844 Y0.9552 
N06520 G01 X-1.3790 Y0.9516 
N06530 G01 X-1.3744 Y0.9470 
N06540 G01 X-1.3708 Y0.9416 
N06550 G01 X-1.3683 Y0.9356 
N06560 G01 X-1.3670 Y0.9293 
N06570 G01 X-1.3670 Y0.8707 
N06580 G01 X-1.3683 Y0.8644 
N06590 G01 X-1.3708 Y0.8584 
N06600 G01 X-1.3744 Y0.8530 
N06610 G01 X-1.3790 Y0.8484 
N06620 G01 X-1.3844 Y0.8448 
N06630 G01 X-1.3904 Y0.8423 
N06640 G01 X-1.3967 Y0.8410 
N06650 G01 X-1.4033 Y0.8410 
N06660 G01 X-1.4096 Y0.8423 
N06670 G01 X-1.4156 Y0.8448 
N06680 G01 X-1.4210 Y0.8484 
N06690 G01 X-1.4256 Y0.8530 
N06700 G01 X-1.4292 Y0.8584 
N06710 G01 X-1.4317 Y0.8644 
N06720 G01 X-1.4325 Y0.8680 
N06730 G01 X-1.4680 Y0.8680 
N06740 G01 X-1.4680 Y0.8147 
N06750 G01 X-1.4670 Y0.8137 
N06760 G01 X-1.4670 Y0.7863 
N06770 G01 X-1.4863 Y0.7670 
N06780 G01 X-1.5137 Y0.7670 
N06790 G01 X-1.5330 Y0.7863 
N06800 G01 X-1.5330 Y0.8137 
N06810 G01 X-1.5320 Y0.8147 
N06820 G01 X-1.5320 Y0.8680 
N06830 G01 X-1.6680 Y0.8680 
N06840 G01 X-1.6680 Y0.2408 
N06850 G01 X-1.6643 Y0.2381 
N06860 G01 X-1.6587 Y0.2326 
N06870 G01 X-1.6541 Y0.2262 
N06880 G01 X-1.6505 Y0.2192 
N06890 G01 X-1.6481 Y0.2117 
N06900 G01 X-1.6469 Y0.2039 
N06910 G01 X-1.6469 Y0.1961 
N06920 G01 X-1.6481 Y0.1883 
N06930 G01 X-1.6505 Y0.1808 
N06940 G01 X-1.6541 Y0.1738 
N06950 G01 X-1.6587 Y0.1674 
N06960 G01 X-1.6643 Y0.1619 
N06970 G01 X-1.6680 Y0.1592 
N06980 G01 X-1.6680 Y0.1320 
N06990 G01 X-1.2320 Y0.1320 
N07000 G01 X-1.2320 Y0.3032 
N07010 G01 X-1.2308 Y0.3093 
N07020 G01 X-1.2284 Y0.3152 
N07030 G01 X-1.2249 Y0.3204 
N07040 G01 X-1.2204 Y0.3249 
N07050 G01 X-1.1704 Y0.3749 
N07060 G01 X-1.1652 Y0.3784 
N07070 G01 X-1.1593 Y0.3808 
N07080 G01 X-1.1532 Y0.3820 
N07090 G01 X-0.7320 Y0.3820 
N07100 G01 X-0.7320 Y0.6259 
N07110 G00 Z0.1000 
N07120 G00 X-0.2586 Y1.4530 
N07130 G01 Z-0.0020 F10.00 
N07140 G01 X-0.3414 Y1.4530 F20.00 
N07150 G01 X-0.3440 Y1.4541 
N07160 G01 X-0.3459 Y1.4560 
N07170 G01 X-0.3470 Y1.4586 
N07180 G01 X-0.3470 Y1.4680 
N07190 G01 X-0.5786 Y1.4680 
N07200 G01 X-0.5818 Y1.4659 
N07210 G01 X-0.5888 Y1.4630 
N07220 G01 X-0.5962 Y1.4615 
N07230 G01 X-0.6038 Y1.4615 
N07240 G01 X-0.6112 Y1.4630 
N07250 G01 X-0.6182 Y1.4659 
N07260 G01 X-0.6214 Y1.4680 
N07270 G01 X-0.7853 Y1.4680 
N07280 G01 X-0.7863 Y1.4670 
N07290 G01 X-0.8137 Y1.4670 
N07300 G01 X-0.8147 Y1.4680 
N07310 G01 X-1.1513 Y1.4680 
N07320 G01 X-1.1525 Y1.4672 
N07330 G01 X-1.1592 Y1.4644 
N07340 G01 X-1.1664 Y1.4630 
N07350 G01 X-1.2336 Y1.4630 
N07360 G01 X-1.2408 Y1.4644 
N07370 G01 X-1.2475 Y1.4672 
N07380 G01 X-1.2536 Y1.4713 
N07390 G01 X-1.2587 Y1.4764 
N07400 G01 X-1.2628 Y1.4825 
N07410 G01 X-1.2656 Y1.4892 
N07420 G01 X-1.2670 Y1.4964 
N07430 G01 X-1.2670 Y1.5036 
N07440 G01 X-1.2656 Y1.5108 
N07450 G01 X-1.2628 Y1.5175 
N07460 G01 X-1.2587 Y1.5236 
N07470 G01 X-1.2536 Y1.5287 
N07480 G01 X-1.2475 Y1.5328 
N07490 G01 X-1.2408 Y1.5356 
N07500 G01 X-1.2336 Y1.5370 
N07510 G01 X-1.1664 Y1.5370 
N07520 G01 X-1.1592 Y1.5356 
N07530 G01 X-1.1525 Y1.5328 
N07540 G01 X-1.1513 Y1.5320 
N07550 G01 X-0.8147 Y1.5320 
N07560 G01 X-0.8137 Y1.5330 
N07570 G01 X-0.7863 Y1.5330 
N07580 G01 X-0.7853 Y1.5320 
N07590 G01 X-0.6214 Y1.5320 
N07600 G01 X-0.6182 Y1.5341 
N07610 G01 X-0.6112 Y1.5370 
N07620 G01 X-0.6038 Y1.5385 
N07630 G01 X-0.5962 Y1.5385 
N07640 G01 X-0.5888 Y1.5370 
N07650 G01 X-0.5818 Y1.5341 
N07660 G01 X-0.5786 Y1.5320 
N07670 G01 X-0.3470 Y1.5320 
N07680 G01 X-0.3470 Y1.5414 
N07690 G01 X-0.3459 Y1.5440 
N07700 G01 X-0.3440 Y1.5459 
N07710 G01 X-0.3414 Y1.5470 
N07720 G01 X-0.2586 Y1.5470 
N07730 G01 X-0.2560 Y1.5459 
N07740 G01 X-0.2541 Y1.5440 
N07750 G01 X-0.2530 Y1.5414 
N07760 G01 X-0.2530 Y1.4586 
N07770 G01 X-0.2541 Y1.4560 
N07780 G01 X-0.2560 Y1.4541 
N07790 G01 X-0.2586 Y1.4530 
N07800 G00 Z0.1000 
N07810 G00 X-1.0137 Y0.6330 
N07820 G01 Z-0.0020 F10.00 
N07830 G01 X-0.9863 Y0.6330 F20.00 
N07840 G01 X-0.9670 Y0.6137 
N07850 G01 X-0.9670 Y0.5863 
N07860 G01 X-0.9863 Y0.5670 
N07870 G01 X-1.0137 Y0.5670 
N07880 G01 X-1.0147 Y0.5680 
N07890 G01 X-1.0675 Y0.5680 
N07900 G01 X-1.0683 Y0.5644 
N07910 G01 X-1.0708 Y0.5584 
N07920 G01 X-1.0744 Y0.5530 
N07930 G01 X-1.0790 Y0.5484 
N07940 G01 X-1.0844 Y0.5448 
N07950 G01 X-1.0904 Y0.5423 
N07960 G01 X-1.0967 Y0.5410 
N07970 G01 X-1.1033 Y0.5410 
N07980 G01 X-1.1096 Y0.5423 
N07990 G01 X-1.1156 Y0.5448 
N08000 G01 X-1.1210 Y0.5484 
N08010 G01 X-1.1256 Y0.5530 
N08020 G01 X-1.1292 Y0.5584 
N08030 G01 X-1.1317 Y0.5644 
N08040 G01 X-1.1330 Y0.5707 
N08050 G01 X-1.1330 Y0.6293 
N08060 G01 X-1.1317 Y0.6356 
N08070 G01 X-1.1292 Y0.6416 
N08080 G01 X-1.1256 Y0.6470 
N08090 G01 X-1.1210 Y0.6516 
N08100 G01 X-1.1156 Y0.6552 
N08110 G01 X-1.1096 Y0.6577 
N08120 G01 X-1.1033 Y0.6590 
N08130 G01 X-1.0967 Y0.6590 
N08140 G01 X-1.0904 Y0.6577 
N08150 G01 X-1.0844 Y0.6552 
N08160 G01 X-1.0790 Y0.6516 
N08170 G01 X-1.0744 Y0.6470 
N08180 G01 X-1.0708 Y0.6416 
N08190 G01 X-1.0683 Y0.6356 
N08200 G01 X-1.0675 Y0.6320 
N08210 G01 X-1.0147 Y0.6320 
N08220 G01 X-1.0137 Y0.6330 
N08230 G00 Z0.1000 
N08240 G00 X-1.0330 Y0.1863 
N08250 G01 Z-0.0020 F10.00 
N08260 G01 X-1.0330 Y0.2137 F20.00 
N08270 G01 X-1.0137 Y0.2330 
N08280 G01 X-0.9863 Y0.2330 
N08290 G01 X-0.9853 Y0.2320 
N08300 G01 X-0.8370 Y0.2320 
N08310 G01 X-0.8370 Y0.2336 
N08320 G01 X-0.8356 Y0.2408 
N08330 G01 X-0.8328 Y0.2475 
N08340 G01 X-0.8287 Y0.2536 
N08350 G01 X-0.8236 Y0.2587 
N08360 G01 X-0.8175 Y0.2628 
N08370 G01 X-0.8108 Y0.2656 
N08380 G01 X-0.8036 Y0.2670 
N08390 G01 X-0.7964 Y0.2670 
N08400 G01 X-0.7892 Y0.2656 
N08410 G01 X-0.7825 Y0.2628 
N08420 G01 X-0.7764 Y0.2587 
N08430 G01 X-0.7713 Y0.2536 
N08440 G01 X-0.7672 Y0.2475 
N08450 G01 X-0.7644 Y0.2408 
N08460 G01 X-0.7630 Y0.2336 
N08470 G01 X-0.7630 Y0.1664 
N08480 G01 X-0.7644 Y0.1592 
N08490 G01 X-0.7672 Y0.1525 
N08500 G01 X-0.7713 Y0.1464 
N08510 G01 X-0.7764 Y0.1413 
N08520 G01 X-0.7825 Y0.1372 
N08530 G01 X-0.7892 Y0.1344 
N08540 G01 X-0.7964 Y0.1330 
N08550 G01 X-0.8036 Y0.1330 
N08560 G01 X-0.8108 Y0.1344 
N08570 G01 X-0.8175 Y0.1372 
N08580 G01 X-0.8236 Y0.1413 
N08590 G01 X-0.8287 Y0.1464 
N08600 G01 X-0.8328 Y0.1525 
N08610 G01 X-0.8356 Y0.1592 
N08620 G01 X-0.8370 Y0.1664 
N08630 G01 X-0.8370 Y0.1680 
N08640 G01 X-0.9853 Y0.1680 
N08650 G01 X-0.9863 Y0.1670 
N08660 G01 X-1.0137 Y0.1670 
N08670 G01 X-1.0330 Y0.1863 
N08680 G00 Z0.1000 
N08690 G00 X-0.8637 Y1.1830 
N08700 G01 Z-0.0020 F10.00 
N08710 G01 X-0.8363 Y1.1830 F20.00 
N08720 G01 X-0.8170 Y1.1637 
N08730 G01 X-0.8170 Y1.1363 
N08740 G01 X-0.8363 Y1.1170 
N08750 G01 X-0.8637 Y1.1170 
N08760 G01 X-0.8647 Y1.1180 
N08770 G01 X-1.0853 Y1.1180 
N08780 G01 X-1.0863 Y1.1170 
N08790 G01 X-1.1137 Y1.1170 
N08800 G01 X-1.1330 Y1.1363 
N08810 G01 X-1.1330 Y1.1637 
N08820 G01 X-1.1137 Y1.1830 
N08830 G01 X-1.0863 Y1.1830 
N08840 G01 X-1.0853 Y1.1820 
N08850 G01 X-0.8647 Y1.1820 
N08860 G01 X-0.8637 Y1.1830 
N08870 G00 Z0.1000 
N08880 G00 X-0.8830 Y0.8863 
N08890 G01 Z-0.0020 F10.00 
N08900 G01 X-0.8830 Y0.9137 F20.00 
N08910 G01 X-0.8820 Y0.9147 
N08920 G01 X-0.8820 Y0.9367 
N08930 G01 X-0.9204 Y0.9751 
N08940 G01 X-0.9249 Y0.9796 
N08950 G01 X-0.9284 Y0.9848 
N08960 G01 X-0.9308 Y0.9907 
N08970 G01 X-0.9320 Y0.9968 
N08980 G01 X-0.9320 Y1.0103 
N08990 G01 X-0.9330 Y1.0113 
N09000 G01 X-0.9330 Y1.0387 
N09010 G01 X-0.9137 Y1.0580 
N09020 G01 X-0.8863 Y1.0580 
N09030 G01 X-0.8670 Y1.0387 
N09040 G01 X-0.8670 Y1.0123 
N09050 G01 X-0.8251 Y0.9704 
N09060 G01 X-0.8216 Y0.9652 
N09070 G01 X-0.8192 Y0.9593 
N09080 G01 X-0.8180 Y0.9532 
N09090 G01 X-0.8180 Y0.9147 
N09100 G01 X-0.8170 Y0.9137 
N09110 G01 X-0.8170 Y0.8863 
N09120 G01 X-0.8363 Y0.8670 
N09130 G01 X-0.8637 Y0.8670 
N09140 G01 X-0.8830 Y0.8863 
N00000 G00 Z0.1000 
N00010 G00 X-1.3430 Y0.5706 
N00020 G01 Z-0.0020 F10.00 
N00030 G01 X-1.3430 Y0.6294 F20.00 
N00040 G01 X-1.3419 Y0.6361 
N00050 G01 X-1.3398 Y0.6425 
N00060 G01 X-1.3368 Y0.6485 
N00070 G01 X-1.3328 Y0.6540 
N00080 G01 X-1.3280 Y0.6588 
N00090 G01 X-1.3225 Y0.6628 
N00100 G01 X-1.3165 Y0.6658 
N00110 G01 X-1.3101 Y0.6679 
N00120 G01 X-1.3034 Y0.6690 
N00130 G01 X-1.2966 Y0.6690 
N00140 G01 X-1.2899 Y0.6679 
N00150 G01 X-1.2835 Y0.6658 
N00160 G01 X-1.2775 Y0.6628 
N00170 G01 X-1.2720 Y0.6588 
N00180 G01 X-1.2672 Y0.6540 
N00190 G01 X-1.2632 Y0.6485 
N00200 G01 X-1.2602 Y0.6425 
N00210 G01 X-1.2581 Y0.6361 
N00220 G01 X-1.2570 Y0.6294 
N00230 G01 X-1.2570 Y0.5706 
N00240 G01 X-1.2580 Y0.5643 
N00250 G01 X-1.2580 Y0.4967 
N00260 G01 X-1.2590 Y0.4902 
N00270 G01 X-1.2611 Y0.4839 
N00280 G01 X-1.2641 Y0.4780 
N00290 G01 X-1.2680 Y0.4726 
N00300 G01 X-1.3680 Y0.3726 
N00310 G01 X-1.3726 Y0.3680 
N00320 G01 X-1.3780 Y0.3641 
N00330 G01 X-1.3839 Y0.3611 
N00340 G01 X-1.3902 Y0.3590 
N00350 G01 X-1.3967 Y0.3580 
N00360 G01 X-1.4580 Y0.3580 
N00370 G01 X-1.4580 Y0.3188 
N00380 G01 X-1.4570 Y0.3178 
N00390 G01 X-1.4570 Y0.2822 
N00400 G01 X-1.4580 Y0.2812 
N00410 G01 X-1.4580 Y0.2429 
N00420 G01 X-1.4542 Y0.2391 
N00430 G01 X-1.4487 Y0.2314 
N00440 G01 X-1.4444 Y0.2230 
N00450 G01 X-1.4415 Y0.2140 
N00460 G01 X-1.4400 Y0.2047 
N00470 G01 X-1.4400 Y0.1953 
N00480 G01 X-1.4415 Y0.1859 
N00490 G01 X-1.4444 Y0.1770 
N00500 G01 X-1.4487 Y0.1686 
N00510 G01 X-1.4542 Y0.1609 
N00520 G01 X-1.4609 Y0.1542 
N00530 G01 X-1.4686 Y0.1487 
N00540 G01 X-1.4770 Y0.1444 
N00550 G01 X-1.4843 Y0.1420 
N00560 G01 X-1.3188 Y0.1420 
N00570 G01 X-1.3262 Y0.1444 
N00580 G01 X-1.3346 Y0.1487 
N00590 G01 X-1.3422 Y0.1542 
N00600 G01 X-1.3489 Y0.1609 
N00610 G01 X-1.3545 Y0.1686 
N00620 G01 X-1.3588 Y0.1770 
N00630 G01 X-1.3617 Y0.1859 
N00640 G01 X-1.3631 Y0.1953 
N00650 G01 X-1.3631 Y0.2047 
N00660 G01 X-1.3617 Y0.2140 
N00670 G01 X-1.3588 Y0.2230 
N00680 G01 X-1.3545 Y0.2314 
N00690 G01 X-1.3489 Y0.2391 
N00700 G01 X-1.3422 Y0.2458 
N00710 G01 X-1.3420 Y0.2459 
N00720 G01 X-1.3420 Y0.2580 
N00730 G01 X-1.3812 Y0.2580 
N00740 G01 X-1.3822 Y0.2570 
N00750 G01 X-1.4178 Y0.2570 
N00760 G01 X-1.4430 Y0.2822 
N00770 G01 X-1.4430 Y0.3178 
N00780 G01 X-1.4178 Y0.3430 
N00790 G01 X-1.3822 Y0.3430 
N00800 G01 X-1.3812 Y0.3420 
N00810 G01 X-1.3420 Y0.3420 
N00820 G01 X-1.3420 Y0.3533 
N00830 G01 X-1.3410 Y0.3598 
N00840 G01 X-1.3389 Y0.3661 
N00850 G01 X-1.3359 Y0.3720 
N00860 G01 X-1.3320 Y0.3774 
N00870 G01 X-1.3274 Y0.3820 
N00880 G01 X-1.2420 Y0.4674 
N00890 G01 X-1.2420 Y0.5643 
N00900 G01 X-1.2430 Y0.5706 
N00910 G01 X-1.2430 Y0.6294 
N00920 G01 X-1.2420 Y0.6357 
N00930 G01 X-1.2420 Y0.7080 
N00940 G01 X-1.3580 Y0.7080 
N00950 G01 X-1.3580 Y0.6357 
N00960 G01 X-1.3570 Y0.6294 
N00970 G01 X-1.3570 Y0.5706 
N00980 G01 X-1.3581 Y0.5639 
N00990 G01 X-1.3602 Y0.5575 
N01000 G01 X-1.3632 Y0.5515 
N01010 G01 X-1.3672 Y0.5460 
N01020 G01 X-1.3720 Y0.5412 
N01030 G01 X-1.3775 Y0.5372 
N01040 G01 X-1.3835 Y0.5342 
N01050 G01 X-1.3899 Y0.5321 
N01060 G01 X-1.3966 Y0.5310 
N01070 G01 X-1.4034 Y0.5310 
N01080 G01 X-1.4101 Y0.5321 
N01090 G01 X-1.4165 Y0.5342 
N01100 G01 X-1.4225 Y0.5372 
N01110 G01 X-1.4280 Y0.5412 
N01120 G01 X-1.4328 Y0.5460 
N01130 G01 X-1.4368 Y0.5515 
N01140 G01 X-1.4398 Y0.5575 
N01150 G01 X-1.4400 Y0.5580 
N01160 G01 X-1.5033 Y0.5580 
N01170 G01 X-1.5098 Y0.5590 
N01180 G01 X-1.5161 Y0.5611 
N01190 G01 X-1.5220 Y0.5641 
N01200 G01 X-1.5274 Y0.5680 
N01210 G01 X-1.5320 Y0.5726 
N01220 G01 X-1.5359 Y0.5780 
N01230 G01 X-1.5389 Y0.5839 
N01240 G01 X-1.5410 Y0.5902 
N01250 G01 X-1.5420 Y0.5967 
N01260 G01 X-1.5420 Y0.6812 
N01270 G01 X-1.5430 Y0.6822 
N01280 G01 X-1.5430 Y0.7178 
N01290 G01 X-1.5178 Y0.7430 
N01300 G01 X-1.4822 Y0.7430 
N01310 G01 X-1.4570 Y0.7178 
N01320 G01 X-1.4570 Y0.6822 
N01330 G01 X-1.4580 Y0.6812 
N01340 G01 X-1.4580 Y0.6420 
N01350 G01 X-1.4420 Y0.6420 
N01360 G01 X-1.4420 Y0.7533 
N01370 G01 X-1.4410 Y0.7598 
N01380 G01 X-1.4389 Y0.7661 
N01390 G01 X-1.4359 Y0.7720 
N01400 G01 X-1.4320 Y0.7774 
N01410 G01 X-1.4274 Y0.7820 
N01420 G01 X-1.4220 Y0.7859 
N01430 G01 X-1.4161 Y0.7889 
N01440 G01 X-1.4098 Y0.7910 
N01450 G01 X-1.4033 Y0.7920 
N01460 G01 X-0.6420 Y0.7920 
N01470 G01 X-0.6420 Y0.8580 
N01480 G01 X-0.7312 Y0.8580 
N01490 G01 X-0.7322 Y0.8570 
N01500 G01 X-0.7678 Y0.8570 
N01510 G01 X-0.7930 Y0.8822 
N01520 G01 X-0.7930 Y0.9178 
N01530 G01 X-0.7920 Y0.9188 
N01540 G01 X-0.7920 Y1.1312 
N01550 G01 X-0.7930 Y1.1322 
N01560 G01 X-0.7930 Y1.1678 
N01570 G01 X-0.7678 Y1.1930 
N01580 G01 X-0.7322 Y1.1930 
N01590 G01 X-0.7070 Y1.1678 
N01600 G01 X-0.7070 Y1.1322 
N01610 G01 X-0.7080 Y1.1312 
N01620 G01 X-0.7080 Y0.9420 
N01630 G01 X-0.6420 Y0.9420 
N01640 G01 X-0.6420 Y1.3580 
N01650 G01 X-0.7812 Y1.3580 
N01660 G01 X-0.7822 Y1.3570 
N01670 G01 X-0.8178 Y1.3570 
N01680 G01 X-0.8188 Y1.3580 
N01690 G01 X-0.9734 Y1.3580 
N01700 G01 X-0.9799 Y1.3515 
N01710 G01 X-1.0201 Y1.3515 
N01720 G01 X-1.0266 Y1.3580 
N01730 G01 X-1.1489 Y1.3580 
N01740 G01 X-1.1520 Y1.3564 
N01750 G01 X-1.1590 Y1.3542 
N01760 G01 X-1.1663 Y1.3530 
N01770 G01 X-1.2337 Y1.3530 
N01780 G01 X-1.2410 Y1.3542 
N01790 G01 X-1.2480 Y1.3564 
N01800 G01 X-1.2546 Y1.3598 
N01810 G01 X-1.2606 Y1.3642 
N01820 G01 X-1.2658 Y1.3694 
N01830 G01 X-1.2702 Y1.3754 
N01840 G01 X-1.2736 Y1.3820 
N01850 G01 X-1.2758 Y1.3890 
N01860 G01 X-1.2770 Y1.3963 
N01870 G01 X-1.2770 Y1.4037 
N01880 G01 X-1.2758 Y1.4110 
N01890 G01 X-1.2736 Y1.4180 
N01900 G01 X-1.2702 Y1.4246 
N01910 G01 X-1.2658 Y1.4306 
N01920 G01 X-1.2606 Y1.4358 
N01930 G01 X-1.2546 Y1.4402 
N01940 G01 X-1.2480 Y1.4436 
N01950 G01 X-1.2410 Y1.4458 
N01960 G01 X-1.2337 Y1.4470 
N01970 G01 X-1.1663 Y1.4470 
N01980 G01 X-1.1590 Y1.4458 
N01990 G01 X-1.1520 Y1.4436 
N02000 G01 X-1.1489 Y1.4420 
N02010 G01 X-1.0266 Y1.4420 
N02020 G01 X-1.0201 Y1.4485 
N02030 G01 X-0.9799 Y1.4485 
N02040 G01 X-0.9734 Y1.4420 
N02050 G01 X-0.8188 Y1.4420 
N02060 G01 X-0.8178 Y1.4430 
N02070 G01 X-0.7822 Y1.4430 
N02080 G01 X-0.7812 Y1.4420 
N02090 G01 X-0.6266 Y1.4420 
N02100 G01 X-0.6201 Y1.4485 
N02110 G01 X-0.5799 Y1.4485 
N02120 G01 X-0.5515 Y1.4201 
N02130 G01 X-0.5515 Y1.3799 
N02140 G01 X-0.5580 Y1.3734 
N02150 G01 X-0.5580 Y1.0420 
N02160 G01 X-0.3420 Y1.0420 
N02170 G01 X-0.3420 Y1.3236 
N02180 G01 X-0.3435 Y1.3251 
N02190 G01 X-0.3488 Y1.3323 
N02200 G01 X-0.3528 Y1.3403 
N02210 G01 X-0.3556 Y1.3489 
N02220 G01 X-0.3570 Y1.3577 
N02230 G01 X-0.3570 Y1.3667 
N02240 G01 X-0.3556 Y1.3756 
N02250 G01 X-0.3528 Y1.3841 
N02260 G01 X-0.3488 Y1.3921 
N02270 G01 X-0.3435 Y1.3993 
N02280 G01 X-0.3371 Y1.4057 
N02290 G01 X-0.3299 Y1.4110 
N02300 G01 X-0.3219 Y1.4150 
N02310 G01 X-0.3133 Y1.4178 
N02320 G01 X-0.3045 Y1.4192 
N02330 G01 X-0.2955 Y1.4192 
N02340 G01 X-0.2867 Y1.4178 
N02350 G01 X-0.2781 Y1.4150 
N02360 G01 X-0.2701 Y1.4110 
N02370 G01 X-0.2629 Y1.4057 
N02380 G01 X-0.2565 Y1.3993 
N02390 G01 X-0.2512 Y1.3921 
N02400 G01 X-0.2472 Y1.3841 
N02410 G01 X-0.2444 Y1.3756 
N02420 G01 X-0.2430 Y1.3667 
N02430 G01 X-0.2430 Y1.3577 
N02440 G01 X-0.2444 Y1.3489 
N02450 G01 X-0.2472 Y1.3403 
N02460 G01 X-0.2512 Y1.3323 
N02470 G01 X-0.2565 Y1.3251 
N02480 G01 X-0.2580 Y1.3236 
N02490 G01 X-0.2580 Y0.6773 
N02500 G01 X-0.2572 Y0.6762 
N02510 G01 X-0.2537 Y0.6692 
N02520 G01 X-0.2512 Y0.6617 
N02530 G01 X-0.2500 Y0.6539 
N02540 G01 X-0.2500 Y0.6461 
N02550 G01 X-0.2512 Y0.6383 
N02560 G01 X-0.2537 Y0.6308 
N02570 G01 X-0.2572 Y0.6238 
N02580 G01 X-0.2619 Y0.6174 
N02590 G01 X-0.2674 Y0.6119 
N02600 G01 X-0.2738 Y0.6072 
N02610 G01 X-0.2808 Y0.6037 
N02620 G01 X-0.2883 Y0.6012 
N02630 G01 X-0.2961 Y0.6000 
N02640 G01 X-0.3039 Y0.6000 
N02650 G01 X-0.3117 Y0.6012 
N02660 G01 X-0.3192 Y0.6037 
N02670 G01 X-0.3262 Y0.6072 
N02680 G01 X-0.3326 Y0.6119 
N02690 G01 X-0.3381 Y0.6174 
N02700 G01 X-0.3428 Y0.6238 
N02710 G01 X-0.3463 Y0.6308 
N02720 G01 X-0.3488 Y0.6383 
N02730 G01 X-0.3500 Y0.6461 
N02740 G01 X-0.3500 Y0.6539 
N02750 G01 X-0.3488 Y0.6617 
N02760 G01 X-0.3463 Y0.6692 
N02770 G01 X-0.3428 Y0.6762 
N02780 G01 X-0.3420 Y0.6773 
N02790 G01 X-0.3420 Y0.9580 
N02800 G01 X-0.5580 Y0.9580 
N02810 G01 X-0.5580 Y0.3688 
N02820 G01 X-0.5570 Y0.3678 
N02830 G01 X-0.5570 Y0.3322 
N02840 G01 X-0.5580 Y0.3312 
N02850 G01 X-0.5580 Y0.2511 
N02860 G01 X-0.5564 Y0.2480 
N02870 G01 X-0.5542 Y0.2410 
N02880 G01 X-0.5530 Y0.2337 
N02890 G01 X-0.5530 Y0.1663 
N02900 G01 X-0.5542 Y0.1590 
N02910 G01 X-0.5564 Y0.1520 
N02920 G01 X-0.5598 Y0.1454 
N02930 G01 X-0.5642 Y0.1394 
N02940 G01 X-0.5694 Y0.1342 
N02950 G01 X-0.5754 Y0.1298 
N02960 G01 X-0.5820 Y0.1264 
N02970 G01 X-0.5890 Y0.1242 
N02980 G01 X-0.5963 Y0.1230 
N02990 G01 X-0.6037 Y0.1230 
N03000 G01 X-0.6110 Y0.1242 
N03010 G01 X-0.6180 Y0.1264 
N03020 G01 X-0.6246 Y0.1298 
N03030 G01 X-0.6306 Y0.1342 
N03040 G01 X-0.6358 Y0.1394 
N03050 G01 X-0.6402 Y0.1454 
N03060 G01 X-0.6436 Y0.1520 
N03070 G01 X-0.6458 Y0.1590 
N03080 G01 X-0.6470 Y0.1663 
N03090 G01 X-0.6470 Y0.2337 
N03100 G01 X-0.6458 Y0.2410 
N03110 G01 X-0.6436 Y0.2480 
N03120 G01 X-0.6420 Y0.2511 
N03130 G01 X-0.6420 Y0.3312 
N03140 G01 X-0.6430 Y0.3322 
N03150 G01 X-0.6430 Y0.3678 
N03160 G01 X-0.6420 Y0.3688 
N03170 G01 X-0.6420 Y0.7080 
N03180 G01 X-1.1580 Y0.7080 
N03190 G01 X-1.1580 Y0.6357 
N03200 G01 X-1.1570 Y0.6294 
N03210 G01 X-1.1570 Y0.5706 
N03220 G01 X-1.1580 Y0.5643 
N03230 G01 X-1.1580 Y0.4467 
N03240 G01 X-1.1590 Y0.4402 
N03250 G01 X-1.1611 Y0.4339 
N03260 G01 X-1.1641 Y0.4280 
N03270 G01 X-1.1680 Y0.4226 
N03280 G01 X-1.2580 Y0.3326 
N03290 G01 X-1.2580 Y0.2397 
N03300 G01 X-1.2574 Y0.2391 
N03310 G01 X-1.2518 Y0.2314 
N03320 G01 X-1.2475 Y0.2230 
N03330 G01 X-1.2446 Y0.2140 
N03340 G01 X-1.2431 Y0.2047 
N03350 G01 X-1.2431 Y0.1953 
N03360 G01 X-1.2446 Y0.1859 
N03370 G01 X-1.2475 Y0.1770 
N03380 G01 X-1.2518 Y0.1686 
N03390 G01 X-1.2574 Y0.1609 
N03400 G01 X-1.2641 Y0.1542 
N03410 G01 X-1.2717 Y0.1487 
N03420 G01 X-1.2801 Y0.1444 
N03430 G01 X-1.2875 Y0.1420 
N03440 G01 X-1.2420 Y0.1420 
N03450 G01 X-1.2420 Y0.3033 
N03460 G01 X-1.2410 Y0.3098 
N03470 G01 X-1.2389 Y0.3161 
N03480 G01 X-1.2359 Y0.3220 
N03490 G01 X-1.2320 Y0.3274 
N03500 G01 X-1.2274 Y0.3320 
N03510 G01 X-1.1774 Y0.3820 
N03520 G01 X-1.1720 Y0.3859 
N03530 G01 X-1.1661 Y0.3889 
N03540 G01 X-1.1598 Y0.3910 
N03550 G01 X-1.1533 Y0.3920 
N03560 G01 X-0.7420 Y0.3920 
N03570 G01 X-0.7420 Y0.6227 
N03580 G01 X-0.7428 Y0.6238 
N03590 G01 X-0.7463 Y0.6308 
N03600 G01 X-0.7488 Y0.6383 
N03610 G01 X-0.7500 Y0.6461 
N03620 G01 X-0.7500 Y0.6539 
N03630 G01 X-0.7488 Y0.6617 
N03640 G01 X-0.7463 Y0.6692 
N03650 G01 X-0.7428 Y0.6762 
N03660 G01 X-0.7381 Y0.6826 
N03670 G01 X-0.7326 Y0.6881 
N03680 G01 X-0.7262 Y0.6928 
N03690 G01 X-0.7192 Y0.6963 
N03700 G01 X-0.7117 Y0.6988 
N03710 G01 X-0.7039 Y0.7000 
N03720 G01 X-0.6961 Y0.7000 
N03730 G01 X-0.6883 Y0.6988 
N03740 G01 X-0.6808 Y0.6963 
N03750 G01 X-0.6738 Y0.6928 
N03760 G01 X-0.6674 Y0.6881 
N03770 G01 X-0.6619 Y0.6826 
N03780 G01 X-0.6572 Y0.6762 
N03790 G01 X-0.6537 Y0.6692 
N03800 G01 X-0.6512 Y0.6617 
N03810 G01 X-0.6500 Y0.6539 
N03820 G01 X-0.6500 Y0.6461 
N03830 G01 X-0.6512 Y0.6383 
N03840 G01 X-0.6537 Y0.6308 
N03850 G01 X-0.6572 Y0.6238 
N03860 G01 X-0.6580 Y0.6227 
N03870 G01 X-0.6580 Y0.3688 
N03880 G01 X-0.6570 Y0.3678 
N03890 G01 X-0.6570 Y0.3322 
N03900 G01 X-0.6580 Y0.3312 
N03910 G01 X-0.6580 Y0.2511 
N03920 G01 X-0.6564 Y0.2480 
N03930 G01 X-0.6542 Y0.2410 
N03940 G01 X-0.6530 Y0.2337 
N03950 G01 X-0.6530 Y0.1663 
N03960 G01 X-0.6542 Y0.1590 
N03970 G01 X-0.6564 Y0.1520 
N03980 G01 X-0.6598 Y0.1454 
N03990 G01 X-0.6642 Y0.1394 
N04000 G01 X-0.6694 Y0.1342 
N04010 G01 X-0.6754 Y0.1298 
N04020 G01 X-0.6820 Y0.1264 
N04030 G01 X-0.6890 Y0.1242 
N04040 G01 X-0.6963 Y0.1230 
N04050 G01 X-0.7037 Y0.1230 
N04060 G01 X-0.7110 Y0.1242 
N04070 G01 X-0.7180 Y0.1264 
N04080 G01 X-0.7246 Y0.1298 
N04090 G01 X-0.7306 Y0.1342 
N04100 G01 X-0.7358 Y0.1394 
N04110 G01 X-0.7402 Y0.1454 
N04120 G01 X-0.7436 Y0.1520 
N04130 G01 X-0.7458 Y0.1590 
N04140 G01 X-0.7470 Y0.1663 
N04150 G01 X-0.7470 Y0.2337 
N04160 G01 X-0.7458 Y0.2410 
N04170 G01 X-0.7436 Y0.2480 
N04180 G01 X-0.7420 Y0.2511 
N04190 G01 X-0.7420 Y0.3080 
N04200 G01 X-1.1326 Y0.3080 
N04210 G01 X-1.1580 Y0.2826 
N04220 G01 X-1.1580 Y0.0967 
N04230 G01 X-1.1590 Y0.0902 
N04240 G01 X-1.1611 Y0.0839 
N04250 G01 X-1.1641 Y0.0780 
N04260 G01 X-1.1680 Y0.0726 
N04270 G01 X-1.1726 Y0.0680 
N04280 G01 X-1.1780 Y0.0641 
N04290 G01 X-1.1839 Y0.0611 
N04300 G01 X-1.1902 Y0.0590 
N04310 G01 X-1.1967 Y0.0580 
N04320 G01 X-1.7033 Y0.0580 
N04330 G01 X-1.7098 Y0.0590 
N04340 G01 X-1.7161 Y0.0611 
N04350 G01 X-1.7220 Y0.0641 
N04360 G01 X-1.7274 Y0.0680 
N04370 G01 X-1.7320 Y0.0726 
N04380 G01 X-1.7359 Y0.0780 
N04390 G01 X-1.7389 Y0.0839 
N04400 G01 X-1.7410 Y0.0902 
N04410 G01 X-1.7420 Y0.0967 
N04420 G01 X-1.7420 Y0.1603 
N04430 G01 X-1.7426 Y0.1609 
N04440 G01 X-1.7482 Y0.1686 
N04450 G01 X-1.7525 Y0.1770 
N04460 G01 X-1.7554 Y0.1859 
N04470 G01 X-1.7569 Y0.1953 
N04480 G01 X-1.7569 Y0.2047 
N04490 G01 X-1.7554 Y0.2140 
N04500 G01 X-1.7525 Y0.2230 
N04510 G01 X-1.7482 Y0.2314 
N04520 G01 X-1.7426 Y0.2391 
N04530 G01 X-1.7420 Y0.2397 
N04540 G01 X-1.7420 Y0.9033 
N04550 G01 X-1.7410 Y0.9098 
N04560 G01 X-1.7389 Y0.9161 
N04570 G01 X-1.7359 Y0.9220 
N04580 G01 X-1.7320 Y0.9274 
N04590 G01 X-1.7274 Y0.9320 
N04600 G01 X-1.7220 Y0.9359 
N04610 G01 X-1.7161 Y0.9389 
N04620 G01 X-1.7098 Y0.9410 
N04630 G01 X-1.7033 Y0.9420 
N04640 G01 X-1.5420 Y0.9420 
N04650 G01 X-1.5420 Y1.1312 
N04660 G01 X-1.5430 Y1.1322 
N04670 G01 X-1.5430 Y1.1678 
N04680 G01 X-1.5420 Y1.1688 
N04690 G01 X-1.5420 Y1.3033 
N04700 G01 X-1.5410 Y1.3098 
N04710 G01 X-1.5389 Y1.3161 
N04720 G01 X-1.5359 Y1.3220 
N04730 G01 X-1.5320 Y1.3274 
N04740 G01 X-1.5274 Y1.3320 
N04750 G01 X-1.5220 Y1.3359 
N04760 G01 X-1.5161 Y1.3389 
N04770 G01 X-1.5098 Y1.3410 
N04780 G01 X-1.5033 Y1.3420 
N04790 G01 X-1.2511 Y1.3420 
N04800 G01 X-1.2480 Y1.3436 
N04810 G01 X-1.2410 Y1.3458 
N04820 G01 X-1.2337 Y1.3470 
N04830 G01 X-1.1663 Y1.3470 
N04840 G01 X-1.1590 Y1.3458 
N04850 G01 X-1.1520 Y1.3436 
N04860 G01 X-1.1489 Y1.3420 
N04870 G01 X-1.0244 Y1.3420 
N04880 G01 X-1.0186 Y1.3449 
N04890 G01 X-1.0114 Y1.3473 
N04900 G01 X-1.0038 Y1.3485 
N04910 G01 X-0.9962 Y1.3485 
N04920 G01 X-0.9886 Y1.3473 
N04930 G01 X-0.9814 Y1.3449 
N04940 G01 X-0.9746 Y1.3415 
N04950 G01 X-0.9684 Y1.3370 
N04960 G01 X-0.9630 Y1.3316 
N04970 G01 X-0.9585 Y1.3254 
N04980 G01 X-0.9551 Y1.3186 
N04990 G01 X-0.9527 Y1.3114 
N05000 G01 X-0.9515 Y1.3038 
N05010 G01 X-0.9515 Y1.2962 
N05020 G01 X-0.9527 Y1.2886 
N05030 G01 X-0.9551 Y1.2814 
N05040 G01 X-0.9585 Y1.2746 
N05050 G01 X-0.9630 Y1.2684 
N05060 G01 X-0.9684 Y1.2630 
N05070 G01 X-0.9746 Y1.2585 
N05080 G01 X-0.9814 Y1.2551 
N05090 G01 X-0.9886 Y1.2527 
N05100 G01 X-0.9962 Y1.2515 
N05110 G01 X-1.0038 Y1.2515 
N05120 G01 X-1.0114 Y1.2527 
N05130 G01 X-1.0186 Y1.2551 
N05140 G01 X-1.0244 Y1.2580 
N05150 G01 X-1.1489 Y1.2580 
N05160 G01 X-1.1520 Y1.2564 
N05170 G01 X-1.1590 Y1.2542 
N05180 G01 X-1.1663 Y1.2530 
N05190 G01 X-1.2337 Y1.2530 
N05200 G01 X-1.2410 Y1.2542 
N05210 G01 X-1.2480 Y1.2564 
N05220 G01 X-1.2511 Y1.2580 
N05230 G01 X-1.4580 Y1.2580 
N05240 G01 X-1.4580 Y1.1688 
N05250 G01 X-1.4570 Y1.1678 
N05260 G01 X-1.4570 Y1.1322 
N05270 G01 X-1.4580 Y1.1312 
N05280 G01 X-1.4580 Y0.9420 
N05290 G01 X-1.4400 Y0.9420 
N05300 G01 X-1.4398 Y0.9425 
N05310 G01 X-1.4368 Y0.9485 
N05320 G01 X-1.4328 Y0.9540 
N05330 G01 X-1.4280 Y0.9588 
N05340 G01 X-1.4225 Y0.9628 
N05350 G01 X-1.4165 Y0.9658 
N05360 G01 X-1.4101 Y0.9679 
N05370 G01 X-1.4034 Y0.9690 
N05380 G01 X-1.3966 Y0.9690 
N05390 G01 X-1.3899 Y0.9679 
N05400 G01 X-1.3835 Y0.9658 
N05410 G01 X-1.3775 Y0.9628 
N05420 G01 X-1.3720 Y0.9588 
N05430 G01 X-1.3672 Y0.9540 
N05440 G01 X-1.3632 Y0.9485 
N05450 G01 X-1.3602 Y0.9425 
N05460 G01 X-1.3581 Y0.9361 
N05470 G01 X-1.3570 Y0.9294 
N05480 G01 X-1.3570 Y0.8706 
N05490 G01 X-1.3581 Y0.8639 
N05500 G01 X-1.3602 Y0.8575 
N05510 G01 X-1.3632 Y0.8515 
N05520 G01 X-1.3672 Y0.8460 
N05530 G01 X-1.3720 Y0.8412 
N05540 G01 X-1.3775 Y0.8372 
N05550 G01 X-1.3835 Y0.8342 
N05560 G01 X-1.3899 Y0.8321 
N05570 G01 X-1.3966 Y0.8310 
N05580 G01 X-1.4034 Y0.8310 
N05590 G01 X-1.4101 Y0.8321 
N05600 G01 X-1.4165 Y0.8342 
N05610 G01 X-1.4225 Y0.8372 
N05620 G01 X-1.4280 Y0.8412 
N05630 G01 X-1.4328 Y0.8460 
N05640 G01 X-1.4368 Y0.8515 
N05650 G01 X-1.4398 Y0.8575 
N05660 G01 X-1.4400 Y0.8580 
N05670 G01 X-1.4580 Y0.8580 
N05680 G01 X-1.4580 Y0.8188 
N05690 G01 X-1.4570 Y0.8178 
N05700 G01 X-1.4570 Y0.7822 
N05710 G01 X-1.4822 Y0.7570 
N05720 G01 X-1.5178 Y0.7570 
N05730 G01 X-1.5430 Y0.7822 
N05740 G01 X-1.5430 Y0.8178 
N05750 G01 X-1.5420 Y0.8188 
N05760 G01 X-1.5420 Y0.8580 
N05770 G01 X-1.6580 Y0.8580 
N05780 G01 X-1.6580 Y0.2459 
N05790 G01 X-1.6578 Y0.2458 
N05800 G01 X-1.6511 Y0.2391 
N05810 G01 X-1.6455 Y0.2314 
N05820 G01 X-1.6412 Y0.2230 
N05830 G01 X-1.6383 Y0.2140 
N05840 G01 X-1.6369 Y0.2047 
N05850 G01 X-1.6369 Y0.1953 
N05860 G01 X-1.6383 Y0.1859 
N05870 G01 X-1.6412 Y0.1770 
N05880 G01 X-1.6455 Y0.1686 
N05890 G01 X-1.6511 Y0.1609 
N05900 G01 X-1.6578 Y0.1542 
N05910 G01 X-1.6580 Y0.1541 
N05920 G01 X-1.6580 Y0.1420 
N05930 G01 X-1.5157 Y0.1420 
N05940 G01 X-1.5230 Y0.1444 
N05950 G01 X-1.5314 Y0.1487 
N05960 G01 X-1.5391 Y0.1542 
N05970 G01 X-1.5458 Y0.1609 
N05980 G01 X-1.5513 Y0.1686 
N05990 G01 X-1.5556 Y0.1770 
N06000 G01 X-1.5585 Y0.1859 
N06010 G01 X-1.5600 Y0.1953 
N06020 G01 X-1.5600 Y0.2047 
N06030 G01 X-1.5585 Y0.2140 
N06040 G01 X-1.5556 Y0.2230 
N06050 G01 X-1.5513 Y0.2314 
N06060 G01 X-1.5458 Y0.2391 
N06070 G01 X-1.5420 Y0.2429 
N06080 G01 X-1.5420 Y0.2812 
N06090 G01 X-1.5430 Y0.2822 
N06100 G01 X-1.5430 Y0.3178 
N06110 G01 X-1.5420 Y0.3188 
N06120 G01 X-1.5420 Y0.4033 
N06130 G01 X-1.5410 Y0.4098 
N06140 G01 X-1.5389 Y0.4161 
N06150 G01 X-1.5359 Y0.4220 
N06160 G01 X-1.5320 Y0.4274 
N06170 G01 X-1.5274 Y0.4320 
N06180 G01 X-1.5220 Y0.4359 
N06190 G01 X-1.5161 Y0.4389 
N06200 G01 X-1.5098 Y0.4410 
N06210 G01 X-1.5033 Y0.4420 
N06220 G01 X-1.4174 Y0.4420 
N06230 G01 X-1.3420 Y0.5174 
N06240 G01 X-1.3420 Y0.5643 
N06250 G01 X-1.3430 Y0.5706 
N06260 G00 Z0.1000 
N06270 G00 X-1.1430 Y0.8706 
N06280 G01 Z-0.0020 F10.00 
N06290 G01 X-1.1430 Y0.9294 F20.00 
N06300 G01 X-1.1419 Y0.9361 
N06310 G01 X-1.1398 Y0.9425 
N06320 G01 X-1.1368 Y0.9485 
N06330 G01 X-1.1328 Y0.9540 
N06340 G01 X-1.1280 Y0.9588 
N06350 G01 X-1.1225 Y0.9628 
N06360 G01 X-1.1165 Y0.9658 
N06370 G01 X-1.1101 Y0.9679 
N06380 G01 X-1.1034 Y0.9690 
N06390 G01 X-1.0966 Y0.9690 
N06400 G01 X-1.0899 Y0.9679 
N06410 G01 X-1.0835 Y0.9658 
N06420 G01 X-1.0775 Y0.9628 
N06430 G01 X-1.0720 Y0.9588 
N06440 G01 X-1.0672 Y0.9540 
N06450 G01 X-1.0632 Y0.9485 
N06460 G01 X-1.0602 Y0.9425 
N06470 G01 X-1.0581 Y0.9361 
N06480 G01 X-1.0570 Y0.9294 
N06490 G01 X-1.0570 Y0.8706 
N06500 G01 X-1.0581 Y0.8639 
N06510 G01 X-1.0602 Y0.8575 
N06520 G01 X-1.0632 Y0.8515 
N06530 G01 X-1.0672 Y0.8460 
N06540 G01 X-1.0720 Y0.8412 
N06550 G01 X-1.0775 Y0.8372 
N06560 G01 X-1.0835 Y0.8342 
N06570 G01 X-1.0899 Y0.8321 
N06580 G01 X-1.0966 Y0.8310 
N06590 G01 X-1.1034 Y0.8310 
N06600 G01 X-1.1101 Y0.8321 
N06610 G01 X-1.1165 Y0.8342 
N06620 G01 X-1.1225 Y0.8372 
N06630 G01 X-1.1280 Y0.8412 
N06640 G01 X-1.1328 Y0.8460 
N06650 G01 X-1.1368 Y0.8515 
N06660 G01 X-1.1398 Y0.8575 
N06670 G01 X-1.1419 Y0.8639 
N06680 G01 X-1.1430 Y0.8706 
N06690 G00 Z0.1000 
N06700 G00 X-1.2430 Y0.8706 
N06710 G01 Z-0.0020 F10.00 
N06720 G01 X-1.2430 Y0.9294 F20.00 
N06730 G01 X-1.2419 Y0.9361 
N06740 G01 X-1.2398 Y0.9425 
N06750 G01 X-1.2368 Y0.9485 
N06760 G01 X-1.2328 Y0.9540 
N06770 G01 X-1.2280 Y0.9588 
N06780 G01 X-1.2225 Y0.9628 
N06790 G01 X-1.2165 Y0.9658 
N06800 G01 X-1.2101 Y0.9679 
N06810 G01 X-1.2034 Y0.9690 
N06820 G01 X-1.1966 Y0.9690 
N06830 G01 X-1.1899 Y0.9679 
N06840 G01 X-1.1835 Y0.9658 
N06850 G01 X-1.1775 Y0.9628 
N06860 G01 X-1.1720 Y0.9588 
N06870 G01 X-1.1672 Y0.9540 
N06880 G01 X-1.1632 Y0.9485 
N06890 G01 X-1.1602 Y0.9425 
N06900 G01 X-1.1581 Y0.9361 
N06910 G01 X-1.1570 Y0.9294 
N06920 G01 X-1.1570 Y0.8706 
N06930 G01 X-1.1581 Y0.8639 
N06940 G01 X-1.1602 Y0.8575 
N06950 G01 X-1.1632 Y0.8515 
N06960 G01 X-1.1672 Y0.8460 
N06970 G01 X-1.1720 Y0.8412 
N06980 G01 X-1.1775 Y0.8372 
N06990 G01 X-1.1835 Y0.8342 
N07000 G01 X-1.1899 Y0.8321 
N07010 G01 X-1.1966 Y0.8310 
N07020 G01 X-1.2034 Y0.8310 
N07030 G01 X-1.2101 Y0.8321 
N07040 G01 X-1.2165 Y0.8342 
N07050 G01 X-1.2225 Y0.8372 
N07060 G01 X-1.2280 Y0.8412 
N07070 G01 X-1.2328 Y0.8460 
N07080 G01 X-1.2368 Y0.8515 
N07090 G01 X-1.2398 Y0.8575 
N07100 G01 X-1.2419 Y0.8639 
N07110 G01 X-1.2430 Y0.8706 
N07120 G00 Z0.1000 
N07130 G00 X-1.3430 Y0.8706 
N07140 G01 Z-0.0020 F10.00 
N07150 G01 X-1.3430 Y0.9294 F20.00 
N07160 G01 X-1.3420 Y0.9357 
N07170 G01 X-1.3420 Y1.0062 
N07180 G01 X-1.3430 Y1.0072 
N07190 G01 X-1.3430 Y1.0428 
N07200 G01 X-1.3178 Y1.0680 
N07210 G01 X-1.2822 Y1.0680 
N07220 G01 X-1.2570 Y1.0428 
N07230 G01 X-1.2570 Y1.0072 
N07240 G01 X-1.2580 Y1.0062 
N07250 G01 X-1.2580 Y0.9357 
N07260 G01 X-1.2570 Y0.9294 
N07270 G01 X-1.2570 Y0.8706 
N07280 G01 X-1.2581 Y0.8639 
N07290 G01 X-1.2602 Y0.8575 
N07300 G01 X-1.2632 Y0.8515 
N07310 G01 X-1.2672 Y0.8460 
N07320 G01 X-1.2720 Y0.8412 
N07330 G01 X-1.2775 Y0.8372 
N07340 G01 X-1.2835 Y0.8342 
N07350 G01 X-1.2899 Y0.8321 
N07360 G01 X-1.2966 Y0.8310 
N07370 G01 X-1.3034 Y0.8310 
N07380 G01 X-1.3101 Y0.8321 
N07390 G01 X-1.3165 Y0.8342 
N07400 G01 X-1.3225 Y0.8372 
N07410 G01 X-1.3280 Y0.8412 
N07420 G01 X-1.3328 Y0.8460 
N07430 G01 X-1.3368 Y0.8515 
N07440 G01 X-1.3398 Y0.8575 
N07450 G01 X-1.3419 Y0.8639 
N07460 G01 X-1.3430 Y0.8706 
N07470 G00 Z0.1000 
N07480 G00 X-0.2578 Y1.4430 
N07490 G01 Z-0.0020 F10.00 
N07500 G01 X-0.3422 Y1.4430 F20.00 
N07510 G01 X-0.3466 Y1.4442 
N07520 G01 X-0.3504 Y1.4464 
N07530 G01 X-0.3536 Y1.4496 
N07540 G01 X-0.3558 Y1.4534 
N07550 G01 X-0.3570 Y1.4578 
N07560 G01 X-0.3570 Y1.4580 
N07570 G01 X-0.5756 Y1.4580 
N07580 G01 X-0.5814 Y1.4551 
N07590 G01 X-0.5886 Y1.4527 
N07600 G01 X-0.5962 Y1.4515 
N07610 G01 X-0.6038 Y1.4515 
N07620 G01 X-0.6114 Y1.4527 
N07630 G01 X-0.6186 Y1.4551 
N07640 G01 X-0.6244 Y1.4580 
N07650 G01 X-0.7812 Y1.4580 
N07660 G01 X-0.7822 Y1.4570 
N07670 G01 X-0.8178 Y1.4570 
N07680 G01 X-0.8188 Y1.4580 
N07690 G01 X-1.1489 Y1.4580 
N07700 G01 X-1.1520 Y1.4564 
N07710 G01 X-1.1590 Y1.4542 
N07720 G01 X-1.1663 Y1.4530 
N07730 G01 X-1.2337 Y1.4530 
N07740 G01 X-1.2410 Y1.4542 
N07750 G01 X-1.2480 Y1.4564 
N07760 G01 X-1.2546 Y1.4598 
N07770 G01 X-1.2606 Y1.4642 
N07780 G01 X-1.2658 Y1.4694 
N07790 G01 X-1.2702 Y1.4754 
N07800 G01 X-1.2736 Y1.4820 
N07810 G01 X-1.2758 Y1.4890 
N07820 G01 X-1.2770 Y1.4963 
N07830 G01 X-1.2770 Y1.5037 
N07840 G01 X-1.2758 Y1.5110 
N07850 G01 X-1.2736 Y1.5180 
N07860 G01 X-1.2702 Y1.5246 
N07870 G01 X-1.2658 Y1.5306 
N07880 G01 X-1.2606 Y1.5358 
N07890 G01 X-1.2546 Y1.5402 
N07900 G01 X-1.2480 Y1.5436 
N07910 G01 X-1.2410 Y1.5458 
N07920 G01 X-1.2337 Y1.5470 
N07930 G01 X-1.1663 Y1.5470 
N07940 G01 X-1.1590 Y1.5458 
N07950 G01 X-1.1520 Y1.5436 
N07960 G01 X-1.1489 Y1.5420 
N07970 G01 X-0.8188 Y1.5420 
N07980 G01 X-0.8178 Y1.5430 
N07990 G01 X-0.7822 Y1.5430 
N08000 G01 X-0.7812 Y1.5420 
N08010 G01 X-0.6244 Y1.5420 
N08020 G01 X-0.6186 Y1.5449 
N08030 G01 X-0.6114 Y1.5473 
N08040 G01 X-0.6038 Y1.5485 
N08050 G01 X-0.5962 Y1.5485 
N08060 G01 X-0.5886 Y1.5473 
N08070 G01 X-0.5814 Y1.5449 
N08080 G01 X-0.5756 Y1.5420 
N08090 G01 X-0.3570 Y1.5420 
N08100 G01 X-0.3570 Y1.5422 
N08110 G01 X-0.3558 Y1.5466 
N08120 G01 X-0.3536 Y1.5504 
N08130 G01 X-0.3504 Y1.5536 
N08140 G01 X-0.3466 Y1.5558 
N08150 G01 X-0.3422 Y1.5570 
N08160 G01 X-0.2578 Y1.5570 
N08170 G01 X-0.2534 Y1.5558 
N08180 G01 X-0.2496 Y1.5536 
N08190 G01 X-0.2464 Y1.5504 
N08200 G01 X-0.2442 Y1.5466 
N08210 G01 X-0.2430 Y1.5422 
N08220 G01 X-0.2430 Y1.4578 
N08230 G01 X-0.2442 Y1.4534 
N08240 G01 X-0.2464 Y1.4496 
N08250 G01 X-0.2496 Y1.4464 
N08260 G01 X-0.2534 Y1.4442 
N08270 G01 X-0.2578 Y1.4430 
N08280 G00 Z0.1000 
N08290 G00 X-1.0178 Y0.6430 
N08300 G01 Z-0.0020 F10.00 
N08310 G01 X-0.9822 Y0.6430 F20.00 
N08320 G01 X-0.9570 Y0.6178 
N08330 G01 X-0.9570 Y0.5822 
N08340 G01 X-0.9822 Y0.5570 
N08350 G01 X-1.0178 Y0.5570 
N08360 G01 X-1.0188 Y0.5580 
N08370 G01 X-1.0600 Y0.5580 
N08380 G01 X-1.0602 Y0.5575 
N08390 G01 X-1.0632 Y0.5515 
N08400 G01 X-1.0672 Y0.5460 
N08410 G01 X-1.0720 Y0.5412 
N08420 G01 X-1.0775 Y0.5372 
N08430 G01 X-1.0835 Y0.5342 
N08440 G01 X-1.0899 Y0.5321 
N08450 G01 X-1.0966 Y0.5310 
N08460 G01 X-1.1034 Y0.5310 
N08470 G01 X-1.1101 Y0.5321 
N08480 G01 X-1.1165 Y0.5342 
N08490 G01 X-1.1225 Y0.5372 
N08500 G01 X-1.1280 Y0.5412 
N08510 G01 X-1.1328 Y0.5460 
N08520 G01 X-1.1368 Y0.5515 
N08530 G01 X-1.1398 Y0.5575 
N08540 G01 X-1.1419 Y0.5639 
N08550 G01 X-1.1430 Y0.5706 
N08560 G01 X-1.1430 Y0.6294 
N08570 G01 X-1.1419 Y0.6361 
N08580 G01 X-1.1398 Y0.6425 
N08590 G01 X-1.1368 Y0.6485 
N08600 G01 X-1.1328 Y0.6540 
N08610 G01 X-1.1280 Y0.6588 
N08620 G01 X-1.1225 Y0.6628 
N08630 G01 X-1.1165 Y0.6658 
N08640 G01 X-1.1101 Y0.6679 
N08650 G01 X-1.1034 Y0.6690 
N08660 G01 X-1.0966 Y0.6690 
N08670 G01 X-1.0899 Y0.6679 
N08680 G01 X-1.0835 Y0.6658 
N08690 G01 X-1.0775 Y0.6628 
N08700 G01 X-1.0720 Y0.6588 
N08710 G01 X-1.0672 Y0.6540 
N08720 G01 X-1.0632 Y0.6485 
N08730 G01 X-1.0602 Y0.6425 
N08740 G01 X-1.0600 Y0.6420 
N08750 G01 X-1.0188 Y0.6420 
N08760 G01 X-1.0178 Y0.6430 
N08770 G00 Z0.1000 
N08780 G00 X-1.0430 Y0.1822 
N08790 G01 Z-0.0020 F10.00 
N08800 G01 X-1.0430 Y0.2178 F20.00 
N08810 G01 X-1.0178 Y0.2430 
N08820 G01 X-0.9822 Y0.2430 
N08830 G01 X-0.9812 Y0.2420 
N08840 G01 X-0.8455 Y0.2420 
N08850 G01 X-0.8436 Y0.2480 
N08860 G01 X-0.8402 Y0.2546 
N08870 G01 X-0.8358 Y0.2606 
N08880 G01 X-0.8306 Y0.2658 
N08890 G01 X-0.8246 Y0.2702 
N08900 G01 X-0.8180 Y0.2736 
N08910 G01 X-0.8110 Y0.2758 
N08920 G01 X-0.8037 Y0.2770 
N08930 G01 X-0.7963 Y0.2770 
N08940 G01 X-0.7890 Y0.2758 
N08950 G01 X-0.7820 Y0.2736 
N08960 G01 X-0.7754 Y0.2702 
N08970 G01 X-0.7694 Y0.2658 
N08980 G01 X-0.7642 Y0.2606 
N08990 G01 X-0.7598 Y0.2546 
N09000 G01 X-0.7564 Y0.2480 
N09010 G01 X-0.7542 Y0.2410 
N09020 G01 X-0.7530 Y0.2337 
N09030 G01 X-0.7530 Y0.1663 
N09040 G01 X-0.7542 Y0.1590 
N09050 G01 X-0.7564 Y0.1520 
N09060 G01 X-0.7598 Y0.1454 
N09070 G01 X-0.7642 Y0.1394 
N09080 G01 X-0.7694 Y0.1342 
N09090 G01 X-0.7754 Y0.1298 
N09100 G01 X-0.7820 Y0.1264 
N09110 G01 X-0.7890 Y0.1242 
N09120 G01 X-0.7963 Y0.1230 
N09130 G01 X-0.8037 Y0.1230 
N09140 G01 X-0.8110 Y0.1242 
N09150 G01 X-0.8180 Y0.1264 
N09160 G01 X-0.8246 Y0.1298 
N09170 G01 X-0.8306 Y0.1342 
N09180 G01 X-0.8358 Y0.1394 
N09190 G01 X-0.8402 Y0.1454 
N09200 G01 X-0.8436 Y0.1520 
N09210 G01 X-0.8455 Y0.1580 
N09220 G01 X-0.9812 Y0.1580 
N09230 G01 X-0.9822 Y0.1570 
N09240 G01 X-1.0178 Y0.1570 
N09250 G01 X-1.0430 Y0.1822 
N09260 G00 Z0.1000 
N09270 G00 X-0.8678 Y1.1930 
N09280 G01 Z-0.0020 F10.00 
N09290 G01 X-0.8322 Y1.1930 F20.00 
N09300 G01 X-0.8070 Y1.1678 
N09310 G01 X-0.8070 Y1.1322 
N09320 G01 X-0.8322 Y1.1070 
N09330 G01 X-0.8678 Y1.1070 
N09340 G01 X-0.8688 Y1.1080 
N09350 G01 X-1.0812 Y1.1080 
N09360 G01 X-1.0822 Y1.1070 
N09370 G01 X-1.1178 Y1.1070 
N09380 G01 X-1.1430 Y1.1322 
N09390 G01 X-1.1430 Y1.1678 
N09400 G01 X-1.1178 Y1.1930 
N09410 G01 X-1.0822 Y1.1930 
N09420 G01 X-1.0812 Y1.1920 
N09430 G01 X-0.8688 Y1.1920 
N09440 G01 X-0.8678 Y1.1930 
N09450 G00 Z0.1000 
N09460 G00 X-0.8930 Y0.8822 
N09470 G01 Z-0.0020 F10.00 
N09480 G01 X-0.8930 Y0.9178 F20.00 
N09490 G01 X-0.8920 Y0.9188 
N09500 G01 X-0.8920 Y0.9326 
N09510 G01 X-0.9274 Y0.9680 
N09520 G01 X-0.9320 Y0.9726 
N09530 G01 X-0.9359 Y0.9780 
N09540 G01 X-0.9389 Y0.9839 
N09550 G01 X-0.9410 Y0.9902 
N09560 G01 X-0.9420 Y0.9967 
N09570 G01 X-0.9420 Y1.0062 
N09580 G01 X-0.9430 Y1.0072 
N09590 G01 X-0.9430 Y1.0428 
N09600 G01 X-0.9178 Y1.0680 
N09610 G01 X-0.8822 Y1.0680 
N09620 G01 X-0.8570 Y1.0428 
N09630 G01 X-0.8570 Y1.0164 
N09640 G01 X-0.8180 Y0.9774 
N09650 G01 X-0.8141 Y0.9720 
N09660 G01 X-0.8111 Y0.9661 
N09670 G01 X-0.8090 Y0.9598 
N09680 G01 X-0.8080 Y0.9533 
N09690 G01 X-0.8080 Y0.9188 
N09700 G01 X-0.8070 Y0.9178 
N09710 G01 X-0.8070 Y0.8822 
N09720 G01 X-0.8322 Y0.8570 
N09730 G01 X-0.8678 Y0.8570 
N09740 G01 X-0.8930 Y0.8822 
N00000 G00 Z0.1000 
N00010 G00 X-1.3780 Y0.2470 
N00020 G01 Z-0.0020 F10.00 
N00030 G01 X-1.4220 Y0.2470 F20.00 
N00040 G01 X-1.4480 Y0.2730 
N00050 G01 X-1.4480 Y0.2470 
N00060 G01 X-1.4473 Y0.2463 
N00070 G01 X-1.4417 Y0.2390 
N00080 G01 X-1.4371 Y0.2310 
N00090 G01 X-1.4336 Y0.2225 
N00100 G01 X-1.4312 Y0.2137 
N00110 G01 X-1.4300 Y0.2046 
N00120 G01 X-1.4300 Y0.1954 
N00130 G01 X-1.4312 Y0.1863 
N00140 G01 X-1.4336 Y0.1775 
N00150 G01 X-1.4371 Y0.1690 
N00160 G01 X-1.4417 Y0.1610 
N00170 G01 X-1.4473 Y0.1537 
N00180 G01 X-1.4490 Y0.1520 
N00190 G01 X-1.3541 Y0.1520 
N00200 G01 X-1.3559 Y0.1537 
N00210 G01 X-1.3615 Y0.1610 
N00220 G01 X-1.3661 Y0.1690 
N00230 G01 X-1.3696 Y0.1775 
N00240 G01 X-1.3720 Y0.1863 
N00250 G01 X-1.3731 Y0.1954 
N00260 G01 X-1.3731 Y0.2046 
N00270 G01 X-1.3720 Y0.2137 
N00280 G01 X-1.3696 Y0.2225 
N00290 G01 X-1.3661 Y0.2310 
N00300 G01 X-1.3615 Y0.2390 
N00310 G01 X-1.3559 Y0.2463 
N00320 G01 X-1.3541 Y0.2480 
N00330 G01 X-1.3770 Y0.2480 
N00340 G01 X-1.3780 Y0.2470 
N00350 G00 Z0.1000 
N00360 G00 X-1.2520 Y0.1522 
N00370 G01 Z-0.0020 F10.00 
N00380 G01 X-1.2522 Y0.1520 F20.00 
N00390 G01 X-1.2520 Y0.1520 
N00400 G01 X-1.2520 Y0.1522 
N00410 G00 Z0.1000 
N00420 G00 X-1.1530 Y1.1280 
N00430 G01 Z-0.0020 F10.00 
N00440 G01 X-1.1530 Y1.1720 F20.00 
N00450 G01 X-1.1220 Y1.2030 
N00460 G01 X-1.0780 Y1.2030 
N00470 G01 X-1.0770 Y1.2020 
N00480 G01 X-0.8730 Y1.2020 
N00490 G01 X-0.8720 Y1.2030 
N00500 G01 X-0.8280 Y1.2030 
N00510 G01 X-0.8000 Y1.1750 
N00520 G01 X-0.7720 Y1.2030 
N00530 G01 X-0.7280 Y1.2030 
N00540 G01 X-0.6970 Y1.1720 
N00550 G01 X-0.6970 Y1.1280 
N00560 G01 X-0.6980 Y1.1270 
N00570 G01 X-0.6980 Y0.9520 
N00580 G01 X-0.6520 Y0.9520 
N00590 G01 X-0.6520 Y1.3480 
N00600 G01 X-0.7770 Y1.3480 
N00610 G01 X-0.7780 Y1.3470 
N00620 G01 X-0.8220 Y1.3470 
N00630 G01 X-0.8230 Y1.3480 
N00640 G01 X-0.9665 Y1.3480 
N00650 G01 X-0.9619 Y1.3446 
N00660 G01 X-0.9554 Y1.3381 
N00670 G01 X-0.9500 Y1.3307 
N00680 G01 X-0.9458 Y1.3225 
N00690 G01 X-0.9429 Y1.3137 
N00700 G01 X-0.9415 Y1.3046 
N00710 G01 X-0.9415 Y1.2954 
N00720 G01 X-0.9429 Y1.2863 
N00730 G01 X-0.9458 Y1.2775 
N00740 G01 X-0.9500 Y1.2693 
N00750 G01 X-0.9554 Y1.2619 
N00760 G01 X-0.9619 Y1.2554 
N00770 G01 X-0.9693 Y1.2500 
N00780 G01 X-0.9775 Y1.2458 
N00790 G01 X-0.9863 Y1.2429 
N00800 G01 X-0.9954 Y1.2415 
N00810 G01 X-1.0046 Y1.2415 
N00820 G01 X-1.0137 Y1.2429 
N00830 G01 X-1.0225 Y1.2458 
N00840 G01 X-1.0268 Y1.2480 
N00850 G01 X-1.1465 Y1.2480 
N00860 G01 X-1.1481 Y1.2472 
N00870 G01 X-1.1567 Y1.2444 
N00880 G01 X-1.1655 Y1.2430 
N00890 G01 X-1.2345 Y1.2430 
N00900 G01 X-1.2433 Y1.2444 
N00910 G01 X-1.2519 Y1.2472 
N00920 G01 X-1.2535 Y1.2480 
N00930 G01 X-1.4480 Y1.2480 
N00940 G01 X-1.4480 Y1.1730 
N00950 G01 X-1.4470 Y1.1720 
N00960 G01 X-1.4470 Y1.1280 
N00970 G01 X-1.4480 Y1.1270 
N00980 G01 X-1.4480 Y0.9520 
N00990 G01 X-1.4462 Y0.9520 
N01000 G01 X-1.4453 Y0.9538 
N01010 G01 X-1.4404 Y0.9605 
N01020 G01 X-1.4345 Y0.9664 
N01030 G01 X-1.4278 Y0.9713 
N01040 G01 X-1.4203 Y0.9751 
N01050 G01 X-1.4124 Y0.9777 
N01060 G01 X-1.4042 Y0.9790 
N01070 G01 X-1.3958 Y0.9790 
N01080 G01 X-1.3876 Y0.9777 
N01090 G01 X-1.3797 Y0.9751 
N01100 G01 X-1.3722 Y0.9713 
N01110 G01 X-1.3655 Y0.9664 
N01120 G01 X-1.3596 Y0.9605 
N01130 G01 X-1.3547 Y0.9538 
N01140 G01 X-1.3520 Y0.9485 
N01150 G01 X-1.3520 Y1.0020 
N01160 G01 X-1.3530 Y1.0030 
N01170 G01 X-1.3530 Y1.0470 
N01180 G01 X-1.3220 Y1.0780 
N01190 G01 X-1.2780 Y1.0780 
N01200 G01 X-1.2470 Y1.0470 
N01210 G01 X-1.2470 Y1.0030 
N01220 G01 X-1.2480 Y1.0020 
N01230 G01 X-1.2480 Y0.9485 
N01240 G01 X-1.2453 Y0.9538 
N01250 G01 X-1.2404 Y0.9605 
N01260 G01 X-1.2345 Y0.9664 
N01270 G01 X-1.2278 Y0.9713 
N01280 G01 X-1.2203 Y0.9751 
N01290 G01 X-1.2124 Y0.9777 
N01300 G01 X-1.2042 Y0.9790 
N01310 G01 X-1.1958 Y0.9790 
N01320 G01 X-1.1876 Y0.9777 
N01330 G01 X-1.1797 Y0.9751 
N01340 G01 X-1.1722 Y0.9713 
N01350 G01 X-1.1655 Y0.9664 
N01360 G01 X-1.1596 Y0.9605 
N01370 G01 X-1.1547 Y0.9538 
N01380 G01 X-1.1509 Y0.9463 
N01390 G01 X-1.1500 Y0.9436 
N01400 G01 X-1.1491 Y0.9463 
N01410 G01 X-1.1453 Y0.9538 
N01420 G01 X-1.1404 Y0.9605 
N01430 G01 X-1.1345 Y0.9664 
N01440 G01 X-1.1278 Y0.9713 
N01450 G01 X-1.1203 Y0.9751 
N01460 G01 X-1.1124 Y0.9777 
N01470 G01 X-1.1042 Y0.9790 
N01480 G01 X-1.0958 Y0.9790 
N01490 G01 X-1.0876 Y0.9777 
N01500 G01 X-1.0797 Y0.9751 
N01510 G01 X-1.0722 Y0.9713 
N01520 G01 X-1.0655 Y0.9664 
N01530 G01 X-1.0596 Y0.9605 
N01540 G01 X-1.0547 Y0.9538 
N01550 G01 X-1.0509 Y0.9463 
N01560 G01 X-1.0483 Y0.9384 
N01570 G01 X-1.0470 Y0.9302 
N01580 G01 X-1.0470 Y0.8698 
N01590 G01 X-1.0483 Y0.8616 
N01600 G01 X-1.0509 Y0.8537 
N01610 G01 X-1.0547 Y0.8462 
N01620 G01 X-1.0596 Y0.8395 
N01630 G01 X-1.0655 Y0.8336 
N01640 G01 X-1.0722 Y0.8287 
N01650 G01 X-1.0797 Y0.8249 
N01660 G01 X-1.0876 Y0.8223 
N01670 G01 X-1.0958 Y0.8210 
N01680 G01 X-1.1042 Y0.8210 
N01690 G01 X-1.1124 Y0.8223 
N01700 G01 X-1.1203 Y0.8249 
N01710 G01 X-1.1278 Y0.8287 
N01720 G01 X-1.1345 Y0.8336 
N01730 G01 X-1.1404 Y0.8395 
N01740 G01 X-1.1453 Y0.8462 
N01750 G01 X-1.1491 Y0.8537 
N01760 G01 X-1.1500 Y0.8564 
N01770 G01 X-1.1509 Y0.8537 
N01780 G01 X-1.1547 Y0.8462 
N01790 G01 X-1.1596 Y0.8395 
N01800 G01 X-1.1655 Y0.8336 
N01810 G01 X-1.1722 Y0.8287 
N01820 G01 X-1.1797 Y0.8249 
N01830 G01 X-1.1876 Y0.8223 
N01840 G01 X-1.1958 Y0.8210 
N01850 G01 X-1.2042 Y0.8210 
N01860 G01 X-1.2124 Y0.8223 
N01870 G01 X-1.2203 Y0.8249 
N01880 G01 X-1.2278 Y0.8287 
N01890 G01 X-1.2345 Y0.8336 
N01900 G01 X-1.2404 Y0.8395 
N01910 G01 X-1.2453 Y0.8462 
N01920 G01 X-1.2491 Y0.8537 
N01930 G01 X-1.2500 Y0.8564 
N01940 G01 X-1.2509 Y0.8537 
N01950 G01 X-1.2547 Y0.8462 
N01960 G01 X-1.2596 Y0.8395 
N01970 G01 X-1.2655 Y0.8336 
N01980 G01 X-1.2722 Y0.8287 
N01990 G01 X-1.2797 Y0.8249 
N02000 G01 X-1.2876 Y0.8223 
N02010 G01 X-1.2958 Y0.8210 
N02020 G01 X-1.3042 Y0.8210 
N02030 G01 X-1.3124 Y0.8223 
N02040 G01 X-1.3203 Y0.8249 
N02050 G01 X-1.3278 Y0.8287 
N02060 G01 X-1.3345 Y0.8336 
N02070 G01 X-1.3404 Y0.8395 
N02080 G01 X-1.3453 Y0.8462 
N02090 G01 X-1.3491 Y0.8537 
N02100 G01 X-1.3500 Y0.8564 
N02110 G01 X-1.3509 Y0.8537 
N02120 G01 X-1.3547 Y0.8462 
N02130 G01 X-1.3596 Y0.8395 
N02140 G01 X-1.3655 Y0.8336 
N02150 G01 X-1.3722 Y0.8287 
N02160 G01 X-1.3797 Y0.8249 
N02170 G01 X-1.3876 Y0.8223 
N02180 G01 X-1.3958 Y0.8210 
N02190 G01 X-1.4042 Y0.8210 
N02200 G01 X-1.4124 Y0.8223 
N02210 G01 X-1.4203 Y0.8249 
N02220 G01 X-1.4278 Y0.8287 
N02230 G01 X-1.4345 Y0.8336 
N02240 G01 X-1.4404 Y0.8395 
N02250 G01 X-1.4453 Y0.8462 
N02260 G01 X-1.4462 Y0.8480 
N02270 G01 X-1.4480 Y0.8480 
N02280 G01 X-1.4480 Y0.8230 
N02290 G01 X-1.4470 Y0.8220 
N02300 G01 X-1.4470 Y0.7780 
N02310 G01 X-1.4750 Y0.7500 
N02320 G01 X-1.4520 Y0.7270 
N02330 G01 X-1.4520 Y0.7541 
N02340 G01 X-1.4507 Y0.7622 
N02350 G01 X-1.4482 Y0.7700 
N02360 G01 X-1.4445 Y0.7773 
N02370 G01 X-1.4397 Y0.7839 
N02380 G01 X-1.4339 Y0.7897 
N02390 G01 X-1.4273 Y0.7945 
N02400 G01 X-1.4200 Y0.7982 
N02410 G01 X-1.4122 Y0.8007 
N02420 G01 X-1.4041 Y0.8020 
N02430 G01 X-0.6520 Y0.8020 
N02440 G01 X-0.6520 Y0.8480 
N02450 G01 X-0.7270 Y0.8480 
N02460 G01 X-0.7280 Y0.8470 
N02470 G01 X-0.7720 Y0.8470 
N02480 G01 X-0.8000 Y0.8750 
N02490 G01 X-0.8280 Y0.8470 
N02500 G01 X-0.8720 Y0.8470 
N02510 G01 X-0.9030 Y0.8780 
N02520 G01 X-0.9030 Y0.9220 
N02530 G01 X-0.9020 Y0.9230 
N02540 G01 X-0.9020 Y0.9285 
N02550 G01 X-0.9339 Y0.9603 
N02560 G01 X-0.9397 Y0.9661 
N02570 G01 X-0.9445 Y0.9727 
N02580 G01 X-0.9482 Y0.9800 
N02590 G01 X-0.9507 Y0.9878 
N02600 G01 X-0.9520 Y0.9959 
N02610 G01 X-0.9520 Y1.0020 
N02620 G01 X-0.9530 Y1.0030 
N02630 G01 X-0.9530 Y1.0470 
N02640 G01 X-0.9220 Y1.0780 
N02650 G01 X-0.8780 Y1.0780 
N02660 G01 X-0.8470 Y1.0470 
N02670 G01 X-0.8470 Y1.0205 
N02680 G01 X-0.8103 Y0.9839 
N02690 G01 X-0.8055 Y0.9773 
N02700 G01 X-0.8020 Y0.9703 
N02710 G01 X-0.8020 Y1.1230 
N02720 G01 X-0.8280 Y1.0970 
N02730 G01 X-0.8720 Y1.0970 
N02740 G01 X-0.8730 Y1.0980 
N02750 G01 X-1.0770 Y1.0980 
N02760 G01 X-1.0780 Y1.0970 
N02770 G01 X-1.1220 Y1.0970 
N02780 G01 X-1.1530 Y1.1280 
N02790 G00 Z0.1000 
N02800 G00 X-1.3770 Y0.3520 
N02810 G01 Z-0.0020 F10.00 
N02820 G01 X-1.3520 Y0.3520 F20.00 
N02830 G01 X-1.3520 Y0.3541 
N02840 G01 X-1.3507 Y0.3622 
N02850 G01 X-1.3482 Y0.3700 
N02860 G01 X-1.3445 Y0.3773 
N02870 G01 X-1.3397 Y0.3839 
N02880 G01 X-1.3339 Y0.3897 
N02890 G01 X-1.2520 Y0.4715 
N02900 G01 X-1.2520 Y0.4797 
N02910 G01 X-1.2555 Y0.4727 
N02920 G01 X-1.2603 Y0.4661 
N02930 G01 X-1.3603 Y0.3661 
N02940 G01 X-1.3661 Y0.3603 
N02950 G01 X-1.3727 Y0.3555 
N02960 G01 X-1.3779 Y0.3529 
N02970 G01 X-1.3770 Y0.3520 
N02980 G00 Z0.1000 
N02990 G00 X-1.5530 Y0.6780 
N03000 G01 Z-0.0020 F10.00 
N03010 G01 X-1.5530 Y0.7220 F20.00 
N03020 G01 X-1.5250 Y0.7500 
N03030 G01 X-1.5530 Y0.7780 
N03040 G01 X-1.5530 Y0.8220 
N03050 G01 X-1.5520 Y0.8230 
N03060 G01 X-1.5520 Y0.8480 
N03070 G01 X-1.6480 Y0.8480 
N03080 G01 X-1.6480 Y0.2501 
N03090 G01 X-1.6441 Y0.2463 
N03100 G01 X-1.6385 Y0.2390 
N03110 G01 X-1.6339 Y0.2310 
N03120 G01 X-1.6304 Y0.2225 
N03130 G01 X-1.6280 Y0.2137 
N03140 G01 X-1.6269 Y0.2046 
N03150 G01 X-1.6269 Y0.1954 
N03160 G01 X-1.6280 Y0.1863 
N03170 G01 X-1.6304 Y0.1775 
N03180 G01 X-1.6339 Y0.1690 
N03190 G01 X-1.6385 Y0.1610 
N03200 G01 X-1.6441 Y0.1537 
N03210 G01 X-1.6459 Y0.1520 
N03220 G01 X-1.5510 Y0.1520 
N03230 G01 X-1.5527 Y0.1537 
N03240 G01 X-1.5583 Y0.1610 
N03250 G01 X-1.5629 Y0.1690 
N03260 G01 X-1.5664 Y0.1775 
N03270 G01 X-1.5688 Y0.1863 
N03280 G01 X-1.5700 Y0.1954 
N03290 G01 X-1.5700 Y0.2046 
N03300 G01 X-1.5688 Y0.2137 
N03310 G01 X-1.5664 Y0.2225 
N03320 G01 X-1.5629 Y0.2310 
N03330 G01 X-1.5583 Y0.2390 
N03340 G01 X-1.5527 Y0.2463 
N03350 G01 X-1.5520 Y0.2470 
N03360 G01 X-1.5520 Y0.2770 
N03370 G01 X-1.5530 Y0.2780 
N03380 G01 X-1.5530 Y0.3220 
N03390 G01 X-1.5520 Y0.3230 
N03400 G01 X-1.5520 Y0.4041 
N03410 G01 X-1.5507 Y0.4122 
N03420 G01 X-1.5482 Y0.4200 
N03430 G01 X-1.5445 Y0.4273 
N03440 G01 X-1.5397 Y0.4339 
N03450 G01 X-1.5339 Y0.4397 
N03460 G01 X-1.5273 Y0.4445 
N03470 G01 X-1.5200 Y0.4482 
N03480 G01 X-1.5122 Y0.4507 
N03490 G01 X-1.5041 Y0.4520 
N03500 G01 X-1.4215 Y0.4520 
N03510 G01 X-1.3520 Y0.5215 
N03520 G01 X-1.3520 Y0.5515 
N03530 G01 X-1.3547 Y0.5462 
N03540 G01 X-1.3596 Y0.5395 
N03550 G01 X-1.3655 Y0.5336 
N03560 G01 X-1.3722 Y0.5287 
N03570 G01 X-1.3797 Y0.5249 
N03580 G01 X-1.3876 Y0.5223 
N03590 G01 X-1.3958 Y0.5210 
N03600 G01 X-1.4042 Y0.5210 
N03610 G01 X-1.4124 Y0.5223 
N03620 G01 X-1.4203 Y0.5249 
N03630 G01 X-1.4278 Y0.5287 
N03640 G01 X-1.4345 Y0.5336 
N03650 G01 X-1.4404 Y0.5395 
N03660 G01 X-1.4453 Y0.5462 
N03670 G01 X-1.4462 Y0.5480 
N03680 G01 X-1.5041 Y0.5480 
N03690 G01 X-1.5122 Y0.5493 
N03700 G01 X-1.5200 Y0.5518 
N03710 G01 X-1.5273 Y0.5555 
N03720 G01 X-1.5339 Y0.5603 
N03730 G01 X-1.5397 Y0.5661 
N03740 G01 X-1.5445 Y0.5727 
N03750 G01 X-1.5482 Y0.5800 
N03760 G01 X-1.5507 Y0.5878 
N03770 G01 X-1.5520 Y0.5959 
N03780 G01 X-1.5520 Y0.6770 
N03790 G01 X-1.5530 Y0.6780 
N03800 G00 Z0.1000 
N03810 G00 X-1.4270 Y0.3480 
N03820 G01 Z-0.0020 F10.00 
N03830 G01 X-1.4480 Y0.3480 F20.00 
N03840 G01 X-1.4480 Y0.3270 
N03850 G01 X-1.4270 Y0.3480 
N03860 G00 Z0.1000 
N03870 G00 X-1.1453 Y0.6538 
N03880 G01 Z-0.0020 F10.00 
N03890 G01 X-1.1404 Y0.6605 F20.00 
N03900 G01 X-1.1345 Y0.6664 
N03910 G01 X-1.1278 Y0.6713 
N03920 G01 X-1.1203 Y0.6751 
N03930 G01 X-1.1124 Y0.6777 
N03940 G01 X-1.1042 Y0.6790 
N03950 G01 X-1.0958 Y0.6790 
N03960 G01 X-1.0876 Y0.6777 
N03970 G01 X-1.0797 Y0.6751 
N03980 G01 X-1.0722 Y0.6713 
N03990 G01 X-1.0655 Y0.6664 
N04000 G01 X-1.0596 Y0.6605 
N04010 G01 X-1.0547 Y0.6538 
N04020 G01 X-1.0538 Y0.6520 
N04030 G01 X-1.0230 Y0.6520 
N04040 G01 X-1.0220 Y0.6530 
N04050 G01 X-0.9780 Y0.6530 
N04060 G01 X-0.9470 Y0.6220 
N04070 G01 X-0.9470 Y0.5780 
N04080 G01 X-0.9780 Y0.5470 
N04090 G01 X-1.0220 Y0.5470 
N04100 G01 X-1.0230 Y0.5480 
N04110 G01 X-1.0538 Y0.5480 
N04120 G01 X-1.0547 Y0.5462 
N04130 G01 X-1.0596 Y0.5395 
N04140 G01 X-1.0655 Y0.5336 
N04150 G01 X-1.0722 Y0.5287 
N04160 G01 X-1.0797 Y0.5249 
N04170 G01 X-1.0876 Y0.5223 
N04180 G01 X-1.0958 Y0.5210 
N04190 G01 X-1.1042 Y0.5210 
N04200 G01 X-1.1124 Y0.5223 
N04210 G01 X-1.1203 Y0.5249 
N04220 G01 X-1.1278 Y0.5287 
N04230 G01 X-1.1345 Y0.5336 
N04240 G01 X-1.1404 Y0.5395 
N04250 G01 X-1.1453 Y0.5462 
N04260 G01 X-1.1480 Y0.5515 
N04270 G01 X-1.1480 Y0.4459 
N04280 G01 X-1.1493 Y0.4378 
N04290 G01 X-1.1518 Y0.4300 
N04300 G01 X-1.1555 Y0.4227 
N04310 G01 X-1.1603 Y0.4161 
N04320 G01 X-1.2480 Y0.3285 
N04330 G01 X-1.2480 Y0.3203 
N04340 G01 X-1.2445 Y0.3273 
N04350 G01 X-1.2397 Y0.3339 
N04360 G01 X-1.2339 Y0.3397 
N04370 G01 X-1.1839 Y0.3897 
N04380 G01 X-1.1773 Y0.3945 
N04390 G01 X-1.1700 Y0.3982 
N04400 G01 X-1.1622 Y0.4007 
N04410 G01 X-1.1541 Y0.4020 
N04420 G01 X-0.7520 Y0.4020 
N04430 G01 X-0.7520 Y0.6199 
N04440 G01 X-0.7556 Y0.6270 
N04450 G01 X-0.7585 Y0.6359 
N04460 G01 X-0.7600 Y0.6453 
N04470 G01 X-0.7600 Y0.6547 
N04480 G01 X-0.7585 Y0.6640 
N04490 G01 X-0.7556 Y0.6730 
N04500 G01 X-0.7513 Y0.6814 
N04510 G01 X-0.7458 Y0.6891 
N04520 G01 X-0.7391 Y0.6958 
N04530 G01 X-0.7360 Y0.6980 
N04540 G01 X-1.1480 Y0.6980 
N04550 G01 X-1.1480 Y0.6485 
N04560 G01 X-1.1453 Y0.6538 
N04570 G00 Z0.1000 
N04580 G00 X-1.3480 Y0.6980 
N04590 G01 Z-0.0020 F10.00 
N04600 G01 X-1.3480 Y0.6485 F20.00 
N04610 G01 X-1.3453 Y0.6538 
N04620 G01 X-1.3404 Y0.6605 
N04630 G01 X-1.3345 Y0.6664 
N04640 G01 X-1.3278 Y0.6713 
N04650 G01 X-1.3203 Y0.6751 
N04660 G01 X-1.3124 Y0.6777 
N04670 G01 X-1.3042 Y0.6790 
N04680 G01 X-1.2958 Y0.6790 
N04690 G01 X-1.2876 Y0.6777 
N04700 G01 X-1.2797 Y0.6751 
N04710 G01 X-1.2722 Y0.6713 
N04720 G01 X-1.2655 Y0.6664 
N04730 G01 X-1.2596 Y0.6605 
N04740 G01 X-1.2547 Y0.6538 
N04750 G01 X-1.2520 Y0.6485 
N04760 G01 X-1.2520 Y0.6980 
N04770 G01 X-1.3480 Y0.6980 
N04780 G00 Z0.1000 
N04790 G00 X-0.6609 Y0.6958 
N04800 G01 Z-0.0020 F10.00 
N04810 G01 X-0.6542 Y0.6891 F20.00 
N04820 G01 X-0.6520 Y0.6860 
N04830 G01 X-0.6520 Y0.6980 
N04840 G01 X-0.6640 Y0.6980 
N04850 G01 X-0.6609 Y0.6958 
N04860 G00 Z0.1000 
N04870 G00 X-0.5470 Y0.3720 
N04880 G01 Z-0.0020 F10.00 
N04890 G01 X-0.5470 Y0.3280 F20.00 
N04900 G01 X-0.5480 Y0.3270 
N04910 G01 X-0.5480 Y0.2535 
N04920 G01 X-0.5472 Y0.2519 
N04930 G01 X-0.5444 Y0.2433 
N04940 G01 X-0.5430 Y0.2345 
N04950 G01 X-0.5430 Y0.1655 
N04960 G01 X-0.5444 Y0.1567 
N04970 G01 X-0.5472 Y0.1481 
N04980 G01 X-0.5512 Y0.1401 
N04990 G01 X-0.5565 Y0.1329 
N05000 G01 X-0.5629 Y0.1265 
N05010 G01 X-0.5701 Y0.1212 
N05020 G01 X-0.5781 Y0.1172 
N05030 G01 X-0.5867 Y0.1144 
N05040 G01 X-0.5955 Y0.1130 
N05050 G01 X-0.6045 Y0.1130 
N05060 G01 X-0.6133 Y0.1144 
N05070 G01 X-0.6219 Y0.1172 
N05080 G01 X-0.6299 Y0.1212 
N05090 G01 X-0.6371 Y0.1265 
N05100 G01 X-0.6435 Y0.1329 
N05110 G01 X-0.6488 Y0.1401 
N05120 G01 X-0.6500 Y0.1426 
N05130 G01 X-0.6512 Y0.1401 
N05140 G01 X-0.6565 Y0.1329 
N05150 G01 X-0.6629 Y0.1265 
N05160 G01 X-0.6701 Y0.1212 
N05170 G01 X-0.6781 Y0.1172 
N05180 G01 X-0.6867 Y0.1144 
N05190 G01 X-0.6955 Y0.1130 
N05200 G01 X-0.7045 Y0.1130 
N05210 G01 X-0.7133 Y0.1144 
N05220 G01 X-0.7219 Y0.1172 
N05230 G01 X-0.7299 Y0.1212 
N05240 G01 X-0.7371 Y0.1265 
N05250 G01 X-0.7435 Y0.1329 
N05260 G01 X-0.7488 Y0.1401 
N05270 G01 X-0.7500 Y0.1426 
N05280 G01 X-0.7512 Y0.1401 
N05290 G01 X-0.7565 Y0.1329 
N05300 G01 X-0.7629 Y0.1265 
N05310 G01 X-0.7701 Y0.1212 
N05320 G01 X-0.7781 Y0.1172 
N05330 G01 X-0.7867 Y0.1144 
N05340 G01 X-0.7955 Y0.1130 
N05350 G01 X-0.8045 Y0.1130 
N05360 G01 X-0.8133 Y0.1144 
N05370 G01 X-0.8219 Y0.1172 
N05380 G01 X-0.8299 Y0.1212 
N05390 G01 X-0.8371 Y0.1265 
N05400 G01 X-0.8435 Y0.1329 
N05410 G01 X-0.8488 Y0.1401 
N05420 G01 X-0.8528 Y0.1480 
N05430 G01 X-0.9770 Y0.1480 
N05440 G01 X-0.9780 Y0.1470 
N05450 G01 X-1.0220 Y0.1470 
N05460 G01 X-1.0530 Y0.1780 
N05470 G01 X-1.0530 Y0.2220 
N05480 G01 X-1.0220 Y0.2530 
N05490 G01 X-0.9780 Y0.2530 
N05500 G01 X-0.9770 Y0.2520 
N05510 G01 X-0.8528 Y0.2520 
N05520 G01 X-0.8488 Y0.2599 
N05530 G01 X-0.8435 Y0.2671 
N05540 G01 X-0.8371 Y0.2735 
N05550 G01 X-0.8299 Y0.2788 
N05560 G01 X-0.8219 Y0.2828 
N05570 G01 X-0.8133 Y0.2856 
N05580 G01 X-0.8045 Y0.2870 
N05590 G01 X-0.7955 Y0.2870 
N05600 G01 X-0.7867 Y0.2856 
N05610 G01 X-0.7781 Y0.2828 
N05620 G01 X-0.7701 Y0.2788 
N05630 G01 X-0.7629 Y0.2735 
N05640 G01 X-0.7565 Y0.2671 
N05650 G01 X-0.7520 Y0.2609 
N05660 G01 X-0.7520 Y0.2980 
N05670 G01 X-1.1285 Y0.2980 
N05680 G01 X-1.1480 Y0.2785 
N05690 G01 X-1.1480 Y0.0959 
N05700 G01 X-1.1493 Y0.0878 
N05710 G01 X-1.1518 Y0.0800 
N05720 G01 X-1.1555 Y0.0727 
N05730 G01 X-1.1603 Y0.0661 
N05740 G01 X-1.1661 Y0.0603 
N05750 G01 X-1.1727 Y0.0555 
N05760 G01 X-1.1800 Y0.0518 
N05770 G01 X-1.1878 Y0.0493 
N05780 G01 X-1.1959 Y0.0480 
N05790 G01 X-1.7041 Y0.0480 
N05800 G01 X-1.7122 Y0.0493 
N05810 G01 X-1.7200 Y0.0518 
N05820 G01 X-1.7273 Y0.0555 
N05830 G01 X-1.7339 Y0.0603 
N05840 G01 X-1.7397 Y0.0661 
N05850 G01 X-1.7445 Y0.0727 
N05860 G01 X-1.7482 Y0.0800 
N05870 G01 X-1.7507 Y0.0878 
N05880 G01 X-1.7520 Y0.0959 
N05890 G01 X-1.7520 Y0.1569 
N05900 G01 X-1.7552 Y0.1610 
N05910 G01 X-1.7598 Y0.1690 
N05920 G01 X-1.7633 Y0.1775 
N05930 G01 X-1.7657 Y0.1863 
N05940 G01 X-1.7669 Y0.1954 
N05950 G01 X-1.7669 Y0.2046 
N05960 G01 X-1.7657 Y0.2137 
N05970 G01 X-1.7633 Y0.2225 
N05980 G01 X-1.7598 Y0.2310 
N05990 G01 X-1.7552 Y0.2390 
N06000 G01 X-1.7520 Y0.2431 
N06010 G01 X-1.7520 Y0.9041 
N06020 G01 X-1.7507 Y0.9122 
N06030 G01 X-1.7482 Y0.9200 
N06040 G01 X-1.7445 Y0.9273 
N06050 G01 X-1.7397 Y0.9339 
N06060 G01 X-1.7339 Y0.9397 
N06070 G01 X-1.7273 Y0.9445 
N06080 G01 X-1.7200 Y0.9482 
N06090 G01 X-1.7122 Y0.9507 
N06100 G01 X-1.7041 Y0.9520 
N06110 G01 X-1.5520 Y0.9520 
N06120 G01 X-1.5520 Y1.1270 
N06130 G01 X-1.5530 Y1.1280 
N06140 G01 X-1.5530 Y1.1720 
N06150 G01 X-1.5520 Y1.1730 
N06160 G01 X-1.5520 Y1.3041 
N06170 G01 X-1.5507 Y1.3122 
N06180 G01 X-1.5482 Y1.3200 
N06190 G01 X-1.5445 Y1.3273 
N06200 G01 X-1.5397 Y1.3339 
N06210 G01 X-1.5339 Y1.3397 
N06220 G01 X-1.5273 Y1.3445 
N06230 G01 X-1.5200 Y1.3482 
N06240 G01 X-1.5122 Y1.3507 
N06250 G01 X-1.5041 Y1.3520 
N06260 G01 X-1.2609 Y1.3520 
N06270 G01 X-1.2671 Y1.3565 
N06280 G01 X-1.2735 Y1.3629 
N06290 G01 X-1.2788 Y1.3701 
N06300 G01 X-1.2828 Y1.3781 
N06310 G01 X-1.2856 Y1.3867 
N06320 G01 X-1.2870 Y1.3955 
N06330 G01 X-1.2870 Y1.4045 
N06340 G01 X-1.2856 Y1.4133 
N06350 G01 X-1.2828 Y1.4219 
N06360 G01 X-1.2788 Y1.4299 
N06370 G01 X-1.2735 Y1.4371 
N06380 G01 X-1.2671 Y1.4435 
N06390 G01 X-1.2599 Y1.4488 
N06400 G01 X-1.2574 Y1.4500 
N06410 G01 X-1.2599 Y1.4512 
N06420 G01 X-1.2671 Y1.4565 
N06430 G01 X-1.2735 Y1.4629 
N06440 G01 X-1.2788 Y1.4701 
N06450 G01 X-1.2828 Y1.4781 
N06460 G01 X-1.2856 Y1.4867 
N06470 G01 X-1.2870 Y1.4955 
N06480 G01 X-1.2870 Y1.5045 
N06490 G01 X-1.2856 Y1.5133 
N06500 G01 X-1.2828 Y1.5219 
N06510 G01 X-1.2788 Y1.5299 
N06520 G01 X-1.2735 Y1.5371 
N06530 G01 X-1.2671 Y1.5435 
N06540 G01 X-1.2599 Y1.5488 
N06550 G01 X-1.2519 Y1.5528 
N06560 G01 X-1.2433 Y1.5556 
N06570 G01 X-1.2345 Y1.5570 
N06580 G01 X-1.1655 Y1.5570 
N06590 G01 X-1.1567 Y1.5556 
N06600 G01 X-1.1481 Y1.5528 
N06610 G01 X-1.1465 Y1.5520 
N06620 G01 X-0.8230 Y1.5520 
N06630 G01 X-0.8220 Y1.5530 
N06640 G01 X-0.7780 Y1.5530 
N06650 G01 X-0.7770 Y1.5520 
N06660 G01 X-0.6268 Y1.5520 
N06670 G01 X-0.6225 Y1.5542 
N06680 G01 X-0.6137 Y1.5571 
N06690 G01 X-0.6046 Y1.5585 
N06700 G01 X-0.5954 Y1.5585 
N06710 G01 X-0.5863 Y1.5571 
N06720 G01 X-0.5775 Y1.5542 
N06730 G01 X-0.5732 Y1.5520 
N06740 G01 X-0.3643 Y1.5520 
N06750 G01 X-0.3639 Y1.5528 
N06760 G01 X-0.3610 Y1.5572 
N06770 G01 X-0.3572 Y1.5610 
N06780 G01 X-0.3528 Y1.5639 
N06790 G01 X-0.3479 Y1.5660 
N06800 G01 X-0.3427 Y1.5670 
N06810 G01 X-0.2573 Y1.5670 
N06820 G01 X-0.2521 Y1.5660 
N06830 G01 X-0.2472 Y1.5639 
N06840 G01 X-0.2428 Y1.5610 
N06850 G01 X-0.2390 Y1.5572 
N06860 G01 X-0.2361 Y1.5528 
N06870 G01 X-0.2340 Y1.5479 
N06880 G01 X-0.2330 Y1.5427 
N06890 G01 X-0.2330 Y1.4573 
N06900 G01 X-0.2340 Y1.4521 
N06910 G01 X-0.2361 Y1.4472 
N06920 G01 X-0.2390 Y1.4428 
N06930 G01 X-0.2428 Y1.4390 
N06940 G01 X-0.2472 Y1.4361 
N06950 G01 X-0.2521 Y1.4340 
N06960 G01 X-0.2573 Y1.4330 
N06970 G01 X-0.3427 Y1.4330 
N06980 G01 X-0.3479 Y1.4340 
N06990 G01 X-0.3528 Y1.4361 
N07000 G01 X-0.3572 Y1.4390 
N07010 G01 X-0.3610 Y1.4428 
N07020 G01 X-0.3639 Y1.4472 
N07030 G01 X-0.3643 Y1.4480 
N07040 G01 X-0.5653 Y1.4480 
N07050 G01 X-0.5415 Y1.4242 
N07060 G01 X-0.5415 Y1.3758 
N07070 G01 X-0.5480 Y1.3693 
N07080 G01 X-0.5480 Y1.0520 
N07090 G01 X-0.3520 Y1.0520 
N07100 G01 X-0.3520 Y1.3199 
N07110 G01 X-0.3558 Y1.3249 
N07120 G01 X-0.3602 Y1.3325 
N07130 G01 X-0.3636 Y1.3406 
N07140 G01 X-0.3659 Y1.3491 
N07150 G01 X-0.3670 Y1.3578 
N07160 G01 X-0.3670 Y1.3666 
N07170 G01 X-0.3659 Y1.3753 
N07180 G01 X-0.3636 Y1.3838 
N07190 G01 X-0.3602 Y1.3919 
N07200 G01 X-0.3558 Y1.3995 
N07210 G01 X-0.3505 Y1.4065 
N07220 G01 X-0.3443 Y1.4127 
N07230 G01 X-0.3373 Y1.4180 
N07240 G01 X-0.3297 Y1.4224 
N07250 G01 X-0.3216 Y1.4258 
N07260 G01 X-0.3131 Y1.4281 
N07270 G01 X-0.3044 Y1.4292 
N07280 G01 X-0.2956 Y1.4292 
N07290 G01 X-0.2869 Y1.4281 
N07300 G01 X-0.2784 Y1.4258 
N07310 G01 X-0.2703 Y1.4224 
N07320 G01 X-0.2627 Y1.4180 
N07330 G01 X-0.2557 Y1.4127 
N07340 G01 X-0.2495 Y1.4065 
N07350 G01 X-0.2442 Y1.3995 
N07360 G01 X-0.2398 Y1.3919 
N07370 G01 X-0.2364 Y1.3838 
N07380 G01 X-0.2341 Y1.3753 
N07390 G01 X-0.2330 Y1.3666 
N07400 G01 X-0.2330 Y1.3578 
N07410 G01 X-0.2341 Y1.3491 
N07420 G01 X-0.2364 Y1.3406 
N07430 G01 X-0.2398 Y1.3325 
N07440 G01 X-0.2442 Y1.3249 
N07450 G01 X-0.2480 Y1.3199 
N07460 G01 X-0.2480 Y0.6801 
N07470 G01 X-0.2444 Y0.6730 
N07480 G01 X-0.2415 Y0.6640 
N07490 G01 X-0.2400 Y0.6547 
N07500 G01 X-0.2400 Y0.6453 
N07510 G01 X-0.2415 Y0.6359 
N07520 G01 X-0.2444 Y0.6270 
N07530 G01 X-0.2487 Y0.6186 
N07540 G01 X-0.2542 Y0.6109 
N07550 G01 X-0.2609 Y0.6042 
N07560 G01 X-0.2686 Y0.5987 
N07570 G01 X-0.2770 Y0.5944 
N07580 G01 X-0.2859 Y0.5915 
N07590 G01 X-0.2953 Y0.5900 
N07600 G01 X-0.3047 Y0.5900 
N07610 G01 X-0.3140 Y0.5915 
N07620 G01 X-0.3230 Y0.5944 
N07630 G01 X-0.3314 Y0.5987 
N07640 G01 X-0.3391 Y0.6042 
N07650 G01 X-0.3458 Y0.6109 
N07660 G01 X-0.3513 Y0.6186 
N07670 G01 X-0.3556 Y0.6270 
N07680 G01 X-0.3585 Y0.6359 
N07690 G01 X-0.3600 Y0.6453 
N07700 G01 X-0.3600 Y0.6547 
N07710 G01 X-0.3585 Y0.6640 
N07720 G01 X-0.3556 Y0.6730 
N07730 G01 X-0.3520 Y0.6801 
N07740 G01 X-0.3520 Y0.9480 
N07750 G01 X-0.5480 Y0.9480 
N07760 G01 X-0.5480 Y0.3730 
N07770 G01 X-0.5470 Y0.3720 
N07780 G00 Z0.1000 
N07790 G00 X-0.8000 Y1.5000 
N07800 G01 Z-0.0110 F10.00 
N07810 G00 Z0.1000 
N07820 G00 X-0.8000 Y1.4000 
N07830 G01 Z-0.0110 F10.00 
N07840 G00 Z0.1000 
N07850 G00 X-1.5000 Y0.8000 
N07860 G01 Z-0.0110 F10.00 
N07870 G00 Z0.1000 
N07880 G00 X-1.5000 Y0.7000 
N07890 G01 Z-0.0110 F10.00 
N07900 G00 Z0.1000 
N07910 G00 X-0.7000 Y0.3500 
N07920 G01 Z-0.0110 F10.00 
N07930 G00 Z0.1000 
N07940 G00 X-0.6000 Y0.3500 
N07950 G01 Z-0.0110 F10.00 
N07960 G00 Z0.1000 
N07970 G00 X-0.6000 Y1.5000 
N07980 G01 Z-0.0110 F10.00 
N07990 G00 Z0.1000 
N08000 G00 X-0.6000 Y1.4000 
N08010 G01 Z-0.0110 F10.00 
N08020 G00 Z0.1000 
N08030 G00 X-1.0000 Y1.3000 
N08040 G01 Z-0.0110 F10.00 
N08050 G00 Z0.1000 
N08060 G00 X-1.0000 Y1.4000 
N08070 G01 Z-0.0110 F10.00 
N08080 G00 Z0.1000 
N08090 G00 X-1.5000 Y0.3000 
N08100 G01 Z-0.0110 F10.00 
N08110 G00 Z0.1000 
N08120 G00 X-1.4000 Y0.3000 
N08130 G01 Z-0.0110 F10.00 
N08140 G00 Z0.1000 
N08150 G00 X-0.3000 Y0.6500 
N08160 G01 Z-0.0110 F10.00 
N08170 G00 Z0.1000 
N08180 G00 X-0.7000 Y0.6500 
N08190 G01 Z-0.0110 F10.00 
N08200 G00 Z0.1000 
N08210 G00 X-1.4000 Y0.9000 
N08220 G01 Z-0.0110 F10.00 
N08230 G00 Z0.1000 
N08240 G00 X-1.3000 Y0.9000 
N08250 G01 Z-0.0110 F10.00 
N08260 G00 Z0.1000 
N08270 G00 X-1.2000 Y0.9000 
N08280 G01 Z-0.0110 F10.00 
N08290 G00 Z0.1000 
N08300 G00 X-1.1000 Y0.9000 
N08310 G01 Z-0.0110 F10.00 
N08320 G00 Z0.1000 
N08330 G00 X-1.1000 Y0.6000 
N08340 G01 Z-0.0110 F10.00 
N08350 G00 Z0.1000 
N08360 G00 X-1.2000 Y0.6000 
N08370 G01 Z-0.0110 F10.00 
N08380 G00 Z0.1000 
N08390 G00 X-1.3000 Y0.6000 
N08400 G01 Z-0.0110 F10.00 
N08410 G00 Z0.1000 
N08420 G00 X-1.4000 Y0.6000 
N08430 G01 Z-0.0110 F10.00 
N08440 G00 Z0.1000 
N08450 G00 X-1.2000 Y1.4000 
N08460 G01 Z-0.0110 F10.00 
N08470 G00 Z0.1000 
N08480 G00 X-1.2000 Y1.5000 
N08490 G01 Z-0.0110 F10.00 
N08500 G00 Z0.1000 
N08510 G00 X-1.2000 Y1.3000 
N08520 G01 Z-0.0110 F10.00 
N08530 G00 Z0.1000 
N08540 G00 X-1.7900 Y1.4000 
N08550 G01 Z-0.0110 F10.00 
N08560 G00 Z0.1000 
N08570 G00 X-0.8000 Y0.2000 
N08580 G01 Z-0.0110 F10.00 
N08590 G00 Z0.1000 
N08600 G00 X-0.7000 Y0.2000 
N08610 G01 Z-0.0110 F10.00 
N08620 G00 Z0.1000 
N08630 G00 X-0.6000 Y0.2000 
N08640 G01 Z-0.0110 F10.00 
N08650 G00 Z0.1000 
N08660 G00 X-0.3000 Y1.5000 
N08670 G01 Z-0.0110 F10.00 
N08680 G00 Z0.1000 
N08690 G00 X-0.3000 Y1.3622 
N08700 G01 Z-0.0110 F10.00 
N08710 G00 Z0.1000 
N08720 G00 X-0.8500 Y1.1500 
N08730 G01 Z-0.0110 F10.00 
N08740 G00 Z0.1000 
N08750 G00 X-0.7500 Y1.1500 
N08760 G01 Z-0.0110 F10.00 
N08770 G00 Z0.1000 
N08780 G00 X-0.8500 Y0.9000 
N08790 G01 Z-0.0110 F10.00 
N08800 G00 Z0.1000 
N08810 G00 X-0.7500 Y0.9000 
N08820 G01 Z-0.0110 F10.00 
N08830 G00 Z0.1000 
N08840 G00 X-1.3031 Y0.2000 
N08850 G01 Z-0.0110 F10.00 
N08860 G00 Z0.1000 
N08870 G00 X-1.5000 Y0.2000 
N08880 G01 Z-0.0110 F10.00 
N08890 G00 Z0.1000 
N08900 G00 X-1.6969 Y0.2000 
N08910 G01 Z-0.0110 F10.00 
N08920 G00 Z0.1000 
N08930 G00 X-1.0000 Y0.6000 
N08940 G01 Z-0.0110 F10.00 
N08950 G00 Z0.1000 
N08960 G00 X-1.0000 Y0.2000 
N08970 G01 Z-0.0110 F10.00 
N08980 G00 Z0.1000 
N08990 G00 X-1.1000 Y1.1500 
N09000 G01 Z-0.0110 F10.00 
N09010 G00 Z0.1000 
N09020 G00 X-1.5000 Y1.1500 
N09030 G01 Z-0.0110 F10.00 
N09040 G00 Z0.1000 
N09050 G00 X-0.9000 Y1.0250 
N09060 G01 Z-0.0110 F10.00 
N09070 G00 Z0.1000 
N09080 G00 X-1.3000 Y1.0250 
N09090 G01 Z-0.0110 F10.00 
N09100 G00 Z0.1000 
N09110 G00 X-0.2500 Y1.7500 
N09120 G01 Z-0.0110 F10.00 
N09130 G00 Z0.1000 
N09140 G00 X-0.2500 Y0.2500 
N09150 G01 Z-0.0110 F10.00 
N09160 G00 Z0.1000 
N09170 G00 X-2.7500 Y0.2500 
N09180 G01 Z-0.0110 F10.00 
N09190 G00 Z0.1000 
N09200 G00 X-2.7500 Y1.7500 
N09210 G01 Z-0.0110 F10.00 
N09220 G00 Z0.1000 
N09230 G00 Z0.5000 
N09240 M05
N09250 M02
