N00000 (.../pcb-gcode-3.6.0.4/pcb-gcode.ulp)
N00010 (Copyright 2005 - 2012 by John Johnson)
N00020 (See readme.txt for licensing terms.)
N00030 (This file generated from the board:)
N00040 (.../eagle/ServoDriver/servodriver.brd)
N00050 (Current profile is .../pcb-gcode-3.6.0.4/profiles/generic.pp  )
N00060 (This file generated 2014-04-05 14:54:56)
N00070 (Settings from pcb-machine.h)
N00080 (  Tool Size)
N00090 (0.0100 )
N00100 (Z Axis Settings)
N00110 (  High     Up        Down     Drill)
N00120 (0.5000 	0.1000 	-0.0020 	-0.0700 )
N00130 (spindle on time = 1.0000)
N00140 (milling depth = -0.0100)
N00150 (text depth = -0.0025)
N00160 (tool change at 0.0000 0.0000 0.5000 )
N00170 (feed rate xy = F20.00 )
N00180 (feed rate z  = F10.00 )
N00190 (Settings from pcb-defaults.h)
N00200 (isolate min = 0.0020)
N00210 (isolate max = 0.0200)
N00220 (isolate step = 0.0100)
N00230 (Generated bottom outlines, bottom drill, )
N00240 (Unit of measure: inch)
N00250 (Inch Mode)
N00260 G20
N00270 (Absolute Coordinates)
N00280 G90
N00290 G00 X0.0000 Y0.0000 
N00300 M03
N00310 G04 P1.000000
N00320 G00 Z0.1000 
N00330 G00 X0.1100 Y1.3202 
N00340 G01 Z-0.0025 F10.00 
N00350 G01 X0.1100 Y1.3629 F20.00 
N00360 G00 Z0.1000 
N00370 G00 X0.1100 Y1.5135 
N00380 G01 Z-0.0025 F10.00 
N00390 G01 X0.1100 Y1.5562 F20.00 
N00400 G00 Z0.1000 
N00410 G00 X0.0886 Y1.5349 
N00420 G01 Z-0.0025 F10.00 
N00430 G01 X0.1313 Y1.5349 F20.00 
N00440 G00 Z0.1000 
N00450 G00 X0.6207 Y1.8114 
N00460 G01 Z-0.0025 F10.00 
N00470 G01 X0.6100 Y1.8221 F20.00 
N00480 G01 X0.5887 Y1.8221 
N00490 G01 X0.5780 Y1.8114 
N00500 G01 X0.5780 Y1.8007 
N00510 G01 X0.5887 Y1.7900 
N00520 G01 X0.6100 Y1.7900 
N00530 G01 X0.6207 Y1.7794 
N00540 G01 X0.6207 Y1.7687 
N00550 G01 X0.6100 Y1.7580 
N00560 G01 X0.5887 Y1.7580 
N00570 G01 X0.5780 Y1.7687 
N00580 G00 Z0.1000 
N00590 G00 X0.6745 Y1.7580 
N00600 G01 Z-0.0025 F10.00 
N00610 G01 X0.6531 Y1.7580 F20.00 
N00620 G01 X0.6425 Y1.7687 
N00630 G01 X0.6425 Y1.7900 
N00640 G01 X0.6531 Y1.8007 
N00650 G01 X0.6745 Y1.8007 
N00660 G01 X0.6852 Y1.7900 
N00670 G01 X0.6852 Y1.7794 
N00680 G01 X0.6425 Y1.7794 
N00690 G00 Z0.1000 
N00700 G00 X0.7069 Y1.7580 
N00710 G01 Z-0.0025 F10.00 
N00720 G01 X0.7069 Y1.8007 F20.00 
N00730 G00 Z0.1000 
N00740 G00 X0.7069 Y1.7794 
N00750 G01 Z-0.0025 F10.00 
N00760 G01 X0.7283 Y1.8007 F20.00 
N00770 G01 X0.7389 Y1.8007 
N00780 G00 Z0.1000 
N00790 G00 X0.7606 Y1.8007 
N00800 G01 Z-0.0025 F10.00 
N00810 G01 X0.7820 Y1.7580 F20.00 
N00820 G01 X0.8033 Y1.8007 
N00830 G00 Z0.1000 
N00840 G00 X0.8358 Y1.7580 
N00850 G01 Z-0.0025 F10.00 
N00860 G01 X0.8571 Y1.7580 F20.00 
N00870 G01 X0.8678 Y1.7687 
N00880 G01 X0.8678 Y1.7900 
N00890 G01 X0.8571 Y1.8007 
N00900 G01 X0.8358 Y1.8007 
N00910 G01 X0.8251 Y1.7900 
N00920 G01 X0.8251 Y1.7687 
N00930 G01 X0.8358 Y1.7580 
N00940 G00 Z0.1000 
N00950 G00 X0.8895 Y1.8221 
N00960 G01 Z-0.0025 F10.00 
N00970 G01 X0.8895 Y1.7580 F20.00 
N00980 G01 X0.9216 Y1.7580 
N00990 G01 X0.9322 Y1.7687 
N01000 G01 X0.9322 Y1.8114 
N01010 G01 X0.9216 Y1.8221 
N01020 G01 X0.8895 Y1.8221 
N01030 G00 Z0.1000 
N01040 G00 X0.9540 Y1.7580 
N01050 G01 Z-0.0025 F10.00 
N01060 G01 X0.9540 Y1.8007 F20.00 
N01070 G00 Z0.1000 
N01080 G00 X0.9540 Y1.7794 
N01090 G01 Z-0.0025 F10.00 
N01100 G01 X0.9753 Y1.8007 F20.00 
N01110 G01 X0.9860 Y1.8007 
N01120 G00 Z0.1000 
N01130 G00 X1.0077 Y1.8007 
N01140 G01 Z-0.0025 F10.00 
N01150 G01 X1.0184 Y1.8007 F20.00 
N01160 G01 X1.0184 Y1.7580 
N01170 G00 Z0.1000 
N01180 G00 X1.0077 Y1.7580 
N01190 G01 Z-0.0025 F10.00 
N01200 G01 X1.0291 Y1.7580 F20.00 
N01210 G00 Z0.1000 
N01220 G00 X1.0184 Y1.8327 
N01230 G01 Z-0.0025 F10.00 
N01240 G01 X1.0184 Y1.8221 F20.00 
N01250 G00 Z0.1000 
N01260 G00 X1.0507 Y1.8007 
N01270 G01 Z-0.0025 F10.00 
N01280 G01 X1.0720 Y1.7580 F20.00 
N01290 G01 X1.0934 Y1.8007 
N01300 G00 Z0.1000 
N01310 G00 X1.1472 Y1.7580 
N01320 G01 Z-0.0025 F10.00 
N01330 G01 X1.1258 Y1.7580 F20.00 
N01340 G01 X1.1151 Y1.7687 
N01350 G01 X1.1151 Y1.7900 
N01360 G01 X1.1258 Y1.8007 
N01370 G01 X1.1472 Y1.8007 
N01380 G01 X1.1578 Y1.7900 
N01390 G01 X1.1578 Y1.7794 
N01400 G01 X1.1151 Y1.7794 
N01410 G00 Z0.1000 
N01420 G00 X1.1796 Y1.7580 
N01430 G01 Z-0.0025 F10.00 
N01440 G01 X1.1796 Y1.8007 F20.00 
N01450 G00 Z0.1000 
N01460 G00 X1.1796 Y1.7794 
N01470 G01 Z-0.0025 F10.00 
N01480 G01 X1.2009 Y1.8007 F20.00 
N01490 G01 X1.2116 Y1.8007 
N01500 G00 Z0.1000 
N01510 G00 X1.3405 Y1.7580 
N01520 G01 Z-0.0025 F10.00 
N01530 G01 X1.2977 Y1.7580 F20.00 
N01540 G01 X1.3405 Y1.8007 
N01550 G01 X1.3405 Y1.8114 
N01560 G01 X1.3298 Y1.8221 
N01570 G01 X1.3084 Y1.8221 
N01580 G01 X1.2977 Y1.8114 
N01590 G00 Z0.1000 
N01600 G00 X1.3622 Y1.7687 
N01610 G01 Z-0.0025 F10.00 
N01620 G01 X1.3622 Y1.8114 F20.00 
N01630 G01 X1.3729 Y1.8221 
N01640 G01 X1.3942 Y1.8221 
N01650 G01 X1.4049 Y1.8114 
N01660 G01 X1.4049 Y1.7687 
N01670 G01 X1.3942 Y1.7580 
N01680 G01 X1.3729 Y1.7580 
N01690 G01 X1.3622 Y1.7687 
N01700 G01 X1.4049 Y1.8114 
N01710 G00 Z0.1000 
N01720 G00 X1.4267 Y1.8007 
N01730 G01 Z-0.0025 F10.00 
N01740 G01 X1.4480 Y1.8221 F20.00 
N01750 G01 X1.4480 Y1.7580 
N01760 G00 Z0.1000 
N01770 G00 X1.4267 Y1.7580 
N01780 G01 Z-0.0025 F10.00 
N01790 G01 X1.4694 Y1.7580 F20.00 
N01800 G00 Z0.1000 
N01810 G00 X1.5231 Y1.7580 
N01820 G01 Z-0.0025 F10.00 
N01830 G01 X1.5231 Y1.8221 F20.00 
N01840 G01 X1.4911 Y1.7900 
N01850 G01 X1.5338 Y1.7900 
N01860 G00 Z0.1000 
N01870 G00 X1.5556 Y1.7900 
N01880 G01 Z-0.0025 F10.00 
N01890 G01 X1.5983 Y1.7900 F20.00 
N01900 G00 Z0.1000 
N01910 G00 X1.6200 Y1.7687 
N01920 G01 Z-0.0025 F10.00 
N01930 G01 X1.6200 Y1.8114 F20.00 
N01940 G01 X1.6307 Y1.8221 
N01950 G01 X1.6520 Y1.8221 
N01960 G01 X1.6627 Y1.8114 
N01970 G01 X1.6627 Y1.7687 
N01980 G01 X1.6520 Y1.7580 
N01990 G01 X1.6307 Y1.7580 
N02000 G01 X1.6200 Y1.7687 
N02010 G01 X1.6627 Y1.8114 
N02020 G00 Z0.1000 
N02030 G00 X1.7165 Y1.7580 
N02040 G01 Z-0.0025 F10.00 
N02050 G01 X1.7165 Y1.8221 F20.00 
N02060 G01 X1.6845 Y1.7900 
N02070 G01 X1.7272 Y1.7900 
N02080 G00 Z0.1000 
N02090 G00 X1.7489 Y1.7900 
N02100 G01 Z-0.0025 F10.00 
N02110 G01 X1.7916 Y1.7900 F20.00 
N02120 G00 Z0.1000 
N02130 G00 X1.8134 Y1.7687 
N02140 G01 Z-0.0025 F10.00 
N02150 G01 X1.8134 Y1.8114 F20.00 
N02160 G01 X1.8241 Y1.8221 
N02170 G01 X1.8454 Y1.8221 
N02180 G01 X1.8561 Y1.8114 
N02190 G01 X1.8561 Y1.7687 
N02200 G01 X1.8454 Y1.7580 
N02210 G01 X1.8241 Y1.7580 
N02220 G01 X1.8134 Y1.7687 
N02230 G01 X1.8561 Y1.8114 
N02240 G00 Z0.1000 
N02250 G00 X1.9205 Y1.8221 
N02260 G01 Z-0.0025 F10.00 
N02270 G01 X1.8778 Y1.8221 F20.00 
N02280 G01 X1.8778 Y1.7900 
N02290 G01 X1.8992 Y1.8007 
N02300 G01 X1.9099 Y1.8007 
N02310 G01 X1.9205 Y1.7900 
N02320 G01 X1.9205 Y1.7687 
N02330 G01 X1.9099 Y1.7580 
N02340 G01 X1.8885 Y1.7580 
N02350 G01 X1.8778 Y1.7687 
N02360 G00 Z0.1000 
N02370 G00 X0.6207 Y1.7064 
N02380 G01 Z-0.0025 F10.00 
N02390 G01 X0.6100 Y1.7171 F20.00 
N02400 G01 X0.5887 Y1.7171 
N02410 G01 X0.5780 Y1.7064 
N02420 G01 X0.5780 Y1.6957 
N02430 G01 X0.5887 Y1.6850 
N02440 G01 X0.6100 Y1.6850 
N02450 G01 X0.6207 Y1.6744 
N02460 G01 X0.6207 Y1.6637 
N02470 G01 X0.6100 Y1.6530 
N02480 G01 X0.5887 Y1.6530 
N02490 G01 X0.5780 Y1.6637 
N02500 G00 Z0.1000 
N02510 G00 X0.6531 Y1.7064 
N02520 G01 Z-0.0025 F10.00 
N02530 G01 X0.6531 Y1.6637 F20.00 
N02540 G01 X0.6638 Y1.6530 
N02550 G00 Z0.1000 
N02560 G00 X0.6425 Y1.6957 
N02570 G01 Z-0.0025 F10.00 
N02580 G01 X0.6638 Y1.6957 F20.00 
N02590 G00 Z0.1000 
N02600 G00 X0.6961 Y1.6530 
N02610 G01 Z-0.0025 F10.00 
N02620 G01 X0.7175 Y1.6530 F20.00 
N02630 G01 X0.7281 Y1.6637 
N02640 G01 X0.7281 Y1.6850 
N02650 G01 X0.7175 Y1.6957 
N02660 G01 X0.6961 Y1.6957 
N02670 G01 X0.6854 Y1.6850 
N02680 G01 X0.6854 Y1.6637 
N02690 G01 X0.6961 Y1.6530 
N02700 G00 Z0.1000 
N02710 G00 X0.7926 Y1.6957 
N02720 G01 Z-0.0025 F10.00 
N02730 G01 X0.7606 Y1.6957 F20.00 
N02740 G01 X0.7499 Y1.6850 
N02750 G01 X0.7499 Y1.6637 
N02760 G01 X0.7606 Y1.6530 
N02770 G01 X0.7926 Y1.6530 
N02780 G00 Z0.1000 
N02790 G00 X0.8143 Y1.6530 
N02800 G01 Z-0.0025 F10.00 
N02810 G01 X0.8143 Y1.7171 F20.00 
N02820 G00 Z0.1000 
N02830 G00 X0.8464 Y1.6530 
N02840 G01 Z-0.0025 F10.00 
N02850 G01 X0.8143 Y1.6744 F20.00 
N02860 G01 X0.8464 Y1.6957 
N02870 G00 Z0.1000 
N02880 G00 X0.8787 Y1.7064 
N02890 G01 Z-0.0025 F10.00 
N02900 G01 X0.8787 Y1.6637 F20.00 
N02910 G01 X0.8894 Y1.6530 
N02920 G00 Z0.1000 
N02930 G00 X0.8680 Y1.6957 
N02940 G01 Z-0.0025 F10.00 
N02950 G01 X0.8894 Y1.6957 F20.00 
N02960 G00 Z0.1000 
N02970 G00 X0.9217 Y1.6530 
N02980 G01 Z-0.0025 F10.00 
N02990 G01 X0.9430 Y1.6530 F20.00 
N03000 G01 X0.9537 Y1.6637 
N03010 G01 X0.9537 Y1.6850 
N03020 G01 X0.9430 Y1.6957 
N03030 G01 X0.9217 Y1.6957 
N03040 G01 X0.9110 Y1.6850 
N03050 G01 X0.9110 Y1.6637 
N03060 G01 X0.9217 Y1.6530 
N03070 G00 Z0.1000 
N03080 G00 X0.9755 Y1.6530 
N03090 G01 Z-0.0025 F10.00 
N03100 G01 X0.9755 Y1.6957 F20.00 
N03110 G01 X1.0075 Y1.6957 
N03120 G01 X1.0182 Y1.6850 
N03130 G01 X1.0182 Y1.6530 
N03140 G00 Z0.1000 
N03150 G00 X1.1044 Y1.6530 
N03160 G01 Z-0.0025 F10.00 
N03170 G01 X1.1044 Y1.7171 F20.00 
N03180 G01 X1.1257 Y1.6957 
N03190 G01 X1.1471 Y1.7171 
N03200 G01 X1.1471 Y1.6530 
N03210 G00 Z0.1000 
N03220 G00 X1.1795 Y1.6957 
N03230 G01 Z-0.0025 F10.00 
N03240 G01 X1.2009 Y1.6957 F20.00 
N03250 G01 X1.2115 Y1.6850 
N03260 G01 X1.2115 Y1.6530 
N03270 G01 X1.1795 Y1.6530 
N03280 G01 X1.1688 Y1.6637 
N03290 G01 X1.1795 Y1.6744 
N03300 G01 X1.2115 Y1.6744 
N03310 G00 Z0.1000 
N03320 G00 X1.2333 Y1.6530 
N03330 G01 Z-0.0025 F10.00 
N03340 G01 X1.2333 Y1.6957 F20.00 
N03350 G00 Z0.1000 
N03360 G00 X1.2333 Y1.6744 
N03370 G01 Z-0.0025 F10.00 
N03380 G01 X1.2546 Y1.6957 F20.00 
N03390 G01 X1.2653 Y1.6957 
N03400 G00 Z0.1000 
N03410 G00 X1.2870 Y1.6957 
N03420 G01 Z-0.0025 F10.00 
N03430 G01 X1.2977 Y1.6957 F20.00 
N03440 G01 X1.2977 Y1.6530 
N03450 G00 Z0.1000 
N03460 G00 X1.2870 Y1.6530 
N03470 G01 Z-0.0025 F10.00 
N03480 G01 X1.3084 Y1.6530 F20.00 
N03490 G00 Z0.1000 
N03500 G00 X1.2977 Y1.7277 
N03510 G01 Z-0.0025 F10.00 
N03520 G01 X1.2977 Y1.7171 F20.00 
N03530 G00 Z0.1000 
N03540 G00 X1.3300 Y1.6530 
N03550 G01 Z-0.0025 F10.00 
N03560 G01 X1.3300 Y1.6957 F20.00 
N03570 G01 X1.3620 Y1.6957 
N03580 G01 X1.3727 Y1.6850 
N03590 G01 X1.3727 Y1.6530 
N03600 G00 Z0.1000 
N03610 G00 X1.4265 Y1.6530 
N03620 G01 Z-0.0025 F10.00 
N03630 G01 X1.4051 Y1.6530 F20.00 
N03640 G01 X1.3944 Y1.6637 
N03650 G01 X1.3944 Y1.6850 
N03660 G01 X1.4051 Y1.6957 
N03670 G01 X1.4265 Y1.6957 
N03680 G01 X1.4371 Y1.6850 
N03690 G01 X1.4371 Y1.6744 
N03700 G01 X1.3944 Y1.6744 
N03710 G00 Z0.1000 
N03720 G00 X1.5660 Y1.7064 
N03730 G01 Z-0.0025 F10.00 
N03740 G01 X1.5554 Y1.7171 F20.00 
N03750 G01 X1.5340 Y1.7171 
N03760 G01 X1.5233 Y1.7064 
N03770 G01 X1.5233 Y1.6957 
N03780 G01 X1.5340 Y1.6850 
N03790 G01 X1.5554 Y1.6850 
N03800 G01 X1.5660 Y1.6744 
N03810 G01 X1.5660 Y1.6637 
N03820 G01 X1.5554 Y1.6530 
N03830 G01 X1.5340 Y1.6530 
N03840 G01 X1.5233 Y1.6637 
N03850 G00 Z0.1000 
N03860 G00 X1.6305 Y1.6957 
N03870 G01 Z-0.0025 F10.00 
N03880 G01 X1.5985 Y1.6957 F20.00 
N03890 G01 X1.5878 Y1.6850 
N03900 G01 X1.5878 Y1.6637 
N03910 G01 X1.5985 Y1.6530 
N03920 G01 X1.6305 Y1.6530 
N03930 G00 Z0.1000 
N03940 G00 X1.6522 Y1.6957 
N03950 G01 Z-0.0025 F10.00 
N03960 G01 X1.6629 Y1.6957 F20.00 
N03970 G01 X1.6629 Y1.6530 
N03980 G00 Z0.1000 
N03990 G00 X1.6522 Y1.6530 
N04000 G01 Z-0.0025 F10.00 
N04010 G01 X1.6736 Y1.6530 F20.00 
N04020 G00 Z0.1000 
N04030 G00 X1.6629 Y1.7277 
N04040 G01 Z-0.0025 F10.00 
N04050 G01 X1.6629 Y1.7171 F20.00 
N04060 G00 Z0.1000 
N04070 G00 X1.7272 Y1.6530 
N04080 G01 Z-0.0025 F10.00 
N04090 G01 X1.7059 Y1.6530 F20.00 
N04100 G01 X1.6952 Y1.6637 
N04110 G01 X1.6952 Y1.6850 
N04120 G01 X1.7059 Y1.6957 
N04130 G01 X1.7272 Y1.6957 
N04140 G01 X1.7379 Y1.6850 
N04150 G01 X1.7379 Y1.6744 
N04160 G01 X1.6952 Y1.6744 
N04170 G00 Z0.1000 
N04180 G00 X1.7597 Y1.6530 
N04190 G01 Z-0.0025 F10.00 
N04200 G01 X1.7597 Y1.6957 F20.00 
N04210 G01 X1.7917 Y1.6957 
N04220 G01 X1.8024 Y1.6850 
N04230 G01 X1.8024 Y1.6530 
N04240 G00 Z0.1000 
N04250 G00 X1.8668 Y1.6957 
N04260 G01 Z-0.0025 F10.00 
N04270 G01 X1.8348 Y1.6957 F20.00 
N04280 G01 X1.8241 Y1.6850 
N04290 G01 X1.8241 Y1.6637 
N04300 G01 X1.8348 Y1.6530 
N04310 G01 X1.8668 Y1.6530 
N04320 G00 Z0.1000 
N04330 G00 X1.9206 Y1.6530 
N04340 G01 Z-0.0025 F10.00 
N04350 G01 X1.8993 Y1.6530 F20.00 
N04360 G01 X1.8886 Y1.6637 
N04370 G01 X1.8886 Y1.6850 
N04380 G01 X1.8993 Y1.6957 
N04390 G01 X1.9206 Y1.6957 
N04400 G01 X1.9313 Y1.6850 
N04410 G01 X1.9313 Y1.6744 
N04420 G01 X1.8886 Y1.6744 
N04430 G00 Z0.1000 
N04440 G00 X2.0175 Y1.6530 
N04450 G01 Z-0.0025 F10.00 
N04460 G01 X2.0175 Y1.7171 F20.00 
N04470 G01 X2.0495 Y1.7171 
N04480 G01 X2.0602 Y1.7064 
N04490 G01 X2.0602 Y1.6850 
N04500 G01 X2.0495 Y1.6744 
N04510 G01 X2.0175 Y1.6744 
N04520 G00 Z0.1000 
N04530 G00 X2.0819 Y1.6530 
N04540 G01 Z-0.0025 F10.00 
N04550 G01 X2.0819 Y1.6957 F20.00 
N04560 G00 Z0.1000 
N04570 G00 X2.0819 Y1.6744 
N04580 G01 Z-0.0025 F10.00 
N04590 G01 X2.1033 Y1.6957 F20.00 
N04600 G01 X2.1140 Y1.6957 
N04610 G00 Z0.1000 
N04620 G00 X2.1463 Y1.6530 
N04630 G01 Z-0.0025 F10.00 
N04640 G01 X2.1677 Y1.6530 F20.00 
N04650 G01 X2.1784 Y1.6637 
N04660 G01 X2.1784 Y1.6850 
N04670 G01 X2.1677 Y1.6957 
N04680 G01 X2.1463 Y1.6957 
N04690 G01 X2.1357 Y1.6850 
N04700 G01 X2.1357 Y1.6637 
N04710 G01 X2.1463 Y1.6530 
N04720 G00 Z0.1000 
N04730 G00 X2.2215 Y1.6316 
N04740 G01 Z-0.0025 F10.00 
N04750 G01 X2.2321 Y1.6316 F20.00 
N04760 G01 X2.2428 Y1.6423 
N04770 G01 X2.2428 Y1.6957 
N04780 G01 X2.2108 Y1.6957 
N04790 G01 X2.2001 Y1.6850 
N04800 G01 X2.2001 Y1.6637 
N04810 G01 X2.2108 Y1.6530 
N04820 G01 X2.2428 Y1.6530 
N04830 G00 Z0.1000 
N04840 G00 X2.2646 Y1.6530 
N04850 G01 Z-0.0025 F10.00 
N04860 G01 X2.2646 Y1.6957 F20.00 
N04870 G00 Z0.1000 
N04880 G00 X2.2646 Y1.6744 
N04890 G01 Z-0.0025 F10.00 
N04900 G01 X2.2859 Y1.6957 F20.00 
N04910 G01 X2.2966 Y1.6957 
N04920 G00 Z0.1000 
N04930 G00 X2.3290 Y1.6957 
N04940 G01 Z-0.0025 F10.00 
N04950 G01 X2.3503 Y1.6957 F20.00 
N04960 G01 X2.3610 Y1.6850 
N04970 G01 X2.3610 Y1.6530 
N04980 G01 X2.3290 Y1.6530 
N04990 G01 X2.3183 Y1.6637 
N05000 G01 X2.3290 Y1.6744 
N05010 G01 X2.3610 Y1.6744 
N05020 G00 Z0.1000 
N05030 G00 X2.3827 Y1.6530 
N05040 G01 Z-0.0025 F10.00 
N05050 G01 X2.3827 Y1.6957 F20.00 
N05060 G01 X2.3934 Y1.6957 
N05070 G01 X2.4041 Y1.6850 
N05080 G01 X2.4041 Y1.6530 
N05090 G00 Z0.1000 
N05100 G00 X2.4041 Y1.6850 
N05110 G01 Z-0.0025 F10.00 
N05120 G01 X2.4148 Y1.6957 F20.00 
N05130 G01 X2.4254 Y1.6850 
N05140 G01 X2.4254 Y1.6530 
N05150 G00 Z0.1000 
N05160 G00 X0.5530 Y0.0530 
N05170 G01 Z-0.0025 F10.00 
N05180 G01 X0.5530 Y0.1171 F20.00 
N05190 G01 X0.5850 Y0.1171 
N05200 G01 X0.5957 Y0.1064 
N05210 G01 X0.5957 Y0.0957 
N05220 G01 X0.5850 Y0.0850 
N05230 G01 X0.5957 Y0.0744 
N05240 G01 X0.5957 Y0.0637 
N05250 G01 X0.5850 Y0.0530 
N05260 G01 X0.5530 Y0.0530 
N05270 G00 Z0.1000 
N05280 G00 X0.5530 Y0.0850 
N05290 G01 Z-0.0025 F10.00 
N05300 G01 X0.5850 Y0.0850 F20.00 
N05310 G00 Z0.1000 
N05320 G00 X0.6819 Y0.0530 
N05330 G01 Z-0.0025 F10.00 
N05340 G01 X0.6819 Y0.1171 F20.00 
N05350 G01 X0.7139 Y0.1171 
N05360 G01 X0.7246 Y0.1064 
N05370 G01 X0.7246 Y0.0850 
N05380 G01 X0.7139 Y0.0744 
N05390 G01 X0.6819 Y0.0744 
N05400 G00 Z0.1000 
N05410 G00 X0.7033 Y0.0744 
N05420 G01 Z-0.0025 F10.00 
N05430 G01 X0.7246 Y0.0530 F20.00 
N05440 G00 Z0.1000 
N05450 G00 X0.8108 Y0.1171 
N05460 G01 Z-0.0025 F10.00 
N05470 G01 X0.8108 Y0.1064 F20.00 
N05480 G01 X0.8322 Y0.0850 
N05490 G01 X0.8535 Y0.1064 
N05500 G01 X0.8535 Y0.1171 
N05510 G00 Z0.1000 
N05520 G00 X0.8322 Y0.0850 
N05530 G01 Z-0.0025 F10.00 
N05540 G01 X0.8322 Y0.0530 F20.00 
N05550 G00 Z0.1000 
N05560 G00 X0.1530 Y1.1421 
N05570 G01 Z-0.0025 F10.00 
N05580 G01 X0.1957 Y1.1421 F20.00 
N05590 G01 X0.1957 Y1.1314 
N05600 G01 X0.1530 Y1.0887 
N05610 G01 X0.1530 Y1.0780 
N05620 G00 Z0.1000 
N05630 G00 X0.2175 Y1.1100 
N05640 G01 Z-0.0025 F10.00 
N05650 G01 X0.2602 Y1.1100 F20.00 
N05660 G00 Z0.1000 
N05670 G00 X0.2819 Y1.1207 
N05680 G01 Z-0.0025 F10.00 
N05690 G01 X0.3033 Y1.1421 F20.00 
N05700 G01 X0.3033 Y1.0780 
N05710 G00 Z0.1000 
N05720 G00 X0.2819 Y1.0780 
N05730 G01 Z-0.0025 F10.00 
N05740 G01 X0.3246 Y1.0780 F20.00 
N05750 G00 Z0.1000 
N05760 G00 X0.3891 Y1.0780 
N05770 G01 Z-0.0025 F10.00 
N05780 G01 X0.3464 Y1.0780 F20.00 
N05790 G01 X0.3891 Y1.1207 
N05800 G01 X0.3891 Y1.1314 
N05810 G01 X0.3784 Y1.1421 
N05820 G01 X0.3570 Y1.1421 
N05830 G01 X0.3464 Y1.1314 
N05840 G00 Z0.1000 
N05850 G00 X0.4108 Y1.1421 
N05860 G01 Z-0.0025 F10.00 
N05870 G01 X0.4108 Y1.0994 F20.00 
N05880 G01 X0.4322 Y1.0780 
N05890 G01 X0.4535 Y1.0994 
N05900 G01 X0.4535 Y1.1421 
N05910 G00 Z0.1000 
N05920 G00 X0.5397 Y1.1421 
N05930 G01 Z-0.0025 F10.00 
N05940 G01 X0.5397 Y1.0780 F20.00 
N05950 G01 X0.5718 Y1.0780 
N05960 G01 X0.5824 Y1.0887 
N05970 G01 X0.5824 Y1.1314 
N05980 G01 X0.5718 Y1.1421 
N05990 G01 X0.5397 Y1.1421 
N06000 G00 Z0.1000 
N06010 G00 X0.6469 Y1.1314 
N06020 G01 Z-0.0025 F10.00 
N06030 G01 X0.6362 Y1.1421 F20.00 
N06040 G01 X0.6149 Y1.1421 
N06050 G01 X0.6042 Y1.1314 
N06060 G01 X0.6042 Y1.0887 
N06070 G01 X0.6149 Y1.0780 
N06080 G01 X0.6362 Y1.0780 
N06090 G01 X0.6469 Y1.0887 
N06100 G00 Z0.1000 
N06110 G00 X1.4493 Y0.7385 
N06120 G01 Z-0.0025 F10.00 
N06130 G01 X1.4279 Y0.7599 F20.00 
N06140 G01 X1.4493 Y0.7812 
N06150 G00 Z0.1000 
N06160 G00 X0.5780 Y1.5600 
N06170 G01 Z-0.0025 F10.00 
N06180 G01 X0.6207 Y1.5600 F20.00 
N06190 G00 Z0.1000 
N06200 G00 X0.5994 Y1.5814 
N06210 G01 Z-0.0025 F10.00 
N06220 G01 X0.5994 Y1.5387 F20.00 
N06230 G00 Z0.1000 
N06240 G00 X0.9780 Y1.2350 
N06250 G01 Z-0.0025 F10.00 
N06260 G01 X1.0207 Y1.2350 F20.00 
N06270 G00 Z0.1000 
N06280 G00 X0.9994 Y1.2564 
N06290 G01 Z-0.0025 F10.00 
N06300 G01 X0.9994 Y1.2137 F20.00 
N06310 G00 Z0.1000 
N06320 G00 X0.4530 Y0.6921 
N06330 G01 Z-0.0025 F10.00 
N06340 G01 X0.4957 Y0.6600 F20.00 
N06350 G01 X0.4530 Y0.6280 
N06360 G00 Z0.1000 
N06370 G00 X0.5175 Y0.6921 
N06380 G01 Z-0.0025 F10.00 
N06390 G01 X0.5175 Y0.6280 F20.00 
N06400 G00 Z0.1000 
N06410 G00 X0.7957 Y1.6064 
N06420 G01 Z-0.0025 F10.00 
N06430 G01 X0.7850 Y1.6171 F20.00 
N06440 G01 X0.7637 Y1.6171 
N06450 G01 X0.7530 Y1.6064 
N06460 G01 X0.7530 Y1.5637 
N06470 G01 X0.7637 Y1.5530 
N06480 G01 X0.7850 Y1.5530 
N06490 G01 X0.7957 Y1.5637 
N06500 G00 Z0.1000 
N06510 G00 X0.8175 Y1.5957 
N06520 G01 Z-0.0025 F10.00 
N06530 G01 X0.8388 Y1.6171 F20.00 
N06540 G01 X0.8388 Y1.5530 
N06550 G00 Z0.1000 
N06560 G00 X0.8175 Y1.5530 
N06570 G01 Z-0.0025 F10.00 
N06580 G01 X0.8602 Y1.5530 F20.00 
N06590 G00 Z0.1000 
N06600 G00 X1.4957 Y0.9064 
N06610 G01 Z-0.0025 F10.00 
N06620 G01 X1.4850 Y0.9171 F20.00 
N06630 G01 X1.4637 Y0.9171 
N06640 G01 X1.4530 Y0.9064 
N06650 G01 X1.4530 Y0.8637 
N06660 G01 X1.4637 Y0.8530 
N06670 G01 X1.4850 Y0.8530 
N06680 G01 X1.4957 Y0.8637 
N06690 G00 Z0.1000 
N06700 G00 X1.5602 Y0.8530 
N06710 G01 Z-0.0025 F10.00 
N06720 G01 X1.5175 Y0.8530 F20.00 
N06730 G01 X1.5602 Y0.8957 
N06740 G01 X1.5602 Y0.9064 
N06750 G01 X1.5495 Y0.9171 
N06760 G01 X1.5281 Y0.9171 
N06770 G01 X1.5175 Y0.9064 
N06780 G00 Z0.1000 
N06790 G00 X0.7436 Y0.3457 
N06800 G01 Z-0.0025 F10.00 
N06810 G01 X0.7329 Y0.3350 F20.00 
N06820 G01 X0.7329 Y0.3137 
N06830 G01 X0.7436 Y0.3030 
N06840 G01 X0.7863 Y0.3030 
N06850 G01 X0.7970 Y0.3137 
N06860 G01 X0.7970 Y0.3350 
N06870 G01 X0.7863 Y0.3457 
N06880 G00 Z0.1000 
N06890 G00 X0.7436 Y0.3675 
N06900 G01 Z-0.0025 F10.00 
N06910 G01 X0.7329 Y0.3781 F20.00 
N06920 G01 X0.7329 Y0.3995 
N06930 G01 X0.7436 Y0.4102 
N06940 G01 X0.7543 Y0.4102 
N06950 G01 X0.7650 Y0.3995 
N06960 G01 X0.7650 Y0.3888 
N06970 G00 Z0.1000 
N06980 G00 X0.7650 Y0.3995 
N06990 G01 Z-0.0025 F10.00 
N07000 G01 X0.7756 Y0.4102 F20.00 
N07010 G01 X0.7863 Y0.4102 
N07020 G01 X0.7970 Y0.3995 
N07030 G01 X0.7970 Y0.3781 
N07040 G01 X0.7863 Y0.3675 
N07050 G00 Z0.1000 
N07060 G00 X0.4936 Y1.4457 
N07070 G01 Z-0.0025 F10.00 
N07080 G01 X0.4829 Y1.4350 F20.00 
N07090 G01 X0.4829 Y1.4137 
N07100 G01 X0.4936 Y1.4030 
N07110 G01 X0.5363 Y1.4030 
N07120 G01 X0.5470 Y1.4137 
N07130 G01 X0.5470 Y1.4350 
N07140 G01 X0.5363 Y1.4457 
N07150 G00 Z0.1000 
N07160 G00 X0.5470 Y1.4995 
N07170 G01 Z-0.0025 F10.00 
N07180 G01 X0.4829 Y1.4995 F20.00 
N07190 G01 X0.5150 Y1.4675 
N07200 G01 X0.5150 Y1.5102 
N07210 G00 Z0.1000 
N07220 G00 X0.8936 Y1.3457 
N07230 G01 Z-0.0025 F10.00 
N07240 G01 X0.8829 Y1.3350 F20.00 
N07250 G01 X0.8829 Y1.3137 
N07260 G01 X0.8936 Y1.3030 
N07270 G01 X0.9363 Y1.3030 
N07280 G01 X0.9470 Y1.3137 
N07290 G01 X0.9470 Y1.3350 
N07300 G01 X0.9363 Y1.3457 
N07310 G00 Z0.1000 
N07320 G00 X0.8829 Y1.4102 
N07330 G01 Z-0.0025 F10.00 
N07340 G01 X0.8829 Y1.3675 F20.00 
N07350 G01 X0.9150 Y1.3675 
N07360 G01 X0.9043 Y1.3888 
N07370 G01 X0.9043 Y1.3995 
N07380 G01 X0.9150 Y1.4102 
N07390 G01 X0.9363 Y1.4102 
N07400 G01 X0.9470 Y1.3995 
N07410 G01 X0.9470 Y1.3781 
N07420 G01 X0.9363 Y1.3675 
N07430 G00 Z0.1000 
N07440 G00 X0.4530 Y0.6171 
N07450 G01 Z-0.0025 F10.00 
N07460 G01 X0.4530 Y0.5530 F20.00 
N07470 G01 X0.4850 Y0.5530 
N07480 G01 X0.4957 Y0.5637 
N07490 G01 X0.4957 Y0.6064 
N07500 G01 X0.4850 Y0.6171 
N07510 G01 X0.4530 Y0.6171 
N07520 G00 Z0.1000 
N07530 G00 X0.5175 Y0.5957 
N07540 G01 Z-0.0025 F10.00 
N07550 G01 X0.5388 Y0.6171 F20.00 
N07560 G01 X0.5388 Y0.5530 
N07570 G00 Z0.1000 
N07580 G00 X0.5175 Y0.5530 
N07590 G01 Z-0.0025 F10.00 
N07600 G01 X0.5602 Y0.5530 F20.00 
N07610 G00 Z0.1000 
N07620 G00 X1.0220 Y0.6780 
N07630 G01 Z-0.0025 F10.00 
N07640 G01 X1.0220 Y0.6994 F20.00 
N07650 G00 Z0.1000 
N07660 G00 X1.0220 Y0.6887 
N07670 G01 Z-0.0025 F10.00 
N07680 G01 X0.9579 Y0.6887 F20.00 
N07690 G00 Z0.1000 
N07700 G00 X0.9579 Y0.6780 
N07710 G01 Z-0.0025 F10.00 
N07720 G01 X0.9579 Y0.6994 F20.00 
N07730 G00 Z0.1000 
N07740 G00 X0.9686 Y0.7637 
N07750 G01 Z-0.0025 F10.00 
N07760 G01 X0.9579 Y0.7530 F20.00 
N07770 G01 X0.9579 Y0.7316 
N07780 G01 X0.9686 Y0.7210 
N07790 G01 X1.0113 Y0.7210 
N07800 G01 X1.0220 Y0.7316 
N07810 G01 X1.0220 Y0.7530 
N07820 G01 X1.0113 Y0.7637 
N07830 G00 Z0.1000 
N07840 G00 X0.9793 Y0.7854 
N07850 G01 Z-0.0025 F10.00 
N07860 G01 X0.9579 Y0.8068 F20.00 
N07870 G01 X1.0220 Y0.8068 
N07880 G00 Z0.1000 
N07890 G00 X1.0220 Y0.7854 
N07900 G01 Z-0.0025 F10.00 
N07910 G01 X1.0220 Y0.8281 F20.00 
N07920 G00 Z0.1000 
N07930 G00 X1.1780 Y0.4000 
N07940 G01 Z-0.0025 F10.00 
N07950 G01 X1.2207 Y0.4000 F20.00 
N07960 G00 Z0.1000 
N07970 G00 X1.2425 Y0.4000 
N07980 G01 Z-0.0025 F10.00 
N07990 G01 X1.2852 Y0.4000 F20.00 
N08000 G00 Z0.1000 
N08010 G00 X1.3069 Y0.4000 
N08020 G01 Z-0.0025 F10.00 
N08030 G01 X1.3496 Y0.4000 F20.00 
N08040 G00 Z0.1000 
N08050 G00 X1.3714 Y0.4000 
N08060 G01 Z-0.0025 F10.00 
N08070 G01 X1.4141 Y0.4000 F20.00 
N08080 G00 Z0.1000 
N08090 G00 X1.4358 Y0.4000 
N08100 G01 Z-0.0025 F10.00 
N08110 G01 X1.4785 Y0.4000 F20.00 
N08120 G00 Z0.1000 
N08130 G00 X1.5003 Y0.4000 
N08140 G01 Z-0.0025 F10.00 
N08150 G01 X1.5430 Y0.4000 F20.00 
N08160 G00 Z0.1000 
N08170 G00 X1.5647 Y0.4000 
N08180 G01 Z-0.0025 F10.00 
N08190 G01 X1.6074 Y0.4000 F20.00 
N08200 G00 Z0.1000 
N08210 G00 X1.6292 Y0.4000 
N08220 G01 Z-0.0025 F10.00 
N08230 G01 X1.6719 Y0.4000 F20.00 
N08240 G00 Z0.1000 
N08250 G00 X1.6936 Y0.4000 
N08260 G01 Z-0.0025 F10.00 
N08270 G01 X1.7363 Y0.4000 F20.00 
N08280 G00 Z0.1000 
N08290 G00 X1.7581 Y0.4000 
N08300 G01 Z-0.0025 F10.00 
N08310 G01 X1.8008 Y0.4000 F20.00 
N08320 G00 Z0.1000 
N08330 G00 X1.1780 Y0.3271 
N08340 G01 Z-0.0025 F10.00 
N08350 G01 X1.1780 Y0.2630 F20.00 
N08360 G00 Z0.1000 
N08370 G00 X1.8440 Y0.3271 
N08380 G01 Z-0.0025 F10.00 
N08390 G01 X1.8440 Y0.2630 F20.00 
N08400 G00 Z0.1000 
N08410 G00 X1.1780 Y0.2221 
N08420 G01 Z-0.0025 F10.00 
N08430 G01 X1.1780 Y0.1580 F20.00 
N08440 G00 Z0.1000 
N08450 G00 X1.8440 Y0.2221 
N08460 G01 Z-0.0025 F10.00 
N08470 G01 X1.8440 Y0.1580 F20.00 
N08480 G00 Z0.1000 
N08490 G00 X1.1780 Y0.1171 
N08500 G01 Z-0.0025 F10.00 
N08510 G01 X1.1780 Y0.0530 F20.00 
N08520 G00 Z0.1000 
N08530 G00 X1.1995 Y0.0423 
N08540 G01 Z-0.0025 F10.00 
N08550 G01 X1.2422 Y0.0423 F20.00 
N08560 G00 Z0.1000 
N08570 G00 X1.2639 Y0.0423 
N08580 G01 Z-0.0025 F10.00 
N08590 G01 X1.3066 Y0.0423 F20.00 
N08600 G00 Z0.1000 
N08610 G00 X1.3284 Y0.0423 
N08620 G01 Z-0.0025 F10.00 
N08630 G01 X1.3711 Y0.0423 F20.00 
N08640 G00 Z0.1000 
N08650 G00 X1.4573 Y0.0530 
N08660 G01 Z-0.0025 F10.00 
N08670 G01 X1.4573 Y0.1171 F20.00 
N08680 G01 X1.4893 Y0.1171 
N08690 G01 X1.5000 Y0.1064 
N08700 G01 X1.5000 Y0.0850 
N08710 G01 X1.4893 Y0.0744 
N08720 G01 X1.4573 Y0.0744 
N08730 G00 Z0.1000 
N08740 G00 X1.4787 Y0.0744 
N08750 G01 Z-0.0025 F10.00 
N08760 G01 X1.5000 Y0.0530 F20.00 
N08770 G00 Z0.1000 
N08780 G00 X1.5218 Y0.0957 
N08790 G01 Z-0.0025 F10.00 
N08800 G01 X1.5431 Y0.1171 F20.00 
N08810 G01 X1.5431 Y0.0530 
N08820 G00 Z0.1000 
N08830 G00 X1.5218 Y0.0530 
N08840 G01 Z-0.0025 F10.00 
N08850 G01 X1.5645 Y0.0530 F20.00 
N08860 G00 Z0.1000 
N08870 G00 X1.6507 Y0.0423 
N08880 G01 Z-0.0025 F10.00 
N08890 G01 X1.6934 Y0.0423 F20.00 
N08900 G00 Z0.1000 
N08910 G00 X1.7151 Y0.0423 
N08920 G01 Z-0.0025 F10.00 
N08930 G01 X1.7578 Y0.0423 F20.00 
N08940 G00 Z0.1000 
N08950 G00 X1.7796 Y0.0423 
N08960 G01 Z-0.0025 F10.00 
N08970 G01 X1.8223 Y0.0423 F20.00 
N08980 G00 Z0.1000 
N08990 G00 X1.8440 Y0.1171 
N09000 G01 Z-0.0025 F10.00 
N09010 G01 X1.8440 Y0.0530 F20.00 
N09020 G00 Z0.1000 
N09030 G00 X1.0050 Y0.2265 
N09040 G01 Z-0.0025 F10.00 
N09050 G01 X1.0050 Y0.2512 F20.00 
N09060 G00 Z0.1000 
N09070 G00 X1.0050 Y0.2633 
N09080 G01 Z-0.0025 F10.00 
N09090 G01 X1.0050 Y0.2880 F20.00 
N09100 G00 Z0.1000 
N09110 G00 X1.0050 Y0.3002 
N09120 G01 Z-0.0025 F10.00 
N09130 G01 X1.0050 Y0.3249 F20.00 
N09140 G00 Z0.1000 
N09150 G00 X0.9865 Y0.3370 
N09160 G01 Z-0.0025 F10.00 
N09170 G01 X1.0235 Y0.3370 F20.00 
N09180 G01 X1.0235 Y0.3617 
N09190 G00 Z0.1000 
N09200 G00 X1.0235 Y0.3738 
N09210 G01 Z-0.0025 F10.00 
N09220 G01 X1.0235 Y0.3862 F20.00 
N09230 G00 Z0.1000 
N09240 G00 X1.0235 Y0.3800 
N09250 G01 Z-0.0025 F10.00 
N09260 G01 X0.9865 Y0.3800 F20.00 
N09270 G00 Z0.1000 
N09280 G00 X0.9865 Y0.3738 
N09290 G01 Z-0.0025 F10.00 
N09300 G01 X0.9865 Y0.3862 F20.00 
N09310 G00 Z0.1000 
N09320 G00 X1.0235 Y0.3984 
N09330 G01 Z-0.0025 F10.00 
N09340 G01 X0.9865 Y0.3984 F20.00 
N09350 G01 X1.0235 Y0.4231 
N09360 G01 X0.9865 Y0.4231 
N09370 G00 Z0.1000 
N09380 G00 X0.9865 Y0.4352 
N09390 G01 Z-0.0025 F10.00 
N09400 G01 X1.0235 Y0.4352 F20.00 
N09410 G00 Z0.1000 
N09420 G00 X1.0112 Y0.4352 
N09430 G01 Z-0.0025 F10.00 
N09440 G01 X0.9865 Y0.4599 F20.00 
N09450 G00 Z0.1000 
N09460 G00 X1.0050 Y0.4414 
N09470 G01 Z-0.0025 F10.00 
N09480 G01 X1.0235 Y0.4599 F20.00 
N09490 G00 Z0.1000 
N09500 G00 X1.0050 Y0.4720 
N09510 G01 Z-0.0025 F10.00 
N09520 G01 X1.0050 Y0.4967 F20.00 
N09530 G00 Z0.1000 
N09540 G00 X1.0050 Y0.5089 
N09550 G01 Z-0.0025 F10.00 
N09560 G01 X1.0050 Y0.5336 F20.00 
N09570 G00 Z0.1000 
N09580 G00 X1.0050 Y0.5457 
N09590 G01 Z-0.0025 F10.00 
N09600 G01 X1.0050 Y0.5704 F20.00 
N09610 G00 Z0.1000 
N09620 G00 X0.9363 Y0.1030 
N09630 G01 Z-0.0025 F10.00 
N09640 G01 X0.9470 Y0.1137 F20.00 
N09650 G01 X0.9470 Y0.1244 
N09660 G01 X0.9363 Y0.1350 
N09670 G01 X0.8829 Y0.1350 
N09680 G00 Z0.1000 
N09690 G00 X0.8829 Y0.1244 
N09700 G01 Z-0.0025 F10.00 
N09710 G01 X0.8829 Y0.1457 F20.00 
N09720 G00 Z0.1000 
N09730 G00 X0.9470 Y0.1675 
N09740 G01 Z-0.0025 F10.00 
N09750 G01 X0.8829 Y0.1675 F20.00 
N09760 G01 X0.8829 Y0.1995 
N09770 G01 X0.8936 Y0.2102 
N09780 G01 X0.9150 Y0.2102 
N09790 G01 X0.9256 Y0.1995 
N09800 G01 X0.9256 Y0.1675 
N09810 G00 Z0.1000 
N09820 G00 X0.9043 Y0.2319 
N09830 G01 Z-0.0025 F10.00 
N09840 G01 X0.8829 Y0.2533 F20.00 
N09850 G01 X0.9470 Y0.2533 
N09860 G00 Z0.1000 
N09870 G00 X0.9470 Y0.2319 
N09880 G01 Z-0.0025 F10.00 
N09890 G01 X0.9470 Y0.2746 F20.00 
N09900 G00 Z0.1000 
N09910 G00 X0.1846 Y1.1937 
N09920 G01 Z-0.0025 F10.00 
N09930 G01 X0.1953 Y1.1830 F20.00 
N09940 G01 X0.2060 Y1.1830 
N09950 G01 X0.2167 Y1.1937 
N09960 G01 X0.2167 Y1.2471 
N09970 G00 Z0.1000 
N09980 G00 X0.2060 Y1.2471 
N09990 G01 Z-0.0025 F10.00 
N10000 G01 X0.2273 Y1.2471 F20.00 
N10010 G00 Z0.1000 
N10020 G00 X0.2491 Y1.1830 
N10030 G01 Z-0.0025 F10.00 
N10040 G01 X0.2491 Y1.2471 F20.00 
N10050 G01 X0.2811 Y1.2471 
N10060 G01 X0.2918 Y1.2364 
N10070 G01 X0.2918 Y1.2150 
N10080 G01 X0.2811 Y1.2044 
N10090 G01 X0.2491 Y1.2044 
N10100 G00 Z0.1000 
N10110 G00 X0.3562 Y1.1830 
N10120 G01 Z-0.0025 F10.00 
N10130 G01 X0.3135 Y1.1830 F20.00 
N10140 G01 X0.3562 Y1.2257 
N10150 G01 X0.3562 Y1.2364 
N10160 G01 X0.3456 Y1.2471 
N10170 G01 X0.3242 Y1.2471 
N10180 G01 X0.3135 Y1.2364 
N10190 G00 Z0.1000 
N10200 G00 X0.7020 Y1.2480 
N10210 G01 Z-0.0025 F10.00 
N10220 G01 X0.7020 Y1.2020 F20.00 
N10230 G01 X0.7327 Y1.2020 
N10240 G00 Z0.1000 
N10250 G00 X0.7787 Y1.2480 
N10260 G01 Z-0.0025 F10.00 
N10270 G01 X0.7480 Y1.2480 F20.00 
N10280 G01 X0.7480 Y1.2020 
N10290 G01 X0.7787 Y1.2020 
N10300 G00 Z0.1000 
N10310 G00 X0.7480 Y1.2250 
N10320 G01 Z-0.0025 F10.00 
N10330 G01 X0.7634 Y1.2250 F20.00 
N10340 G00 Z0.1000 
N10350 G00 X0.7941 Y1.2480 
N10360 G01 Z-0.0025 F10.00 
N10370 G01 X0.7941 Y1.2020 F20.00 
N10380 G01 X0.8171 Y1.2020 
N10390 G01 X0.8248 Y1.2097 
N10400 G01 X0.8248 Y1.2404 
N10410 G01 X0.8171 Y1.2480 
N10420 G01 X0.7941 Y1.2480 
N10430 G00 Z0.1000 
N10440 G00 X0.8401 Y1.2327 
N10450 G01 Z-0.0025 F10.00 
N10460 G01 X0.8555 Y1.2480 F20.00 
N10470 G01 X0.8555 Y1.2020 
N10480 G00 Z0.1000 
N10490 G00 X0.8401 Y1.2020 
N10500 G01 Z-0.0025 F10.00 
N10510 G01 X0.8708 Y1.2020 F20.00 
N10520 G00 Z0.1000 
N10530 G00 X0.7020 Y1.1730 
N10540 G01 Z-0.0025 F10.00 
N10550 G01 X0.7020 Y1.1270 F20.00 
N10560 G00 Z0.1000 
N10570 G00 X0.8555 Y1.1500 
N10580 G01 Z-0.0025 F10.00 
N10590 G01 X0.8862 Y1.1500 F20.00 
N10600 G00 Z0.1000 
N10610 G00 X0.8708 Y1.1654 
N10620 G01 Z-0.0025 F10.00 
N10630 G01 X0.8708 Y1.1347 F20.00 
N10640 G00 Z0.1000 
N10650 G00 X0.7020 Y0.9980 
N10660 G01 Z-0.0025 F10.00 
N10670 G01 X0.7020 Y0.9520 F20.00 
N10680 G01 X0.7327 Y0.9520 
N10690 G00 Z0.1000 
N10700 G00 X0.7787 Y0.9980 
N10710 G01 Z-0.0025 F10.00 
N10720 G01 X0.7480 Y0.9980 F20.00 
N10730 G01 X0.7480 Y0.9520 
N10740 G01 X0.7787 Y0.9520 
N10750 G00 Z0.1000 
N10760 G00 X0.7480 Y0.9750 
N10770 G01 Z-0.0025 F10.00 
N10780 G01 X0.7634 Y0.9750 F20.00 
N10790 G00 Z0.1000 
N10800 G00 X0.7941 Y0.9980 
N10810 G01 Z-0.0025 F10.00 
N10820 G01 X0.7941 Y0.9520 F20.00 
N10830 G01 X0.8171 Y0.9520 
N10840 G01 X0.8248 Y0.9597 
N10850 G01 X0.8248 Y0.9904 
N10860 G01 X0.8171 Y0.9980 
N10870 G01 X0.7941 Y0.9980 
N10880 G00 Z0.1000 
N10890 G00 X0.8708 Y0.9520 
N10900 G01 Z-0.0025 F10.00 
N10910 G01 X0.8401 Y0.9520 F20.00 
N10920 G01 X0.8708 Y0.9827 
N10930 G01 X0.8708 Y0.9904 
N10940 G01 X0.8631 Y0.9980 
N10950 G01 X0.8478 Y0.9980 
N10960 G01 X0.8401 Y0.9904 
N10970 G00 Z0.1000 
N10980 G00 X0.7020 Y0.9230 
N10990 G01 Z-0.0025 F10.00 
N11000 G01 X0.7020 Y0.8770 F20.00 
N11010 G00 Z0.1000 
N11020 G00 X0.8555 Y0.9000 
N11030 G01 Z-0.0025 F10.00 
N11040 G01 X0.8862 Y0.9000 F20.00 
N11050 G00 Z0.1000 
N11060 G00 X0.8708 Y0.9154 
N11070 G01 Z-0.0025 F10.00 
N11080 G01 X0.8708 Y0.8847 F20.00 
N11090 G00 Z0.1000 
N11100 G00 X1.0530 Y1.0030 
N11110 G01 Z-0.0025 F10.00 
N11120 G01 X1.0530 Y1.0671 F20.00 
N11130 G01 X1.0850 Y1.0671 
N11140 G01 X1.0957 Y1.0564 
N11150 G01 X1.0957 Y1.0350 
N11160 G01 X1.0850 Y1.0244 
N11170 G01 X1.0530 Y1.0244 
N11180 G00 Z0.1000 
N11190 G00 X1.0744 Y1.0244 
N11200 G01 Z-0.0025 F10.00 
N11210 G01 X1.0957 Y1.0030 F20.00 
N11220 G00 Z0.1000 
N11230 G00 X1.1495 Y1.0030 
N11240 G01 Z-0.0025 F10.00 
N11250 G01 X1.1495 Y1.0671 F20.00 
N11260 G01 X1.1175 Y1.0350 
N11270 G01 X1.1602 Y1.0350 
N11280 G00 Z0.1000 
N11290 G00 X1.2530 Y1.1030 
N11300 G01 Z-0.0025 F10.00 
N11310 G01 X1.2530 Y1.1671 F20.00 
N11320 G01 X1.2850 Y1.1671 
N11330 G01 X1.2957 Y1.1564 
N11340 G01 X1.2957 Y1.1350 
N11350 G01 X1.2850 Y1.1244 
N11360 G01 X1.2530 Y1.1244 
N11370 G00 Z0.1000 
N11380 G00 X1.2744 Y1.1244 
N11390 G01 Z-0.0025 F10.00 
N11400 G01 X1.2957 Y1.1030 F20.00 
N11410 G00 Z0.1000 
N11420 G00 X1.3175 Y1.1564 
N11430 G01 Z-0.0025 F10.00 
N11440 G01 X1.3281 Y1.1671 F20.00 
N11450 G01 X1.3495 Y1.1671 
N11460 G01 X1.3602 Y1.1564 
N11470 G01 X1.3602 Y1.1457 
N11480 G01 X1.3495 Y1.1350 
N11490 G01 X1.3388 Y1.1350 
N11500 G00 Z0.1000 
N11510 G00 X1.3495 Y1.1350 
N11520 G01 Z-0.0025 F10.00 
N11530 G01 X1.3602 Y1.1244 F20.00 
N11540 G01 X1.3602 Y1.1137 
N11550 G01 X1.3495 Y1.1030 
N11560 G01 X1.3281 Y1.1030 
N11570 G01 X1.3175 Y1.1137 
N11580 G00 Z0.1000 
N11590 G00 X0.7436 Y0.3457 
N11600 G01 Z-0.0025 F10.00 
N11610 G01 X0.7329 Y0.3350 F20.00 
N11620 G01 X0.7329 Y0.3137 
N11630 G01 X0.7436 Y0.3030 
N11640 G01 X0.7863 Y0.3030 
N11650 G01 X0.7970 Y0.3137 
N11660 G01 X0.7970 Y0.3350 
N11670 G01 X0.7863 Y0.3457 
N11680 G00 Z0.1000 
N11690 G00 X0.7436 Y0.3675 
N11700 G01 Z-0.0025 F10.00 
N11710 G01 X0.7329 Y0.3781 F20.00 
N11720 G01 X0.7329 Y0.3995 
N11730 G01 X0.7436 Y0.4102 
N11740 G01 X0.7543 Y0.4102 
N11750 G01 X0.7650 Y0.3995 
N11760 G01 X0.7650 Y0.3888 
N11770 G00 Z0.1000 
N11780 G00 X0.7650 Y0.3995 
N11790 G01 Z-0.0025 F10.00 
N11800 G01 X0.7756 Y0.4102 F20.00 
N11810 G01 X0.7863 Y0.4102 
N11820 G01 X0.7970 Y0.3995 
N11830 G01 X0.7970 Y0.3781 
N11840 G01 X0.7863 Y0.3675 
N11850 G00 Z0.1000 
N11860 G00 X1.5686 Y0.2957 
N11870 G01 Z-0.0025 F10.00 
N11880 G01 X1.5579 Y0.2850 F20.00 
N11890 G01 X1.5579 Y0.2637 
N11900 G01 X1.5686 Y0.2530 
N11910 G01 X1.6113 Y0.2530 
N11920 G01 X1.6220 Y0.2637 
N11930 G01 X1.6220 Y0.2850 
N11940 G01 X1.6113 Y0.2957 
N11950 G00 Z0.1000 
N11960 G00 X1.5579 Y0.3602 
N11970 G01 Z-0.0025 F10.00 
N11980 G01 X1.5686 Y0.3388 F20.00 
N11990 G01 X1.5900 Y0.3175 
N12000 G01 X1.6113 Y0.3175 
N12010 G01 X1.6220 Y0.3281 
N12020 G01 X1.6220 Y0.3495 
N12030 G01 X1.6113 Y0.3602 
N12040 G01 X1.6006 Y0.3602 
N12050 G01 X1.5900 Y0.3495 
N12060 G01 X1.5900 Y0.3175 
N12070 G00 Z0.1000 
N12080 G00 X1.3030 Y1.6123 
N12090 G01 Z-0.0025 F10.00 
N12100 G01 X1.3457 Y1.6123 F20.00 
N12110 G00 Z0.1000 
N12120 G00 X1.3675 Y1.6123 
N12130 G01 Z-0.0025 F10.00 
N12140 G01 X1.4102 Y1.6123 F20.00 
N12150 G00 Z0.1000 
N12160 G00 X1.4319 Y1.6123 
N12170 G01 Z-0.0025 F10.00 
N12180 G01 X1.4746 Y1.6123 F20.00 
N12190 G00 Z0.1000 
N12200 G00 X1.4964 Y1.6123 
N12210 G01 Z-0.0025 F10.00 
N12220 G01 X1.5391 Y1.6123 F20.00 
N12230 G00 Z0.1000 
N12240 G00 X1.5608 Y1.6123 
N12250 G01 Z-0.0025 F10.00 
N12260 G01 X1.6035 Y1.6123 F20.00 
N12270 G00 Z0.1000 
N12280 G00 X1.6253 Y1.6123 
N12290 G01 Z-0.0025 F10.00 
N12300 G01 X1.6680 Y1.6123 F20.00 
N12310 G00 Z0.1000 
N12320 G00 X1.6897 Y1.6123 
N12330 G01 Z-0.0025 F10.00 
N12340 G01 X1.7324 Y1.6123 F20.00 
N12350 G00 Z0.1000 
N12360 G00 X1.7542 Y1.6123 
N12370 G01 Z-0.0025 F10.00 
N12380 G01 X1.7969 Y1.6123 F20.00 
N12390 G00 Z0.1000 
N12400 G00 X1.8186 Y1.6123 
N12410 G01 Z-0.0025 F10.00 
N12420 G01 X1.8613 Y1.6123 F20.00 
N12430 G00 Z0.1000 
N12440 G00 X1.8831 Y1.6123 
N12450 G01 Z-0.0025 F10.00 
N12460 G01 X1.9258 Y1.6123 F20.00 
N12470 G00 Z0.1000 
N12480 G00 X1.3030 Y1.5821 
N12490 G01 Z-0.0025 F10.00 
N12500 G01 X1.3030 Y1.5180 F20.00 
N12510 G00 Z0.1000 
N12520 G00 X1.6468 Y1.5821 
N12530 G01 Z-0.0025 F10.00 
N12540 G01 X1.6468 Y1.5180 F20.00 
N12550 G00 Z0.1000 
N12560 G00 X1.9261 Y1.5821 
N12570 G01 Z-0.0025 F10.00 
N12580 G01 X1.9261 Y1.5180 F20.00 
N12590 G00 Z0.1000 
N12600 G00 X1.3030 Y1.4771 
N12610 G01 Z-0.0025 F10.00 
N12620 G01 X1.3030 Y1.4130 F20.00 
N12630 G00 Z0.1000 
N12640 G00 X1.6468 Y1.4771 
N12650 G01 Z-0.0025 F10.00 
N12660 G01 X1.6468 Y1.4130 F20.00 
N12670 G00 Z0.1000 
N12680 G00 X1.9261 Y1.4771 
N12690 G01 Z-0.0025 F10.00 
N12700 G01 X1.9261 Y1.4130 F20.00 
N12710 G00 Z0.1000 
N12720 G00 X1.3030 Y1.3721 
N12730 G01 Z-0.0025 F10.00 
N12740 G01 X1.3030 Y1.3080 F20.00 
N12750 G00 Z0.1000 
N12760 G00 X1.6468 Y1.3721 
N12770 G01 Z-0.0025 F10.00 
N12780 G01 X1.6468 Y1.3080 F20.00 
N12790 G00 Z0.1000 
N12800 G00 X1.9261 Y1.3721 
N12810 G01 Z-0.0025 F10.00 
N12820 G01 X1.9261 Y1.3080 F20.00 
N12830 G00 Z0.1000 
N12840 G00 X1.3030 Y1.2671 
N12850 G01 Z-0.0025 F10.00 
N12860 G01 X1.3030 Y1.2030 F20.00 
N12870 G00 Z0.1000 
N12880 G00 X1.3245 Y1.1923 
N12890 G01 Z-0.0025 F10.00 
N12900 G01 X1.3672 Y1.1923 F20.00 
N12910 G00 Z0.1000 
N12920 G00 X1.3889 Y1.1923 
N12930 G01 Z-0.0025 F10.00 
N12940 G01 X1.4316 Y1.1923 F20.00 
N12950 G00 Z0.1000 
N12960 G00 X1.4534 Y1.1923 
N12970 G01 Z-0.0025 F10.00 
N12980 G01 X1.4961 Y1.1923 F20.00 
N12990 G00 Z0.1000 
N13000 G00 X1.5178 Y1.1923 
N13010 G01 Z-0.0025 F10.00 
N13020 G01 X1.5606 Y1.1923 F20.00 
N13030 G00 Z0.1000 
N13040 G00 X1.5823 Y1.1923 
N13050 G01 Z-0.0025 F10.00 
N13060 G01 X1.6250 Y1.1923 F20.00 
N13070 G00 Z0.1000 
N13080 G00 X1.6468 Y1.2671 
N13090 G01 Z-0.0025 F10.00 
N13100 G01 X1.6468 Y1.2030 F20.00 
N13110 G00 Z0.1000 
N13120 G00 X1.6682 Y1.1923 
N13130 G01 Z-0.0025 F10.00 
N13140 G01 X1.7109 Y1.1923 F20.00 
N13150 G00 Z0.1000 
N13160 G00 X1.7327 Y1.1923 
N13170 G01 Z-0.0025 F10.00 
N13180 G01 X1.7754 Y1.1923 F20.00 
N13190 G00 Z0.1000 
N13200 G00 X1.7972 Y1.1923 
N13210 G01 Z-0.0025 F10.00 
N13220 G01 X1.8399 Y1.1923 F20.00 
N13230 G00 Z0.1000 
N13240 G00 X1.8616 Y1.1923 
N13250 G01 Z-0.0025 F10.00 
N13260 G01 X1.9043 Y1.1923 F20.00 
N13270 G00 Z0.1000 
N13280 G00 X1.9261 Y1.2671 
N13290 G01 Z-0.0025 F10.00 
N13300 G01 X1.9261 Y1.2030 F20.00 
N13310 G00 Z0.1000 
N13320 G00 X1.0530 Y0.8523 
N13330 G01 Z-0.0025 F10.00 
N13340 G01 X1.0957 Y0.8523 F20.00 
N13350 G00 Z0.1000 
N13360 G00 X1.1175 Y0.8523 
N13370 G01 Z-0.0025 F10.00 
N13380 G01 X1.1602 Y0.8523 F20.00 
N13390 G00 Z0.1000 
N13400 G00 X1.1819 Y0.8523 
N13410 G01 Z-0.0025 F10.00 
N13420 G01 X1.2246 Y0.8523 F20.00 
N13430 G00 Z0.1000 
N13440 G00 X1.2464 Y0.8523 
N13450 G01 Z-0.0025 F10.00 
N13460 G01 X1.2891 Y0.8523 F20.00 
N13470 G00 Z0.1000 
N13480 G00 X1.3108 Y0.8523 
N13490 G01 Z-0.0025 F10.00 
N13500 G01 X1.3535 Y0.8523 F20.00 
N13510 G00 Z0.1000 
N13520 G00 X1.3753 Y0.8523 
N13530 G01 Z-0.0025 F10.00 
N13540 G01 X1.4180 Y0.8523 F20.00 
N13550 G00 Z0.1000 
N13560 G00 X1.0530 Y0.8221 
N13570 G01 Z-0.0025 F10.00 
N13580 G01 X1.0530 Y0.7580 F20.00 
N13590 G00 Z0.1000 
N13600 G00 X1.4612 Y0.8221 
N13610 G01 Z-0.0025 F10.00 
N13620 G01 X1.4612 Y0.7580 F20.00 
N13630 G00 Z0.1000 
N13640 G00 X1.0530 Y0.7171 
N13650 G01 Z-0.0025 F10.00 
N13660 G01 X1.0530 Y0.6530 F20.00 
N13670 G00 Z0.1000 
N13680 G00 X1.0745 Y0.6423 
N13690 G01 Z-0.0025 F10.00 
N13700 G01 X1.1172 Y0.6423 F20.00 
N13710 G00 Z0.1000 
N13720 G00 X1.1389 Y0.6423 
N13730 G01 Z-0.0025 F10.00 
N13740 G01 X1.1816 Y0.6423 F20.00 
N13750 G00 Z0.1000 
N13760 G00 X1.2034 Y0.6423 
N13770 G01 Z-0.0025 F10.00 
N13780 G01 X1.2461 Y0.6423 F20.00 
N13790 G00 Z0.1000 
N13800 G00 X1.2678 Y0.6423 
N13810 G01 Z-0.0025 F10.00 
N13820 G01 X1.3106 Y0.6423 F20.00 
N13830 G00 Z0.1000 
N13840 G00 X1.3323 Y0.6423 
N13850 G01 Z-0.0025 F10.00 
N13860 G01 X1.3750 Y0.6423 F20.00 
N13870 G00 Z0.1000 
N13880 G00 X1.3968 Y0.6423 
N13890 G01 Z-0.0025 F10.00 
N13900 G01 X1.4395 Y0.6423 F20.00 
N13910 G00 Z0.1000 
N13920 G00 X1.4612 Y0.7171 
N13930 G01 Z-0.0025 F10.00 
N13940 G01 X1.4612 Y0.6530 F20.00 
N13950 G00 Z0.1000 
N13960 G00 X0.1530 Y1.5823 
N13970 G01 Z-0.0025 F10.00 
N13980 G01 X0.1957 Y1.5823 F20.00 
N13990 G00 Z0.1000 
N14000 G00 X0.2175 Y1.5823 
N14010 G01 Z-0.0025 F10.00 
N14020 G01 X0.2602 Y1.5823 F20.00 
N14030 G00 Z0.1000 
N14040 G00 X0.2819 Y1.5823 
N14050 G01 Z-0.0025 F10.00 
N14060 G01 X0.3246 Y1.5823 F20.00 
N14070 G00 Z0.1000 
N14080 G00 X0.3464 Y1.5823 
N14090 G01 Z-0.0025 F10.00 
N14100 G01 X0.3891 Y1.5823 F20.00 
N14110 G00 Z0.1000 
N14120 G00 X0.1530 Y1.5521 
N14130 G01 Z-0.0025 F10.00 
N14140 G01 X0.1530 Y1.4880 F20.00 
N14150 G00 Z0.1000 
N14160 G00 X0.4323 Y1.5521 
N14170 G01 Z-0.0025 F10.00 
N14180 G01 X0.4323 Y1.4880 F20.00 
N14190 G00 Z0.1000 
N14200 G00 X0.1530 Y1.4471 
N14210 G01 Z-0.0025 F10.00 
N14220 G01 X0.1530 Y1.3830 F20.00 
N14230 G00 Z0.1000 
N14240 G00 X0.4323 Y1.4471 
N14250 G01 Z-0.0025 F10.00 
N14260 G01 X0.4323 Y1.3830 F20.00 
N14270 G00 Z0.1000 
N14280 G00 X0.1530 Y1.3421 
N14290 G01 Z-0.0025 F10.00 
N14300 G01 X0.1530 Y1.2780 F20.00 
N14310 G00 Z0.1000 
N14320 G00 X0.1745 Y1.2673 
N14330 G01 Z-0.0025 F10.00 
N14340 G01 X0.2172 Y1.2673 F20.00 
N14350 G00 Z0.1000 
N14360 G00 X0.2389 Y1.2673 
N14370 G01 Z-0.0025 F10.00 
N14380 G01 X0.2816 Y1.2673 F20.00 
N14390 G00 Z0.1000 
N14400 G00 X0.3034 Y1.2673 
N14410 G01 Z-0.0025 F10.00 
N14420 G01 X0.3461 Y1.2673 F20.00 
N14430 G00 Z0.1000 
N14440 G00 X0.3678 Y1.2673 
N14450 G01 Z-0.0025 F10.00 
N14460 G01 X0.4106 Y1.2673 F20.00 
N14470 G00 Z0.1000 
N14480 G00 X0.4323 Y1.3421 
N14490 G01 Z-0.0025 F10.00 
N14500 G01 X0.4323 Y1.2780 F20.00 
N14510 G00 Z0.1000 
N14520 G00 X0.5780 Y0.2473 
N14530 G01 Z-0.0025 F10.00 
N14540 G01 X0.6207 Y0.2473 F20.00 
N14550 G00 Z0.1000 
N14560 G00 X0.6425 Y0.2473 
N14570 G01 Z-0.0025 F10.00 
N14580 G01 X0.6852 Y0.2473 F20.00 
N14590 G00 Z0.1000 
N14600 G00 X0.7069 Y0.2473 
N14610 G01 Z-0.0025 F10.00 
N14620 G01 X0.7496 Y0.2473 F20.00 
N14630 G00 Z0.1000 
N14640 G00 X0.7714 Y0.2473 
N14650 G01 Z-0.0025 F10.00 
N14660 G01 X0.8141 Y0.2473 F20.00 
N14670 G00 Z0.1000 
N14680 G00 X0.5780 Y0.2171 
N14690 G01 Z-0.0025 F10.00 
N14700 G01 X0.5780 Y0.1530 F20.00 
N14710 G00 Z0.1000 
N14720 G00 X0.5995 Y0.1423 
N14730 G01 Z-0.0025 F10.00 
N14740 G01 X0.6422 Y0.1423 F20.00 
N14750 G00 Z0.1000 
N14760 G00 X0.6639 Y0.2171 
N14770 G01 Z-0.0025 F10.00 
N14780 G01 X0.6639 Y0.1530 F20.00 
N14790 G00 Z0.1000 
N14800 G00 X0.6854 Y0.1423 
N14810 G01 Z-0.0025 F10.00 
N14820 G01 X0.7281 Y0.1423 F20.00 
N14830 G00 Z0.1000 
N14840 G00 X0.7499 Y0.2171 
N14850 G01 Z-0.0025 F10.00 
N14860 G01 X0.7499 Y0.1530 F20.00 
N14870 G00 Z0.1000 
N14880 G00 X0.7714 Y0.1423 
N14890 G01 Z-0.0025 F10.00 
N14900 G01 X0.8141 Y0.1423 F20.00 
N14910 G00 Z0.1000 
N14920 G00 X0.8358 Y0.2171 
N14930 G01 Z-0.0025 F10.00 
N14940 G01 X0.8358 Y0.1530 F20.00 
N14950 G00 Z0.5000 
N14960 M05
N14970 M02
