N14980 (.../pcb-gcode-3.6.0.4/pcb-gcode.ulp)
N14990 (Copyright 2005 - 2012 by John Johnson)
N15000 (See readme.txt for licensing terms.)
N15010 (This file generated from the board:)
N15020 (.../eagle/ServoDriver/servodriver.brd)
N15030 (Current profile is .../pcb-gcode-3.6.0.4/profiles/generic.pp  )
N15040 (This file generated 2014-04-05 14:54:57)
N15050 (Settings from pcb-machine.h)
N15060 (  Tool Size)
N15070 (0.0025 )
N15080 (Z Axis Settings)
N15090 (  High     Up        Down     Drill)
N15100 (0.5000 	0.1000 	-0.0020 	-0.0700 )
N15110 (spindle on time = 1.0000)
N15120 (milling depth = -0.0100)
N15130 (text depth = -0.0025)
N15140 (tool change at 0.0000 0.0000 0.5000 )
N15150 (feed rate xy = F20.00 )
N15160 (feed rate z  = F10.00 )
N15170 (Settings from pcb-defaults.h)
N15180 (isolate min = 0.0020)
N15190 (isolate max = 0.0200)
N15200 (isolate step = 0.0100)
N15210 (Generated bottom outlines, bottom drill, )
N15220 (Unit of measure: inch)
N15230 (Inch Mode)
N15240 G20
N15250 (Absolute Coordinates)
N15260 G90
N15270 G00 X0.0000 Y0.0000 
N15280 M03
N15290 G04 P1.000000
N15300 G00 Z0.1000 
N15310 G00 X-2.7307 Y0.6043 
N15320 G01 Z-0.0025 F10.00 
N15330 G01 X-2.7461 Y0.5889 F20.00 
N15340 G01 X-2.7461 Y0.5582 
N15350 G01 X-2.7307 Y0.5429 
N15360 G01 X-2.7154 Y0.5429 
N15370 G01 X-2.7000 Y0.5582 
N15380 G01 X-2.7000 Y0.5889 
N15390 G01 X-2.6847 Y0.6043 
N15400 G01 X-2.6693 Y0.6043 
N15410 G01 X-2.6540 Y0.5889 
N15420 G01 X-2.6540 Y0.5582 
N15430 G01 X-2.6693 Y0.5429 
N15440 G00 Z0.1000 
N15450 G00 X-2.6540 Y0.6810 
N15460 G01 Z-0.0025 F10.00 
N15470 G01 X-2.6540 Y0.6503 F20.00 
N15480 G01 X-2.6693 Y0.6349 
N15490 G01 X-2.7000 Y0.6349 
N15500 G01 X-2.7154 Y0.6503 
N15510 G01 X-2.7154 Y0.6810 
N15520 G01 X-2.7000 Y0.6963 
N15530 G01 X-2.6847 Y0.6963 
N15540 G01 X-2.6847 Y0.6349 
N15550 G00 Z0.1000 
N15560 G00 X-2.6540 Y0.7270 
N15570 G01 Z-0.0025 F10.00 
N15580 G01 X-2.7154 Y0.7270 F20.00 
N15590 G00 Z0.1000 
N15600 G00 X-2.6847 Y0.7270 
N15610 G01 Z-0.0025 F10.00 
N15620 G01 X-2.7154 Y0.7577 F20.00 
N15630 G01 X-2.7154 Y0.7731 
N15640 G00 Z0.1000 
N15650 G00 X-2.7154 Y0.8038 
N15660 G01 Z-0.0025 F10.00 
N15670 G01 X-2.6540 Y0.8344 F20.00 
N15680 G01 X-2.7154 Y0.8651 
N15690 G00 Z0.1000 
N15700 G00 X-2.6540 Y0.9112 
N15710 G01 Z-0.0025 F10.00 
N15720 G01 X-2.6540 Y0.9419 F20.00 
N15730 G01 X-2.6693 Y0.9572 
N15740 G01 X-2.7000 Y0.9572 
N15750 G01 X-2.7154 Y0.9419 
N15760 G01 X-2.7154 Y0.9112 
N15770 G01 X-2.7000 Y0.8958 
N15780 G01 X-2.6693 Y0.8958 
N15790 G01 X-2.6540 Y0.9112 
N15800 G00 Z0.1000 
N15810 G00 X-2.7461 Y0.9879 
N15820 G01 Z-0.0025 F10.00 
N15830 G01 X-2.6540 Y0.9879 F20.00 
N15840 G01 X-2.6540 Y1.0340 
N15850 G01 X-2.6693 Y1.0493 
N15860 G01 X-2.7307 Y1.0493 
N15870 G01 X-2.7461 Y1.0340 
N15880 G01 X-2.7461 Y0.9879 
N15890 G00 Z0.1000 
N15900 G00 X-2.6540 Y1.0800 
N15910 G01 Z-0.0025 F10.00 
N15920 G01 X-2.7154 Y1.0800 F20.00 
N15930 G00 Z0.1000 
N15940 G00 X-2.6847 Y1.0800 
N15950 G01 Z-0.0025 F10.00 
N15960 G01 X-2.7154 Y1.1107 F20.00 
N15970 G01 X-2.7154 Y1.1260 
N15980 G00 Z0.1000 
N15990 G00 X-2.7154 Y1.1567 
N16000 G01 Z-0.0025 F10.00 
N16010 G01 X-2.7154 Y1.1721 F20.00 
N16020 G01 X-2.6540 Y1.1721 
N16030 G00 Z0.1000 
N16040 G00 X-2.6540 Y1.1567 
N16050 G01 Z-0.0025 F10.00 
N16060 G01 X-2.6540 Y1.1874 F20.00 
N16070 G00 Z0.1000 
N16080 G00 X-2.7614 Y1.1721 
N16090 G01 Z-0.0025 F10.00 
N16100 G01 X-2.7461 Y1.1721 F20.00 
N16110 G00 Z0.1000 
N16120 G00 X-2.7154 Y1.2181 
N16130 G01 Z-0.0025 F10.00 
N16140 G01 X-2.6540 Y1.2488 F20.00 
N16150 G01 X-2.7154 Y1.2795 
N16160 G00 Z0.1000 
N16170 G00 X-2.6540 Y1.3562 
N16180 G01 Z-0.0025 F10.00 
N16190 G01 X-2.6540 Y1.3255 F20.00 
N16200 G01 X-2.6693 Y1.3102 
N16210 G01 X-2.7000 Y1.3102 
N16220 G01 X-2.7154 Y1.3255 
N16230 G01 X-2.7154 Y1.3562 
N16240 G01 X-2.7000 Y1.3716 
N16250 G01 X-2.6847 Y1.3716 
N16260 G01 X-2.6847 Y1.3102 
N16270 G00 Z0.1000 
N16280 G00 X-2.6540 Y1.4023 
N16290 G01 Z-0.0025 F10.00 
N16300 G01 X-2.7154 Y1.4023 F20.00 
N16310 G00 Z0.1000 
N16320 G00 X-2.6847 Y1.4023 
N16330 G01 Z-0.0025 F10.00 
N16340 G01 X-2.7154 Y1.4330 F20.00 
N16350 G01 X-2.7154 Y1.4483 
N16360 G00 Z0.5000 
N16370 M05
N16380 M02
