N00000 (.../pcb-gcode-3.6.0.4/pcb-gcode.ulp)
N00010 (Copyright 2005 - 2012 by John Johnson)
N00020 (See readme.txt for licensing terms.)
N00030 (This file generated from the board:)
N00040 (.../eagle/ServoDriver/servodriver.brd)
N00050 (Current profile is .../pcb-gcode-3.6.0.4/profiles/generic.pp  )
N00060 (This file generated 2014-04-05 14:54:56)
N00070 (Settings from pcb-machine.h)
N00080 (  Tool Size)
N00090 (0.0100 )
N00100 (Z Axis Settings)
N00110 (  High     Up        Down     Drill)
N00120 (0.5000 	0.1000 	-0.0020 	-0.0700 )
N00130 (spindle on time = 1.0000)
N00140 (milling depth = -0.0100)
N00150 (text depth = -0.0025)
N00160 (tool change at 0.0000 0.0000 0.5000 )
N00170 (feed rate xy = F20.00 )
N00180 (feed rate z  = F10.00 )
N00190 (Settings from pcb-defaults.h)
N00200 (isolate min = 0.0020)
N00210 (isolate max = 0.0200)
N00220 (isolate step = 0.0100)
N00230 (Generated bottom outlines, bottom drill, )
N00240 (Unit of measure: inch)
N00250 ( Tool|       Size       |  Min Sub |  Max Sub |   Count )
N00260 ( T01  3.302mm 0.1300in 0.0000in 0.0000in )
N00270 ( T02  0.813mm 0.0320in 0.0000in 0.0000in )
N00280 ( T03  1.016mm 0.0400in 0.0000in 0.0000in )
N00290 ( T04  1.118mm 0.0440in 0.0000in 0.0000in )
N00300 ( T05  1.200mm 0.0472in 0.0000in 0.0000in )
N00310 ( T06  3.000mm 0.1181in 0.0000in 0.0000in )
N00320 (Inch Mode)
N00330 G20
N00340 (Absolute Coordinates)
N00350 G90
N00360 M05
N00370 G00 Z0.5000 
N00380 G00 X0.0000 Y0.0000 
N00390 M06 T01  ; 0.1300 
N00400 G01 Z0.0000 F10.00 
N00410 M06 T01  ; 0.1300 
N00420 G00 Z0.1000 
N00430 M03
N00440 G04 P1.000000
N00450 G00 X-1.7900 Y1.4000 
N00460 G01 Z-0.0700 F10.00 
N00470 G00 Z0.1000 
N00480 M05
N00490 G00 Z0.5000 
N00500 G00 X0.0000 Y0.0000 
N00510 M06 T02  ; 0.0320 
N00520 G01 Z0.0000 F10.00 
N00530 M06 T02  ; 0.0320 
N00540 G00 Z0.1000 
N00550 M03
N00560 G04 P1.000000
N00570 G00 X-1.3000 Y0.6000 
N00580 G01 Z-0.0700 F10.00 
N00590 G00 Z0.1000 
N00600 G00 X-1.3000 Y0.9000 
N00610 G01 Z-0.0700 F10.00 
N00620 G00 Z0.1000 
N00630 G00 X-1.3000 Y1.0250 
N00640 G01 Z-0.0700 F10.00 
N00650 G00 Z0.1000 
N00660 G00 X-1.4000 Y0.3000 
N00670 G01 Z-0.0700 F10.00 
N00680 G00 Z0.1000 
N00690 G00 X-1.4000 Y0.6000 
N00700 G01 Z-0.0700 F10.00 
N00710 G00 Z0.1000 
N00720 G00 X-1.4000 Y0.9000 
N00730 G01 Z-0.0700 F10.00 
N00740 G00 Z0.1000 
N00750 G00 X-1.5000 Y0.3000 
N00760 G01 Z-0.0700 F10.00 
N00770 G00 Z0.1000 
N00780 G00 X-1.5000 Y0.7000 
N00790 G01 Z-0.0700 F10.00 
N00800 G00 Z0.1000 
N00810 G00 X-1.5000 Y0.8000 
N00820 G01 Z-0.0700 F10.00 
N00830 G00 Z0.1000 
N00840 G00 X-1.5000 Y1.1500 
N00850 G01 Z-0.0700 F10.00 
N00860 G00 Z0.1000 
N00870 G00 X-0.6000 Y1.4000 
N00880 G01 Z-0.0700 F10.00 
N00890 G00 Z0.1000 
N00900 G00 X-0.6000 Y1.5000 
N00910 G01 Z-0.0700 F10.00 
N00920 G00 Z0.1000 
N00930 G00 X-0.6000 Y0.3500 
N00940 G01 Z-0.0700 F10.00 
N00950 G00 Z0.1000 
N00960 G00 X-0.7000 Y0.3500 
N00970 G01 Z-0.0700 F10.00 
N00980 G00 Z0.1000 
N00990 G00 X-0.7500 Y0.9000 
N01000 G01 Z-0.0700 F10.00 
N01010 G00 Z0.1000 
N01020 G00 X-0.7500 Y1.1500 
N01030 G01 Z-0.0700 F10.00 
N01040 G00 Z0.1000 
N01050 G00 X-0.8000 Y1.4000 
N01060 G01 Z-0.0700 F10.00 
N01070 G00 Z0.1000 
N01080 G00 X-0.8000 Y1.5000 
N01090 G01 Z-0.0700 F10.00 
N01100 G00 Z0.1000 
N01110 G00 X-0.8500 Y0.9000 
N01120 G01 Z-0.0700 F10.00 
N01130 G00 Z0.1000 
N01140 G00 X-0.8500 Y1.1500 
N01150 G01 Z-0.0700 F10.00 
N01160 G00 Z0.1000 
N01170 G00 X-0.9000 Y1.0250 
N01180 G01 Z-0.0700 F10.00 
N01190 G00 Z0.1000 
N01200 G00 X-1.0000 Y1.3000 
N01210 G01 Z-0.0700 F10.00 
N01220 G00 Z0.1000 
N01230 G00 X-1.0000 Y1.4000 
N01240 G01 Z-0.0700 F10.00 
N01250 G00 Z0.1000 
N01260 G00 X-1.0000 Y0.2000 
N01270 G01 Z-0.0700 F10.00 
N01280 G00 Z0.1000 
N01290 G00 X-1.0000 Y0.6000 
N01300 G01 Z-0.0700 F10.00 
N01310 G00 Z0.1000 
N01320 G00 X-1.1000 Y0.6000 
N01330 G01 Z-0.0700 F10.00 
N01340 G00 Z0.1000 
N01350 G00 X-1.1000 Y0.9000 
N01360 G01 Z-0.0700 F10.00 
N01370 G00 Z0.1000 
N01380 G00 X-1.1000 Y1.1500 
N01390 G01 Z-0.0700 F10.00 
N01400 G00 Z0.1000 
N01410 G00 X-1.2000 Y0.6000 
N01420 G01 Z-0.0700 F10.00 
N01430 G00 Z0.1000 
N01440 G00 X-1.2000 Y0.9000 
N01450 G01 Z-0.0700 F10.00 
N01460 G00 Z0.1000 
N01470 M05
N01480 G00 Z0.5000 
N01490 G00 X0.0000 Y0.0000 
N01500 M06 T03  ; 0.0400 
N01510 G01 Z0.0000 F10.00 
N01520 M06 T03  ; 0.0400 
N01530 G00 Z0.1000 
N01540 M03
N01550 G04 P1.000000
N01560 G00 X-0.6000 Y0.2000 
N01570 G01 Z-0.0700 F10.00 
N01580 G00 Z0.1000 
N01590 G00 X-0.7000 Y0.2000 
N01600 G01 Z-0.0700 F10.00 
N01610 G00 Z0.1000 
N01620 G00 X-0.8000 Y0.2000 
N01630 G01 Z-0.0700 F10.00 
N01640 G00 Z0.1000 
N01650 G00 X-1.2000 Y1.3000 
N01660 G01 Z-0.0700 F10.00 
N01670 G00 Z0.1000 
N01680 G00 X-1.2000 Y1.4000 
N01690 G01 Z-0.0700 F10.00 
N01700 G00 Z0.1000 
N01710 G00 X-1.2000 Y1.5000 
N01720 G01 Z-0.0700 F10.00 
N01730 G00 Z0.1000 
N01740 M05
N01750 G00 Z0.5000 
N01760 G00 X0.0000 Y0.0000 
N01770 M06 T04  ; 0.0440 
N01780 G01 Z0.0000 F10.00 
N01790 M06 T04  ; 0.0440 
N01800 G00 Z0.1000 
N01810 M03
N01820 G04 P1.000000
N01830 G00 X-0.3000 Y0.6500 
N01840 G01 Z-0.0700 F10.00 
N01850 G00 Z0.1000 
N01860 G00 X-0.7000 Y0.6500 
N01870 G01 Z-0.0700 F10.00 
N01880 G00 Z0.1000 
N01890 M05
N01900 G00 Z0.5000 
N01910 G00 X0.0000 Y0.0000 
N01920 M06 T05  ; 0.0472 
N01930 G01 Z0.0000 F10.00 
N01940 M06 T05  ; 0.0472 
N01950 G00 Z0.1000 
N01960 M03
N01970 G04 P1.000000
N01980 G00 X-1.3031 Y0.2000 
N01990 G01 Z-0.0700 F10.00 
N02000 G00 Z0.1000 
N02010 G00 X-1.5000 Y0.2000 
N02020 G01 Z-0.0700 F10.00 
N02030 G00 Z0.1000 
N02040 G00 X-1.6969 Y0.2000 
N02050 G01 Z-0.0700 F10.00 
N02060 G00 Z0.1000 
N02070 G00 X-0.3000 Y1.3622 
N02080 G01 Z-0.0700 F10.00 
N02090 G00 Z0.1000 
N02100 G00 X-0.3000 Y1.5000 
N02110 G01 Z-0.0700 F10.00 
N02120 G00 Z0.1000 
N02130 M05
N02140 G00 Z0.5000 
N02150 G00 X0.0000 Y0.0000 
N02160 M06 T06  ; 0.1181 
N02170 G01 Z0.0000 F10.00 
N02180 M06 T06  ; 0.1181 
N02190 G00 Z0.1000 
N02200 M03
N02210 G04 P1.000000
N02220 G00 X-0.2500 Y1.7500 
N02230 G01 Z-0.0700 F10.00 
N02240 G00 Z0.1000 
N02250 G00 X-0.2500 Y0.2500 
N02260 G01 Z-0.0700 F10.00 
N02270 G00 Z0.1000 
N02280 G00 X-2.7500 Y1.7500 
N02290 G01 Z-0.0700 F10.00 
N02300 G00 Z0.1000 
N02310 G00 X-2.7500 Y0.2500 
N02320 G01 Z-0.0700 F10.00 
N02330 G00 Z0.1000 
N02340 T01 
N02350 G00 Z0.5000 
N02360 M05
N02370 M02
